MoveJ Offs(p0,65.2,186.72, 10), v100, z1, tool0;
MoveL Offs(p0,65.2,186.72, 0), v100, z5, tool0;
MoveL Offs(p0,65.21047999999999,186.54212, 0), v100, z5, tool0;
MoveL Offs(p0,65.24064000000001,186.32416000000006, 0), v100, z5, tool0;
MoveL Offs(p0,65.28856000000002,186.07164, 0), v100, z5, tool0;
MoveL Offs(p0,65.35231999999999,185.79008000000002, 0), v100, z5, tool0;
MoveL Offs(p0,65.42999999999999,185.48499999999999, 0), v100, z5, tool0;
MoveL Offs(p0,65.51968,185.16191999999998, 0), v100, z5, tool0;
MoveL Offs(p0,65.61944,184.82635999999997, 0), v100, z5, tool0;
MoveL Offs(p0,65.72736,184.48384000000001, 0), v100, z5, tool0;
MoveL Offs(p0,65.84152,184.13988, 0), v100, z5, tool0;
MoveL Offs(p0,65.96000000000001,183.8, 0), v100, z5, tool0;
MoveL Offs(p0,65.96000000000001,183.8, 0), v100, z5, tool0;
MoveL Offs(p0,66.34272,182.58148, 0), v100, z5, tool0;
MoveL Offs(p0,66.78016000000001,180.87744000000006, 0), v100, z5, tool0;
MoveL Offs(p0,67.25024,178.80715999999998, 0), v100, z5, tool0;
MoveL Offs(p0,67.73088,176.48992000000004, 0), v100, z5, tool0;
MoveL Offs(p0,68.2,174.04500000000002, 0), v100, z5, tool0;
MoveL Offs(p0,68.63552,171.59167999999997, 0), v100, z5, tool0;
MoveL Offs(p0,69.01536,169.24924, 0), v100, z5, tool0;
MoveL Offs(p0,69.31744,167.13696000000004, 0), v100, z5, tool0;
MoveL Offs(p0,69.51968000000001,165.37412, 0), v100, z5, tool0;
MoveL Offs(p0,69.6,164.07999999999998, 0), v100, z5, tool0;
MoveL Offs(p0,69.6,163.12, 0), v100, z5, tool0;
MoveL Offs(p0,67.76,164.16, 0), v100, z5, tool0;
MoveL Offs(p0,67.76,164.16, 0), v100, z5, tool0;
MoveL Offs(p0,67.15752,164.47796, 0), v100, z5, tool0;
MoveL Offs(p0,66.59776000000002,164.73568000000003, 0), v100, z5, tool0;
MoveL Offs(p0,66.08023999999999,164.93292000000002, 0), v100, z5, tool0;
MoveL Offs(p0,65.60448,165.06944, 0), v100, z5, tool0;
MoveL Offs(p0,65.17,165.145, 0), v100, z5, tool0;
MoveL Offs(p0,64.77632,165.15935999999996, 0), v100, z5, tool0;
MoveL Offs(p0,64.42295999999999,165.11228, 0), v100, z5, tool0;
MoveL Offs(p0,64.10944,165.00352000000004, 0), v100, z5, tool0;
MoveL Offs(p0,63.83528,164.83283999999998, 0), v100, z5, tool0;
MoveL Offs(p0,63.6,164.6, 0), v100, z5, tool0;
MoveL Offs(p0,63.6,164.6, 0), v100, z5, tool0;
MoveL Offs(p0,63.50608000000001,164.45028000000002, 0), v100, z5, tool0;
MoveL Offs(p0,63.46784000000001,164.25664000000003, 0), v100, z5, tool0;
MoveL Offs(p0,63.490559999999995,164.00636000000003, 0), v100, z5, tool0;
MoveL Offs(p0,63.57952,163.68672, 0), v100, z5, tool0;
MoveL Offs(p0,63.739999999999995,163.285, 0), v100, z5, tool0;
MoveL Offs(p0,63.97727999999999,162.78848, 0), v100, z5, tool0;
MoveL Offs(p0,64.29664,162.18444, 0), v100, z5, tool0;
MoveL Offs(p0,64.70336,161.46016000000003, 0), v100, z5, tool0;
MoveL Offs(p0,65.20272000000001,160.60292, 0), v100, z5, tool0;
MoveL Offs(p0,65.8,159.6, 0), v100, z5, tool0;
MoveL Offs(p0,65.8,159.6, 0), v100, z5, tool0;
MoveL Offs(p0,66.75416000000001,157.98396000000002, 0), v100, z5, tool0;
MoveL Offs(p0,67.72608000000001,156.29088000000004, 0), v100, z5, tool0;
MoveL Offs(p0,68.68792,154.57332000000002, 0), v100, z5, tool0;
MoveL Offs(p0,69.61184,152.88384000000002, 0), v100, z5, tool0;
MoveL Offs(p0,70.47,151.275, 0), v100, z5, tool0;
MoveL Offs(p0,71.23455999999999,149.79935999999998, 0), v100, z5, tool0;
MoveL Offs(p0,71.87768,148.50948, 0), v100, z5, tool0;
MoveL Offs(p0,72.37152,147.45792, 0), v100, z5, tool0;
MoveL Offs(p0,72.68824000000001,146.69724000000002, 0), v100, z5, tool0;
MoveL Offs(p0,72.8,146.28, 0), v100, z5, tool0;
MoveL Offs(p0,72.8,146.28, 0), v100, z5, tool0;
MoveL Offs(p0,72.75680000000001,146.13164, 0), v100, z5, tool0;
MoveL Offs(p0,72.63680000000002,145.95712000000006, 0), v100, z5, tool0;
MoveL Offs(p0,72.45439999999999,145.76628, 0), v100, z5, tool0;
MoveL Offs(p0,72.224,145.56896, 0), v100, z5, tool0;
MoveL Offs(p0,71.96000000000001,145.375, 0), v100, z5, tool0;
MoveL Offs(p0,71.67679999999999,145.19424, 0), v100, z5, tool0;
MoveL Offs(p0,71.38879999999999,145.03652, 0), v100, z5, tool0;
MoveL Offs(p0,71.1104,144.91168000000002, 0), v100, z5, tool0;
MoveL Offs(p0,70.85600000000001,144.82956000000001, 0), v100, z5, tool0;
MoveL Offs(p0,70.64,144.8, 0), v100, z5, tool0;
MoveL Offs(p0,70.64,144.8, 0), v100, z5, tool0;
MoveL Offs(p0,70.59884000000001,144.84796, 0), v100, z5, tool0;
MoveL Offs(p0,70.50272000000002,144.98688000000004, 0), v100, z5, tool0;
MoveL Offs(p0,70.35668,145.20932, 0), v100, z5, tool0;
MoveL Offs(p0,70.16576,145.50784000000004, 0), v100, z5, tool0;
MoveL Offs(p0,69.935,145.875, 0), v100, z5, tool0;
MoveL Offs(p0,69.66944000000001,146.30336, 0), v100, z5, tool0;
MoveL Offs(p0,69.37411999999999,146.78547999999998, 0), v100, z5, tool0;
MoveL Offs(p0,69.05408000000001,147.31392, 0), v100, z5, tool0;
MoveL Offs(p0,68.71436,147.88124, 0), v100, z5, tool0;
MoveL Offs(p0,68.36,148.48, 0), v100, z5, tool0;
MoveL Offs(p0,68.36,148.48, 0), v100, z5, tool0;
MoveL Offs(p0,67.97524000000001,149.10292, 0), v100, z5, tool0;
MoveL Offs(p0,67.54752,149.76256000000006, 0), v100, z5, tool0;
MoveL Offs(p0,67.08668,150.44523999999998, 0), v100, z5, tool0;
MoveL Offs(p0,66.60256000000001,151.13728, 0), v100, z5, tool0;
MoveL Offs(p0,66.10499999999999,151.825, 0), v100, z5, tool0;
MoveL Offs(p0,65.60384,152.49471999999997, 0), v100, z5, tool0;
MoveL Offs(p0,65.10892,153.13276000000002, 0), v100, z5, tool0;
MoveL Offs(p0,64.63008,153.72544000000002, 0), v100, z5, tool0;
MoveL Offs(p0,64.17716,154.25908, 0), v100, z5, tool0;
MoveL Offs(p0,63.760000000000005,154.72, 0), v100, z5, tool0;
MoveL Offs(p0,63.760000000000005,154.72, 0), v100, z5, tool0;
MoveL Offs(p0,63.14428,155.36360000000002, 0), v100, z5, tool0;
MoveL Offs(p0,62.631040000000006,155.88480000000004, 0), v100, z5, tool0;
MoveL Offs(p0,62.20516,156.2932, 0), v100, z5, tool0;
MoveL Offs(p0,61.85152000000001,156.59840000000003, 0), v100, z5, tool0;
MoveL Offs(p0,61.55499999999999,156.81, 0), v100, z5, tool0;
MoveL Offs(p0,61.30047999999999,156.93759999999997, 0), v100, z5, tool0;
MoveL Offs(p0,61.07284,156.99079999999998, 0), v100, z5, tool0;
MoveL Offs(p0,60.85696,156.97920000000002, 0), v100, z5, tool0;
MoveL Offs(p0,60.637720000000016,156.9124, 0), v100, z5, tool0;
MoveL Offs(p0,60.4,156.8, 0), v100, z5, tool0;
MoveL Offs(p0,60.4,156.8, 0), v100, z5, tool0;
MoveL Offs(p0,60.19088000000001,156.68112000000002, 0), v100, z5, tool0;
MoveL Offs(p0,60.01824000000001,156.55936000000003, 0), v100, z5, tool0;
MoveL Offs(p0,59.88015999999999,156.42703999999998, 0), v100, z5, tool0;
MoveL Offs(p0,59.77472,156.27648000000002, 0), v100, z5, tool0;
MoveL Offs(p0,59.7,156.1, 0), v100, z5, tool0;
MoveL Offs(p0,59.65408000000001,155.88992000000002, 0), v100, z5, tool0;
MoveL Offs(p0,59.635040000000004,155.63856, 0), v100, z5, tool0;
MoveL Offs(p0,59.64096000000001,155.33823999999998, 0), v100, z5, tool0;
MoveL Offs(p0,59.669920000000005,154.98128000000003, 0), v100, z5, tool0;
MoveL Offs(p0,59.720000000000006,154.56, 0), v100, z5, tool0;
MoveL Offs(p0,59.720000000000006,154.56, 0), v100, z5, tool0;
MoveL Offs(p0,59.77224000000001,154.08252, 0), v100, z5, tool0;
MoveL Offs(p0,59.80672000000002,153.70176000000006, 0), v100, z5, tool0;
MoveL Offs(p0,59.82008,153.41124, 0), v100, z5, tool0;
MoveL Offs(p0,59.80896,153.20448000000002, 0), v100, z5, tool0;
MoveL Offs(p0,59.77,153.075, 0), v100, z5, tool0;
MoveL Offs(p0,59.69984000000001,153.01631999999998, 0), v100, z5, tool0;
MoveL Offs(p0,59.59512000000001,153.02195999999998, 0), v100, z5, tool0;
MoveL Offs(p0,59.45248,153.08544, 0), v100, z5, tool0;
MoveL Offs(p0,59.26856,153.20028, 0), v100, z5, tool0;
MoveL Offs(p0,59.04,153.35999999999999, 0), v100, z5, tool0;
MoveL Offs(p0,59.04,153.35999999999999, 0), v100, z5, tool0;
MoveL Offs(p0,58.09104,154.01708000000002, 0), v100, z5, tool0;
MoveL Offs(p0,57.00192000000002,154.72384000000005, 0), v100, z5, tool0;
MoveL Offs(p0,55.817280000000004,155.45556, 0), v100, z5, tool0;
MoveL Offs(p0,54.58176000000001,156.18752, 0), v100, z5, tool0;
MoveL Offs(p0,53.339999999999996,156.895, 0), v100, z5, tool0;
MoveL Offs(p0,52.13664,157.55327999999997, 0), v100, z5, tool0;
MoveL Offs(p0,51.01631999999999,158.13763999999998, 0), v100, z5, tool0;
MoveL Offs(p0,50.02368,158.62336, 0), v100, z5, tool0;
MoveL Offs(p0,49.20336,158.98572, 0), v100, z5, tool0;
MoveL Offs(p0,48.6,159.2, 0), v100, z5, tool0;
MoveL Offs(p0,48.6,159.2, 0), v100, z5, tool0;
MoveL Offs(p0,48.156880000000015,159.31868000000003, 0), v100, z5, tool0;
MoveL Offs(p0,47.78144000000001,159.41024000000002, 0), v100, z5, tool0;
MoveL Offs(p0,47.46456,159.47395999999998, 0), v100, z5, tool0;
MoveL Offs(p0,47.19712,159.50912000000002, 0), v100, z5, tool0;
MoveL Offs(p0,46.97,159.51500000000001, 0), v100, z5, tool0;
MoveL Offs(p0,46.77407999999999,159.49088, 0), v100, z5, tool0;
MoveL Offs(p0,46.60024,159.43604, 0), v100, z5, tool0;
MoveL Offs(p0,46.43936,159.34976, 0), v100, z5, tool0;
MoveL Offs(p0,46.28232,159.23132, 0), v100, z5, tool0;
MoveL Offs(p0,46.12,159.07999999999998, 0), v100, z5, tool0;
MoveL Offs(p0,46.12,159.07999999999998, 0), v100, z5, tool0;
MoveL Offs(p0,45.921960000000006,158.89132, 0), v100, z5, tool0;
MoveL Offs(p0,45.788480000000014,158.71776000000006, 0), v100, z5, tool0;
MoveL Offs(p0,45.76252000000001,158.50003999999998, 0), v100, z5, tool0;
MoveL Offs(p0,45.88704,158.17888, 0), v100, z5, tool0;
MoveL Offs(p0,46.205,157.695, 0), v100, z5, tool0;
MoveL Offs(p0,46.75936,156.98912, 0), v100, z5, tool0;
MoveL Offs(p0,47.59308,156.00196, 0), v100, z5, tool0;
MoveL Offs(p0,48.749120000000005,154.67424000000003, 0), v100, z5, tool0;
MoveL Offs(p0,50.270439999999994,152.94668000000001, 0), v100, z5, tool0;
MoveL Offs(p0,52.2,150.76, 0), v100, z5, tool0;
MoveL Offs(p0,56.56,145.8, 0), v100, z5, tool0;
MoveL Offs(p0,55.2,145.6, 0), v100, z5, tool0;
MoveL Offs(p0,55.2,145.6, 0), v100, z5, tool0;
MoveL Offs(p0,54.66616000000001,145.48592000000002, 0), v100, z5, tool0;
MoveL Offs(p0,54.24128000000002,145.31616000000002, 0), v100, z5, tool0;
MoveL Offs(p0,53.92632000000001,145.09743999999998, 0), v100, z5, tool0;
MoveL Offs(p0,53.72224,144.83648, 0), v100, z5, tool0;
MoveL Offs(p0,53.629999999999995,144.54000000000002, 0), v100, z5, tool0;
MoveL Offs(p0,53.65056,144.21472, 0), v100, z5, tool0;
MoveL Offs(p0,53.78488,143.86736000000002, 0), v100, z5, tool0;
MoveL Offs(p0,54.03392,143.50464000000002, 0), v100, z5, tool0;
MoveL Offs(p0,54.39864,143.13328, 0), v100, z5, tool0;
MoveL Offs(p0,54.879999999999995,142.76, 0), v100, z5, tool0;
MoveL Offs(p0,54.879999999999995,142.76, 0), v100, z5, tool0;
MoveL Offs(p0,55.13399999999999,142.5872, 0), v100, z5, tool0;
MoveL Offs(p0,55.45760000000003,142.36160000000004, 0), v100, z5, tool0;
MoveL Offs(p0,55.8412,142.0904, 0), v100, z5, tool0;
MoveL Offs(p0,56.275200000000005,141.78080000000003, 0), v100, z5, tool0;
MoveL Offs(p0,56.75,141.44, 0), v100, z5, tool0;
MoveL Offs(p0,57.25600000000001,141.0752, 0), v100, z5, tool0;
MoveL Offs(p0,57.7836,140.6936, 0), v100, z5, tool0;
MoveL Offs(p0,58.32320000000001,140.3024, 0), v100, z5, tool0;
MoveL Offs(p0,58.8652,139.9088, 0), v100, z5, tool0;
MoveL Offs(p0,59.4,139.52, 0), v100, z5, tool0;
MoveL Offs(p0,62.64,137.16, 0), v100, z5, tool0;
MoveL Offs(p0,61.32000000000001,134.48, 0), v100, z5, tool0;
MoveL Offs(p0,61.32000000000001,134.48, 0), v100, z5, tool0;
MoveL Offs(p0,60.889800000000015,133.55599999999998, 0), v100, z5, tool0;
MoveL Offs(p0,60.48960000000002,132.56960000000004, 0), v100, z5, tool0;
MoveL Offs(p0,60.12299999999999,131.5352, 0), v100, z5, tool0;
MoveL Offs(p0,59.79359999999999,130.4672, 0), v100, z5, tool0;
MoveL Offs(p0,59.504999999999995,129.38, 0), v100, z5, tool0;
MoveL Offs(p0,59.260799999999996,128.288, 0), v100, z5, tool0;
MoveL Offs(p0,59.0646,127.2056, 0), v100, z5, tool0;
MoveL Offs(p0,58.92,126.14720000000003, 0), v100, z5, tool0;
MoveL Offs(p0,58.83059999999999,125.12720000000002, 0), v100, z5, tool0;
MoveL Offs(p0,58.8,124.16, 0), v100, z5, tool0;
MoveL Offs(p0,58.8,124.16, 0), v100, z5, tool0;
MoveL Offs(p0,58.795759999999994,123.67368000000002, 0), v100, z5, tool0;
MoveL Offs(p0,58.78048000000001,123.26464000000001, 0), v100, z5, tool0;
MoveL Offs(p0,58.75032,122.92375999999999, 0), v100, z5, tool0;
MoveL Offs(p0,58.701440000000005,122.64192, 0), v100, z5, tool0;
MoveL Offs(p0,58.629999999999995,122.41, 0), v100, z5, tool0;
MoveL Offs(p0,58.53216,122.21887999999998, 0), v100, z5, tool0;
MoveL Offs(p0,58.40408,122.05944, 0), v100, z5, tool0;
MoveL Offs(p0,58.24192000000001,121.92256000000002, 0), v100, z5, tool0;
MoveL Offs(p0,58.04184,121.79911999999999, 0), v100, z5, tool0;
MoveL Offs(p0,57.8,121.67999999999999, 0), v100, z5, tool0;
MoveL Offs(p0,57.8,121.67999999999999, 0), v100, z5, tool0;
MoveL Offs(p0,57.63480000000002,121.60236000000002, 0), v100, z5, tool0;
MoveL Offs(p0,57.47680000000001,121.51488000000002, 0), v100, z5, tool0;
MoveL Offs(p0,57.3284,121.41971999999998, 0), v100, z5, tool0;
MoveL Offs(p0,57.19200000000001,121.31904, 0), v100, z5, tool0;
MoveL Offs(p0,57.07000000000001,121.215, 0), v100, z5, tool0;
MoveL Offs(p0,56.964800000000004,121.10976000000001, 0), v100, z5, tool0;
MoveL Offs(p0,56.8788,121.00547999999999, 0), v100, z5, tool0;
MoveL Offs(p0,56.8144,120.90432000000001, 0), v100, z5, tool0;
MoveL Offs(p0,56.774,120.80844000000002, 0), v100, z5, tool0;
MoveL Offs(p0,56.760000000000005,120.72, 0), v100, z5, tool0;
MoveL Offs(p0,56.760000000000005,120.72, 0), v100, z5, tool0;
MoveL Offs(p0,56.74688,120.61872000000001, 0), v100, z5, tool0;
MoveL Offs(p0,56.73184000000002,120.48576000000003, 0), v100, z5, tool0;
MoveL Offs(p0,56.71535999999999,120.32544, 0), v100, z5, tool0;
MoveL Offs(p0,56.697919999999996,120.14208, 0), v100, z5, tool0;
MoveL Offs(p0,56.67999999999999,119.94000000000001, 0), v100, z5, tool0;
MoveL Offs(p0,56.66207999999999,119.72352000000001, 0), v100, z5, tool0;
MoveL Offs(p0,56.64464,119.49695999999999, 0), v100, z5, tool0;
MoveL Offs(p0,56.62816,119.26464000000001, 0), v100, z5, tool0;
MoveL Offs(p0,56.61312,119.03088, 0), v100, z5, tool0;
MoveL Offs(p0,56.6,118.8, 0), v100, z5, tool0;
MoveL Offs(p0,56.6,118.8, 0), v100, z5, tool0;
MoveL Offs(p0,56.55968,118.52931999999998, 0), v100, z5, tool0;
MoveL Offs(p0,56.48864000000001,118.18016000000003, 0), v100, z5, tool0;
MoveL Offs(p0,56.38976,117.76284000000001, 0), v100, z5, tool0;
MoveL Offs(p0,56.26592000000001,117.28768, 0), v100, z5, tool0;
MoveL Offs(p0,56.120000000000005,116.76500000000001, 0), v100, z5, tool0;
MoveL Offs(p0,55.95487999999999,116.20512, 0), v100, z5, tool0;
MoveL Offs(p0,55.77344000000001,115.61835999999998, 0), v100, z5, tool0;
MoveL Offs(p0,55.578559999999996,115.01504, 0), v100, z5, tool0;
MoveL Offs(p0,55.37311999999999,114.40547999999998, 0), v100, z5, tool0;
MoveL Offs(p0,55.160000000000004,113.8, 0), v100, z5, tool0;
MoveL Offs(p0,55.160000000000004,113.8, 0), v100, z5, tool0;
MoveL Offs(p0,54.831280000000014,112.87456000000002, 0), v100, z5, tool0;
MoveL Offs(p0,54.56064000000002,112.06048000000003, 0), v100, z5, tool0;
MoveL Offs(p0,54.341359999999995,111.31311999999998, 0), v100, z5, tool0;
MoveL Offs(p0,54.16672000000001,110.58784, 0), v100, z5, tool0;
MoveL Offs(p0,54.029999999999994,109.84, 0), v100, z5, tool0;
MoveL Offs(p0,53.924479999999996,109.02496, 0), v100, z5, tool0;
MoveL Offs(p0,53.84344,108.09808000000001, 0), v100, z5, tool0;
MoveL Offs(p0,53.78016,107.01471999999998, 0), v100, z5, tool0;
MoveL Offs(p0,53.727920000000005,105.73024000000001, 0), v100, z5, tool0;
MoveL Offs(p0,53.67999999999999,104.2, 0), v100, z5, tool0;
MoveL Offs(p0,53.67999999999999,104.2, 0), v100, z5, tool0;
MoveL Offs(p0,53.646760000000015,102.58056000000002, 0), v100, z5, tool0;
MoveL Offs(p0,53.64448000000001,101.11328000000003, 0), v100, z5, tool0;
MoveL Offs(p0,53.675319999999985,99.77272, 0), v100, z5, tool0;
MoveL Offs(p0,53.74144,98.53344000000001, 0), v100, z5, tool0;
MoveL Offs(p0,53.845000000000006,97.37, 0), v100, z5, tool0;
MoveL Offs(p0,53.98815999999999,96.25696, 0), v100, z5, tool0;
MoveL Offs(p0,54.173080000000006,95.16887999999999, 0), v100, z5, tool0;
MoveL Offs(p0,54.401920000000004,94.08032, 0), v100, z5, tool0;
MoveL Offs(p0,54.676840000000006,92.96584, 0), v100, z5, tool0;
MoveL Offs(p0,55.0,91.8, 0), v100, z5, tool0;
MoveL Offs(p0,55.0,91.8, 0), v100, z5, tool0;
MoveL Offs(p0,55.04124,91.5828, 0), v100, z5, tool0;
MoveL Offs(p0,55.00352,91.37760000000002, 0), v100, z5, tool0;
MoveL Offs(p0,54.86067999999999,91.17, 0), v100, z5, tool0;
MoveL Offs(p0,54.586560000000006,90.94559999999998, 0), v100, z5, tool0;
MoveL Offs(p0,54.154999999999994,90.69, 0), v100, z5, tool0;
MoveL Offs(p0,53.539840000000005,90.38880000000002, 0), v100, z5, tool0;
MoveL Offs(p0,52.714920000000006,90.0276, 0), v100, z5, tool0;
MoveL Offs(p0,51.65408,89.59200000000001, 0), v100, z5, tool0;
MoveL Offs(p0,50.33116,89.0676, 0), v100, z5, tool0;
MoveL Offs(p0,48.72,88.44, 0), v100, z5, tool0;
MoveL Offs(p0,48.72,88.44, 0), v100, z5, tool0;
MoveL Offs(p0,46.022760000000005,87.37880000000001, 0), v100, z5, tool0;
MoveL Offs(p0,43.59168000000001,86.40160000000003, 0), v100, z5, tool0;
MoveL Offs(p0,41.42171999999999,85.506, 0), v100, z5, tool0;
MoveL Offs(p0,39.50784,84.68960000000001, 0), v100, z5, tool0;
MoveL Offs(p0,37.845,83.95, 0), v100, z5, tool0;
MoveL Offs(p0,36.42816,83.28479999999999, 0), v100, z5, tool0;
MoveL Offs(p0,35.25228,82.6916, 0), v100, z5, tool0;
MoveL Offs(p0,34.31232,82.16799999999999, 0), v100, z5, tool0;
MoveL Offs(p0,33.60324,81.7116, 0), v100, z5, tool0;
MoveL Offs(p0,33.12,81.32000000000001, 0), v100, z5, tool0;
MoveL Offs(p0,33.12,81.32000000000001, 0), v100, z5, tool0;
MoveL Offs(p0,32.7,80.85632000000001, 0), v100, z5, tool0;
MoveL Offs(p0,32.37600000000001,80.38016000000002, 0), v100, z5, tool0;
MoveL Offs(p0,32.148,79.89583999999999, 0), v100, z5, tool0;
MoveL Offs(p0,32.016000000000005,79.40768, 0), v100, z5, tool0;
MoveL Offs(p0,31.98,78.92, 0), v100, z5, tool0;
MoveL Offs(p0,32.04,78.43712, 0), v100, z5, tool0;
MoveL Offs(p0,32.196000000000005,77.96336, 0), v100, z5, tool0;
MoveL Offs(p0,32.448,77.50304, 0), v100, z5, tool0;
MoveL Offs(p0,32.79600000000001,77.06048000000001, 0), v100, z5, tool0;
MoveL Offs(p0,33.239999999999995,76.64, 0), v100, z5, tool0;
MoveL Offs(p0,33.239999999999995,76.64, 0), v100, z5, tool0;
MoveL Offs(p0,33.67044,76.30280000000002, 0), v100, z5, tool0;
MoveL Offs(p0,34.077120000000015,76.0352, 0), v100, z5, tool0;
MoveL Offs(p0,34.46508,75.83720000000001, 0), v100, z5, tool0;
MoveL Offs(p0,34.83936,75.7088, 0), v100, z5, tool0;
MoveL Offs(p0,35.205,75.65, 0), v100, z5, tool0;
MoveL Offs(p0,35.567040000000006,75.6608, 0), v100, z5, tool0;
MoveL Offs(p0,35.930519999999994,75.7412, 0), v100, z5, tool0;
MoveL Offs(p0,36.30048000000001,75.8912, 0), v100, z5, tool0;
MoveL Offs(p0,36.681960000000004,76.1108, 0), v100, z5, tool0;
MoveL Offs(p0,37.08,76.4, 0), v100, z5, tool0;
MoveL Offs(p0,37.08,76.4, 0), v100, z5, tool0;
MoveL Offs(p0,37.82128000000001,76.81364, 0), v100, z5, tool0;
MoveL Offs(p0,38.75264000000001,77.07392000000002, 0), v100, z5, tool0;
MoveL Offs(p0,39.84336,77.18588, 0), v100, z5, tool0;
MoveL Offs(p0,41.062720000000006,77.15456000000002, 0), v100, z5, tool0;
MoveL Offs(p0,42.38,76.985, 0), v100, z5, tool0;
MoveL Offs(p0,43.764480000000006,76.68224000000001, 0), v100, z5, tool0;
MoveL Offs(p0,45.18544,76.25131999999999, 0), v100, z5, tool0;
MoveL Offs(p0,46.61216,75.69728, 0), v100, z5, tool0;
MoveL Offs(p0,48.01392,75.02516, 0), v100, z5, tool0;
MoveL Offs(p0,49.36,74.24, 0), v100, z5, tool0;
MoveL Offs(p0,49.36,74.24, 0), v100, z5, tool0;
MoveL Offs(p0,50.06288000000001,73.76028000000001, 0), v100, z5, tool0;
MoveL Offs(p0,50.75424000000001,73.23424000000003, 0), v100, z5, tool0;
MoveL Offs(p0,51.432159999999996,72.66356, 0), v100, z5, tool0;
MoveL Offs(p0,52.09472000000001,72.04992, 0), v100, z5, tool0;
MoveL Offs(p0,52.739999999999995,71.39500000000001, 0), v100, z5, tool0;
MoveL Offs(p0,53.36608,70.70048, 0), v100, z5, tool0;
MoveL Offs(p0,53.971039999999995,69.96804, 0), v100, z5, tool0;
MoveL Offs(p0,54.552960000000006,69.19936, 0), v100, z5, tool0;
MoveL Offs(p0,55.10992,68.39612000000001, 0), v100, z5, tool0;
MoveL Offs(p0,55.64,67.56, 0), v100, z5, tool0;
MoveL Offs(p0,55.64,67.56, 0), v100, z5, tool0;
MoveL Offs(p0,56.240880000000004,66.70012000000001, 0), v100, z5, tool0;
MoveL Offs(p0,56.88544,65.97056, 0), v100, z5, tool0;
MoveL Offs(p0,57.56456000000001,65.37444, 0), v100, z5, tool0;
MoveL Offs(p0,58.26912,64.91488000000001, 0), v100, z5, tool0;
MoveL Offs(p0,58.989999999999995,64.595, 0), v100, z5, tool0;
MoveL Offs(p0,59.71808,64.41792, 0), v100, z5, tool0;
MoveL Offs(p0,60.44424,64.38676, 0), v100, z5, tool0;
MoveL Offs(p0,61.15936000000001,64.50464, 0), v100, z5, tool0;
MoveL Offs(p0,61.85432000000001,64.77468000000002, 0), v100, z5, tool0;
MoveL Offs(p0,62.52,65.2, 0), v100, z5, tool0;
MoveL Offs(p0,63.56,66.03999999999999, 0), v100, z5, tool0;
MoveL Offs(p0,64.56,64.12, 0), v100, z5, tool0;
MoveL Offs(p0,64.56,64.12, 0), v100, z5, tool0;
MoveL Offs(p0,64.73692000000001,63.79484000000001, 0), v100, z5, tool0;
MoveL Offs(p0,64.92896000000003,63.44832000000004, 0), v100, z5, tool0;
MoveL Offs(p0,65.13203999999999,63.08788, 0), v100, z5, tool0;
MoveL Offs(p0,65.34208000000001,62.720960000000005, 0), v100, z5, tool0;
MoveL Offs(p0,65.55499999999999,62.355, 0), v100, z5, tool0;
MoveL Offs(p0,65.76672,61.99744, 0), v100, z5, tool0;
MoveL Offs(p0,65.97316,61.655719999999995, 0), v100, z5, tool0;
MoveL Offs(p0,66.17024,61.33728000000001, 0), v100, z5, tool0;
MoveL Offs(p0,66.35388,61.04956, 0), v100, z5, tool0;
MoveL Offs(p0,66.52000000000001,60.8, 0), v100, z5, tool0;
MoveL Offs(p0,66.52000000000001,60.8, 0), v100, z5, tool0;
MoveL Offs(p0,66.75908000000001,60.44632, 0), v100, z5, tool0;
MoveL Offs(p0,66.94944000000002,60.14496000000001, 0), v100, z5, tool0;
MoveL Offs(p0,67.09276,59.88343999999999, 0), v100, z5, tool0;
MoveL Offs(p0,67.19072000000001,59.64928, 0), v100, z5, tool0;
MoveL Offs(p0,67.245,59.42999999999999, 0), v100, z5, tool0;
MoveL Offs(p0,67.25728000000001,59.21312, 0), v100, z5, tool0;
MoveL Offs(p0,67.22924,58.98616, 0), v100, z5, tool0;
MoveL Offs(p0,67.16256000000001,58.73664000000001, 0), v100, z5, tool0;
MoveL Offs(p0,67.05892,58.45208, 0), v100, z5, tool0;
MoveL Offs(p0,66.92,58.120000000000005, 0), v100, z5, tool0;
MoveL Offs(p0,66.92,58.120000000000005, 0), v100, z5, tool0;
MoveL Offs(p0,66.67764000000001,57.443960000000004, 0), v100, z5, tool0;
MoveL Offs(p0,66.47872000000002,56.69568000000002, 0), v100, z5, tool0;
MoveL Offs(p0,66.32347999999999,55.886919999999996, 0), v100, z5, tool0;
MoveL Offs(p0,66.21216,55.02944, 0), v100, z5, tool0;
MoveL Offs(p0,66.14500000000001,54.135000000000005, 0), v100, z5, tool0;
MoveL Offs(p0,66.12224,53.21536, 0), v100, z5, tool0;
MoveL Offs(p0,66.14412,52.28228, 0), v100, z5, tool0;
MoveL Offs(p0,66.21088,51.34752000000001, 0), v100, z5, tool0;
MoveL Offs(p0,66.32276,50.422839999999994, 0), v100, z5, tool0;
MoveL Offs(p0,66.47999999999999,49.519999999999996, 0), v100, z5, tool0;
MoveL Offs(p0,67.03999999999999,46.839999999999996, 0), v100, z5, tool0;
MoveL Offs(p0,65.52000000000001,45.32, 0), v100, z5, tool0;
MoveL Offs(p0,65.52000000000001,45.32, 0), v100, z5, tool0;
MoveL Offs(p0,65.0506,44.80996000000001, 0), v100, z5, tool0;
MoveL Offs(p0,64.54400000000003,44.167680000000004, 0), v100, z5, tool0;
MoveL Offs(p0,64.02059999999999,43.42892, 0), v100, z5, tool0;
MoveL Offs(p0,63.500800000000005,42.62944, 0), v100, z5, tool0;
MoveL Offs(p0,63.004999999999995,41.805, 0), v100, z5, tool0;
MoveL Offs(p0,62.553599999999996,40.99136, 0), v100, z5, tool0;
MoveL Offs(p0,62.16700000000001,40.22428, 0), v100, z5, tool0;
MoveL Offs(p0,61.86560000000001,39.53952, 0), v100, z5, tool0;
MoveL Offs(p0,61.669799999999995,38.972840000000005, 0), v100, z5, tool0;
MoveL Offs(p0,61.6,38.56, 0), v100, z5, tool0;
MoveL Offs(p0,61.6,38.56, 0), v100, z5, tool0;
MoveL Offs(p0,61.57784,38.47156000000001, 0), v100, z5, tool0;
MoveL Offs(p0,61.513920000000006,38.37568000000001, 0), v100, z5, tool0;
MoveL Offs(p0,61.41207999999999,38.274519999999995, 0), v100, z5, tool0;
MoveL Offs(p0,61.276160000000004,38.17024, 0), v100, z5, tool0;
MoveL Offs(p0,61.11,38.065, 0), v100, z5, tool0;
MoveL Offs(p0,60.91744,37.96096, 0), v100, z5, tool0;
MoveL Offs(p0,60.70232,37.86028, 0), v100, z5, tool0;
MoveL Offs(p0,60.46848,37.76512, 0), v100, z5, tool0;
MoveL Offs(p0,60.21976000000001,37.677640000000004, 0), v100, z5, tool0;
MoveL Offs(p0,59.96,37.6, 0), v100, z5, tool0;
MoveL Offs(p0,59.96,37.6, 0), v100, z5, tool0;
MoveL Offs(p0,59.185800000000015,37.36836, 0), v100, z5, tool0;
MoveL Offs(p0,58.384,37.08608000000001, 0), v100, z5, tool0;
MoveL Offs(p0,57.56780000000001,36.76012, 0), v100, z5, tool0;
MoveL Offs(p0,56.7504,36.39744, 0), v100, z5, tool0;
MoveL Offs(p0,55.94500000000001,36.005, 0), v100, z5, tool0;
MoveL Offs(p0,55.16479999999999,35.58976, 0), v100, z5, tool0;
MoveL Offs(p0,54.42299999999999,35.15867999999999, 0), v100, z5, tool0;
MoveL Offs(p0,53.73280000000001,34.718720000000005, 0), v100, z5, tool0;
MoveL Offs(p0,53.107400000000005,34.27684000000001, 0), v100, z5, tool0;
MoveL Offs(p0,52.56,33.839999999999996, 0), v100, z5, tool0;
MoveL Offs(p0,52.56,33.839999999999996, 0), v100, z5, tool0;
MoveL Offs(p0,52.16432000000001,33.5032, 0), v100, z5, tool0;
MoveL Offs(p0,51.828160000000025,33.23360000000001, 0), v100, z5, tool0;
MoveL Offs(p0,51.53183999999999,33.0264, 0), v100, z5, tool0;
MoveL Offs(p0,51.255680000000005,32.8768, 0), v100, z5, tool0;
MoveL Offs(p0,50.980000000000004,32.78, 0), v100, z5, tool0;
MoveL Offs(p0,50.68512,32.7312, 0), v100, z5, tool0;
MoveL Offs(p0,50.35135999999999,32.7256, 0), v100, z5, tool0;
MoveL Offs(p0,49.95904,32.7584, 0), v100, z5, tool0;
MoveL Offs(p0,49.488479999999996,32.8248, 0), v100, z5, tool0;
MoveL Offs(p0,48.92,32.92, 0), v100, z5, tool0;
MoveL Offs(p0,48.92,32.92, 0), v100, z5, tool0;
MoveL Offs(p0,48.52476,32.974000000000004, 0), v100, z5, tool0;
MoveL Offs(p0,48.110080000000025,33.016000000000005, 0), v100, z5, tool0;
MoveL Offs(p0,47.680519999999994,33.04599999999999, 0), v100, z5, tool0;
MoveL Offs(p0,47.24064,33.064, 0), v100, z5, tool0;
MoveL Offs(p0,46.795,33.07, 0), v100, z5, tool0;
MoveL Offs(p0,46.34815999999999,33.064, 0), v100, z5, tool0;
MoveL Offs(p0,45.90468,33.04599999999999, 0), v100, z5, tool0;
MoveL Offs(p0,45.469120000000004,33.016000000000005, 0), v100, z5, tool0;
MoveL Offs(p0,45.046040000000005,32.974000000000004, 0), v100, z5, tool0;
MoveL Offs(p0,44.64,32.92, 0), v100, z5, tool0;
MoveL Offs(p0,44.64,32.92, 0), v100, z5, tool0;
MoveL Offs(p0,44.10968000000001,32.825520000000004, 0), v100, z5, tool0;
MoveL Offs(p0,43.66144000000001,32.75936000000001, 0), v100, z5, tool0;
MoveL Offs(p0,43.28136000000001,32.72344, 0), v100, z5, tool0;
MoveL Offs(p0,42.95551999999999,32.71968, 0), v100, z5, tool0;
MoveL Offs(p0,42.67,32.75, 0), v100, z5, tool0;
MoveL Offs(p0,42.41088,32.816320000000005, 0), v100, z5, tool0;
MoveL Offs(p0,42.16424,32.920559999999995, 0), v100, z5, tool0;
MoveL Offs(p0,41.916160000000005,33.06464, 0), v100, z5, tool0;
MoveL Offs(p0,41.65272,33.25048, 0), v100, z5, tool0;
MoveL Offs(p0,41.36,33.480000000000004, 0), v100, z5, tool0;
MoveL Offs(p0,41.36,33.480000000000004, 0), v100, z5, tool0;
MoveL Offs(p0,40.9628,33.76632000000001, 0), v100, z5, tool0;
MoveL Offs(p0,40.49600000000001,34.04736000000001, 0), v100, z5, tool0;
MoveL Offs(p0,39.9668,34.32024, 0), v100, z5, tool0;
MoveL Offs(p0,39.382400000000004,34.582080000000005, 0), v100, z5, tool0;
MoveL Offs(p0,38.75,34.83, 0), v100, z5, tool0;
MoveL Offs(p0,38.076800000000006,35.06112, 0), v100, z5, tool0;
MoveL Offs(p0,37.37,35.27256, 0), v100, z5, tool0;
MoveL Offs(p0,36.63680000000001,35.46144, 0), v100, z5, tool0;
MoveL Offs(p0,35.88440000000001,35.624880000000005, 0), v100, z5, tool0;
MoveL Offs(p0,35.12,35.760000000000005, 0), v100, z5, tool0;
MoveL Offs(p0,35.12,35.760000000000005, 0), v100, z5, tool0;
MoveL Offs(p0,34.78164000000001,35.826800000000006, 0), v100, z5, tool0;
MoveL Offs(p0,34.48192000000001,35.91040000000001, 0), v100, z5, tool0;
MoveL Offs(p0,34.21388,36.0156, 0), v100, z5, tool0;
MoveL Offs(p0,33.970560000000006,36.147200000000005, 0), v100, z5, tool0;
MoveL Offs(p0,33.745,36.31, 0), v100, z5, tool0;
MoveL Offs(p0,33.53024,36.508799999999994, 0), v100, z5, tool0;
MoveL Offs(p0,33.31932,36.748400000000004, 0), v100, z5, tool0;
MoveL Offs(p0,33.10528000000001,37.0336, 0), v100, z5, tool0;
MoveL Offs(p0,32.88116,37.3692, 0), v100, z5, tool0;
MoveL Offs(p0,32.64,37.760000000000005, 0), v100, z5, tool0;
MoveL Offs(p0,32.64,37.760000000000005, 0), v100, z5, tool0;
MoveL Offs(p0,32.46888,38.03756, 0), v100, z5, tool0;
MoveL Offs(p0,32.29344000000001,38.31488, 0), v100, z5, tool0;
MoveL Offs(p0,32.11656,38.58692, 0), v100, z5, tool0;
MoveL Offs(p0,31.94112,38.84864, 0), v100, z5, tool0;
MoveL Offs(p0,31.77,39.095, 0), v100, z5, tool0;
MoveL Offs(p0,31.606080000000002,39.32096, 0), v100, z5, tool0;
MoveL Offs(p0,31.45224,39.52148, 0), v100, z5, tool0;
MoveL Offs(p0,31.31136,39.691520000000004, 0), v100, z5, tool0;
MoveL Offs(p0,31.186320000000006,39.82604, 0), v100, z5, tool0;
MoveL Offs(p0,31.080000000000002,39.92, 0), v100, z5, tool0;
MoveL Offs(p0,31.080000000000002,39.92, 0), v100, z5, tool0;
MoveL Offs(p0,30.952960000000008,40.04688, 0), v100, z5, tool0;
MoveL Offs(p0,30.860480000000013,40.19584000000001, 0), v100, z5, tool0;
MoveL Offs(p0,30.80352,40.37936, 0), v100, z5, tool0;
MoveL Offs(p0,30.783040000000007,40.60992, 0), v100, z5, tool0;
MoveL Offs(p0,30.8,40.9, 0), v100, z5, tool0;
MoveL Offs(p0,30.855359999999997,41.26208, 0), v100, z5, tool0;
MoveL Offs(p0,30.950079999999996,41.708639999999995, 0), v100, z5, tool0;
MoveL Offs(p0,31.08512,42.25216, 0), v100, z5, tool0;
MoveL Offs(p0,31.261440000000004,42.905120000000004, 0), v100, z5, tool0;
MoveL Offs(p0,31.48,43.68, 0), v100, z5, tool0;
MoveL Offs(p0,31.48,43.68, 0), v100, z5, tool0;
MoveL Offs(p0,31.78232,44.82884, 0), v100, z5, tool0;
MoveL Offs(p0,32.016960000000005,45.89632000000002, 0), v100, z5, tool0;
MoveL Offs(p0,32.183440000000004,46.87787999999999, 0), v100, z5, tool0;
MoveL Offs(p0,32.28128,47.76896000000001, 0), v100, z5, tool0;
MoveL Offs(p0,32.31,48.565, 0), v100, z5, tool0;
MoveL Offs(p0,32.26912,49.26144000000001, 0), v100, z5, tool0;
MoveL Offs(p0,32.158159999999995,49.853719999999996, 0), v100, z5, tool0;
MoveL Offs(p0,31.976639999999996,50.33728000000001, 0), v100, z5, tool0;
MoveL Offs(p0,31.724080000000004,50.70756, 0), v100, z5, tool0;
MoveL Offs(p0,31.4,50.96, 0), v100, z5, tool0;
MoveL Offs(p0,31.4,50.96, 0), v100, z5, tool0;
MoveL Offs(p0,31.269520000000007,51.030640000000005, 0), v100, z5, tool0;
MoveL Offs(p0,31.143360000000012,51.09792000000001, 0), v100, z5, tool0;
MoveL Offs(p0,31.023439999999994,51.16088, 0), v100, z5, tool0;
MoveL Offs(p0,30.91168,51.218560000000004, 0), v100, z5, tool0;
MoveL Offs(p0,30.810000000000002,51.27, 0), v100, z5, tool0;
MoveL Offs(p0,30.720320000000005,51.31424, 0), v100, z5, tool0;
MoveL Offs(p0,30.644560000000002,51.350319999999996, 0), v100, z5, tool0;
MoveL Offs(p0,30.584640000000007,51.377280000000006, 0), v100, z5, tool0;
MoveL Offs(p0,30.542480000000005,51.39416, 0), v100, z5, tool0;
MoveL Offs(p0,30.52,51.4, 0), v100, z5, tool0;
MoveL Offs(p0,30.52,51.4, 0), v100, z5, tool0;
MoveL Offs(p0,30.513840000000005,51.42684000000001, 0), v100, z5, tool0;
MoveL Offs(p0,30.518720000000013,51.50432000000002, 0), v100, z5, tool0;
MoveL Offs(p0,30.533679999999997,51.627880000000005, 0), v100, z5, tool0;
MoveL Offs(p0,30.557760000000002,51.79296000000001, 0), v100, z5, tool0;
MoveL Offs(p0,30.589999999999996,51.995000000000005, 0), v100, z5, tool0;
MoveL Offs(p0,30.629439999999995,52.22944, 0), v100, z5, tool0;
MoveL Offs(p0,30.67512,52.49172000000001, 0), v100, z5, tool0;
MoveL Offs(p0,30.726080000000003,52.777280000000005, 0), v100, z5, tool0;
MoveL Offs(p0,30.781360000000006,53.08156, 0), v100, z5, tool0;
MoveL Offs(p0,30.839999999999996,53.4, 0), v100, z5, tool0;
MoveL Offs(p0,30.839999999999996,53.4, 0), v100, z5, tool0;
MoveL Offs(p0,30.916560000000004,53.788920000000005, 0), v100, z5, tool0;
MoveL Offs(p0,31.00128000000001,54.27456000000001, 0), v100, z5, tool0;
MoveL Offs(p0,31.092719999999996,54.843239999999994, 0), v100, z5, tool0;
MoveL Offs(p0,31.18944,55.48127999999999, 0), v100, z5, tool0;
MoveL Offs(p0,31.29,56.175, 0), v100, z5, tool0;
MoveL Offs(p0,31.392959999999995,56.910720000000005, 0), v100, z5, tool0;
MoveL Offs(p0,31.496879999999997,57.674760000000006, 0), v100, z5, tool0;
MoveL Offs(p0,31.60032,58.453440000000015, 0), v100, z5, tool0;
MoveL Offs(p0,31.701840000000004,59.23308000000001, 0), v100, z5, tool0;
MoveL Offs(p0,31.8,60.0, 0), v100, z5, tool0;
MoveL Offs(p0,31.8,60.0, 0), v100, z5, tool0;
MoveL Offs(p0,31.92948,61.14148000000002, 0), v100, z5, tool0;
MoveL Offs(p0,32.02944000000001,62.08544000000002, 0), v100, z5, tool0;
MoveL Offs(p0,32.09916,62.85516, 0), v100, z5, tool0;
MoveL Offs(p0,32.13792,63.47392000000001, 0), v100, z5, tool0;
MoveL Offs(p0,32.144999999999996,63.964999999999996, 0), v100, z5, tool0;
MoveL Offs(p0,32.11968,64.35168, 0), v100, z5, tool0;
MoveL Offs(p0,32.06124,64.65724, 0), v100, z5, tool0;
MoveL Offs(p0,31.968960000000003,64.90496, 0), v100, z5, tool0;
MoveL Offs(p0,31.84212,65.11812, 0), v100, z5, tool0;
MoveL Offs(p0,31.68,65.32000000000001, 0), v100, z5, tool0;
MoveL Offs(p0,31.68,65.32000000000001, 0), v100, z5, tool0;
MoveL Offs(p0,31.338720000000002,65.64732000000001, 0), v100, z5, tool0;
MoveL Offs(p0,31.008960000000002,65.86016000000002, 0), v100, z5, tool0;
MoveL Offs(p0,30.687839999999994,65.95684, 0), v100, z5, tool0;
MoveL Offs(p0,30.372480000000003,65.93568, 0), v100, z5, tool0;
MoveL Offs(p0,30.060000000000002,65.795, 0), v100, z5, tool0;
MoveL Offs(p0,29.747519999999998,65.53312, 0), v100, z5, tool0;
MoveL Offs(p0,29.43216,65.14836, 0), v100, z5, tool0;
MoveL Offs(p0,29.111040000000003,64.63904, 0), v100, z5, tool0;
MoveL Offs(p0,28.781280000000002,64.00348, 0), v100, z5, tool0;
MoveL Offs(p0,28.439999999999998,63.239999999999995, 0), v100, z5, tool0;
MoveL Offs(p0,27.4,60.67999999999999, 0), v100, z5, tool0;
MoveL Offs(p0,26.4,62.92, 0), v100, z5, tool0;
MoveL Offs(p0,26.4,62.92, 0), v100, z5, tool0;
MoveL Offs(p0,26.240920000000006,63.285160000000005, 0), v100, z5, tool0;
MoveL Offs(p0,26.077760000000005,63.63328000000001, 0), v100, z5, tool0;
MoveL Offs(p0,25.913639999999997,63.959320000000005, 0), v100, z5, tool0;
MoveL Offs(p0,25.75168,64.25824, 0), v100, z5, tool0;
MoveL Offs(p0,25.595,64.525, 0), v100, z5, tool0;
MoveL Offs(p0,25.446719999999996,64.75456, 0), v100, z5, tool0;
MoveL Offs(p0,25.30996,64.94188, 0), v100, z5, tool0;
MoveL Offs(p0,25.18784,65.08192, 0), v100, z5, tool0;
MoveL Offs(p0,25.08348,65.16964, 0), v100, z5, tool0;
MoveL Offs(p0,25.0,65.2, 0), v100, z5, tool0;
MoveL Offs(p0,25.0,65.2, 0), v100, z5, tool0;
MoveL Offs(p0,24.69272,65.16492000000001, 0), v100, z5, tool0;
MoveL Offs(p0,24.418560000000003,65.08256000000002, 0), v100, z5, tool0;
MoveL Offs(p0,24.17704,64.95124, 0), v100, z5, tool0;
MoveL Offs(p0,23.96768,64.76928000000001, 0), v100, z5, tool0;
MoveL Offs(p0,23.79,64.535, 0), v100, z5, tool0;
MoveL Offs(p0,23.64352,64.24672, 0), v100, z5, tool0;
MoveL Offs(p0,23.527759999999997,63.90276, 0), v100, z5, tool0;
MoveL Offs(p0,23.44224,63.50144, 0), v100, z5, tool0;
MoveL Offs(p0,23.38648,63.04108, 0), v100, z5, tool0;
MoveL Offs(p0,23.36,62.52, 0), v100, z5, tool0;
MoveL Offs(p0,23.36,62.52, 0), v100, z5, tool0;
MoveL Offs(p0,23.34336,61.35064, 0), v100, z5, tool0;
MoveL Offs(p0,23.318080000000002,60.27392000000001, 0), v100, z5, tool0;
MoveL Offs(p0,23.28512,59.30087999999999, 0), v100, z5, tool0;
MoveL Offs(p0,23.245440000000002,58.44256, 0), v100, z5, tool0;
MoveL Offs(p0,23.2,57.71, 0), v100, z5, tool0;
MoveL Offs(p0,23.14976,57.114239999999995, 0), v100, z5, tool0;
MoveL Offs(p0,23.09568,56.666320000000006, 0), v100, z5, tool0;
MoveL Offs(p0,23.038720000000005,56.377280000000006, 0), v100, z5, tool0;
MoveL Offs(p0,22.97984,56.25816000000001, 0), v100, z5, tool0;
MoveL Offs(p0,22.919999999999998,56.32000000000001, 0), v100, z5, tool0;
MoveL Offs(p0,22.919999999999998,56.32000000000001, 0), v100, z5, tool0;
MoveL Offs(p0,22.80688,56.50128000000002, 0), v100, z5, tool0;
MoveL Offs(p0,22.643840000000004,56.63744000000001, 0), v100, z5, tool0;
MoveL Offs(p0,22.44336,56.72896000000001, 0), v100, z5, tool0;
MoveL Offs(p0,22.217920000000003,56.77632000000001, 0), v100, z5, tool0;
MoveL Offs(p0,21.98,56.779999999999994, 0), v100, z5, tool0;
MoveL Offs(p0,21.74208,56.740480000000005, 0), v100, z5, tool0;
MoveL Offs(p0,21.51664,56.65824, 0), v100, z5, tool0;
MoveL Offs(p0,21.31616,56.53376000000001, 0), v100, z5, tool0;
MoveL Offs(p0,21.153119999999998,56.36752, 0), v100, z5, tool0;
MoveL Offs(p0,21.04,56.160000000000004, 0), v100, z5, tool0;
MoveL Offs(p0,21.04,56.160000000000004, 0), v100, z5, tool0;
MoveL Offs(p0,21.004120000000004,56.04060000000002, 0), v100, z5, tool0;
MoveL Offs(p0,20.968960000000003,55.900800000000004, 0), v100, z5, tool0;
MoveL Offs(p0,20.93524,55.7442, 0), v100, z5, tool0;
MoveL Offs(p0,20.90368,55.574400000000004, 0), v100, z5, tool0;
MoveL Offs(p0,20.875,55.395, 0), v100, z5, tool0;
MoveL Offs(p0,20.849920000000004,55.20959999999999, 0), v100, z5, tool0;
MoveL Offs(p0,20.829159999999995,55.021800000000006, 0), v100, z5, tool0;
MoveL Offs(p0,20.81344,54.83520000000001, 0), v100, z5, tool0;
MoveL Offs(p0,20.80348,54.6534, 0), v100, z5, tool0;
MoveL Offs(p0,20.8,54.48, 0), v100, z5, tool0;
MoveL Offs(p0,20.8,54.48, 0), v100, z5, tool0;
MoveL Offs(p0,20.79536,54.298080000000006, 0), v100, z5, tool0;
MoveL Offs(p0,20.782080000000004,54.11424000000002, 0), v100, z5, tool0;
MoveL Offs(p0,20.76112,53.931360000000005, 0), v100, z5, tool0;
MoveL Offs(p0,20.73344,53.75232, 0), v100, z5, tool0;
MoveL Offs(p0,20.7,53.58, 0), v100, z5, tool0;
MoveL Offs(p0,20.661759999999997,53.41727999999999, 0), v100, z5, tool0;
MoveL Offs(p0,20.61968,53.267039999999994, 0), v100, z5, tool0;
MoveL Offs(p0,20.574720000000003,53.13216, 0), v100, z5, tool0;
MoveL Offs(p0,20.52784,53.015519999999995, 0), v100, z5, tool0;
MoveL Offs(p0,20.48,52.92, 0), v100, z5, tool0;
MoveL Offs(p0,20.48,52.92, 0), v100, z5, tool0;
MoveL Offs(p0,20.433240000000005,52.89492, 0), v100, z5, tool0;
MoveL Offs(p0,20.389120000000005,52.959360000000004, 0), v100, z5, tool0;
MoveL Offs(p0,20.347879999999996,53.10683999999999, 0), v100, z5, tool0;
MoveL Offs(p0,20.309760000000004,53.33088, 0), v100, z5, tool0;
MoveL Offs(p0,20.275,53.625, 0), v100, z5, tool0;
MoveL Offs(p0,20.24384,53.98271999999999, 0), v100, z5, tool0;
MoveL Offs(p0,20.21652,54.39756, 0), v100, z5, tool0;
MoveL Offs(p0,20.19328,54.86304, 0), v100, z5, tool0;
MoveL Offs(p0,20.17436,55.37268, 0), v100, z5, tool0;
MoveL Offs(p0,20.16,55.92, 0), v100, z5, tool0;
MoveL Offs(p0,20.16,55.92, 0), v100, z5, tool0;
MoveL Offs(p0,20.152760000000004,56.60892000000001, 0), v100, z5, tool0;
MoveL Offs(p0,20.130880000000005,57.26016000000002, 0), v100, z5, tool0;
MoveL Offs(p0,20.09412,57.87443999999999, 0), v100, z5, tool0;
MoveL Offs(p0,20.042240000000003,58.45248, 0), v100, z5, tool0;
MoveL Offs(p0,19.975,58.995000000000005, 0), v100, z5, tool0;
MoveL Offs(p0,19.892159999999997,59.50272, 0), v100, z5, tool0;
MoveL Offs(p0,19.79348,59.97636, 0), v100, z5, tool0;
MoveL Offs(p0,19.678720000000002,60.41664000000001, 0), v100, z5, tool0;
MoveL Offs(p0,19.54764,60.82428, 0), v100, z5, tool0;
MoveL Offs(p0,19.4,61.2, 0), v100, z5, tool0;
MoveL Offs(p0,19.4,61.2, 0), v100, z5, tool0;
MoveL Offs(p0,19.1624,61.839560000000006, 0), v100, z5, tool0;
MoveL Offs(p0,18.977600000000002,62.42368000000001, 0), v100, z5, tool0;
MoveL Offs(p0,18.845599999999997,62.96651999999999, 0), v100, z5, tool0;
MoveL Offs(p0,18.7664,63.48224000000001, 0), v100, z5, tool0;
MoveL Offs(p0,18.740000000000002,63.985, 0), v100, z5, tool0;
MoveL Offs(p0,18.7664,64.48896, 0), v100, z5, tool0;
MoveL Offs(p0,18.845599999999997,65.00828, 0), v100, z5, tool0;
MoveL Offs(p0,18.977600000000002,65.55712000000001, 0), v100, z5, tool0;
MoveL Offs(p0,19.1624,66.14964, 0), v100, z5, tool0;
MoveL Offs(p0,19.4,66.8, 0), v100, z5, tool0;
MoveL Offs(p0,19.4,66.8, 0), v100, z5, tool0;
MoveL Offs(p0,19.509960000000003,67.12616, 0), v100, z5, tool0;
MoveL Offs(p0,19.622080000000004,67.49888000000001, 0), v100, z5, tool0;
MoveL Offs(p0,19.733719999999998,67.90952, 0), v100, z5, tool0;
MoveL Offs(p0,19.84224,68.34943999999999, 0), v100, z5, tool0;
MoveL Offs(p0,19.945,68.81, 0), v100, z5, tool0;
MoveL Offs(p0,20.039360000000002,69.28255999999999, 0), v100, z5, tool0;
MoveL Offs(p0,20.12268,69.75847999999999, 0), v100, z5, tool0;
MoveL Offs(p0,20.192320000000002,70.22912, 0), v100, z5, tool0;
MoveL Offs(p0,20.24564,70.68584000000001, 0), v100, z5, tool0;
MoveL Offs(p0,20.28,71.12, 0), v100, z5, tool0;
MoveL Offs(p0,20.28,71.12, 0), v100, z5, tool0;
MoveL Offs(p0,20.342040000000004,71.71140000000001, 0), v100, z5, tool0;
MoveL Offs(p0,20.411520000000003,72.22240000000002, 0), v100, z5, tool0;
MoveL Offs(p0,20.493479999999998,72.66619999999999, 0), v100, z5, tool0;
MoveL Offs(p0,20.59296,73.05600000000001, 0), v100, z5, tool0;
MoveL Offs(p0,20.715,73.405, 0), v100, z5, tool0;
MoveL Offs(p0,20.86464,73.7264, 0), v100, z5, tool0;
MoveL Offs(p0,21.04692,74.0334, 0), v100, z5, tool0;
MoveL Offs(p0,21.26688,74.3392, 0), v100, z5, tool0;
MoveL Offs(p0,21.52956,74.65700000000001, 0), v100, z5, tool0;
MoveL Offs(p0,21.84,75.0, 0), v100, z5, tool0;
MoveL Offs(p0,21.84,75.0, 0), v100, z5, tool0;
MoveL Offs(p0,22.412360000000003,75.67912000000001, 0), v100, z5, tool0;
MoveL Offs(p0,22.92928000000001,76.42016000000001, 0), v100, z5, tool0;
MoveL Offs(p0,23.390520000000002,77.22263999999998, 0), v100, z5, tool0;
MoveL Offs(p0,23.795840000000005,78.08608000000001, 0), v100, z5, tool0;
MoveL Offs(p0,24.145,79.01, 0), v100, z5, tool0;
MoveL Offs(p0,24.437759999999997,79.99392, 0), v100, z5, tool0;
MoveL Offs(p0,24.67388,81.03735999999999, 0), v100, z5, tool0;
MoveL Offs(p0,24.853119999999997,82.13984, 0), v100, z5, tool0;
MoveL Offs(p0,24.975240000000003,83.30087999999999, 0), v100, z5, tool0;
MoveL Offs(p0,25.04,84.52000000000001, 0), v100, z5, tool0;
MoveL Offs(p0,25.04,84.52000000000001, 0), v100, z5, tool0;
MoveL Offs(p0,25.066760000000006,85.31496000000001, 0), v100, z5, tool0;
MoveL Offs(p0,25.100480000000008,86.00288000000003, 0), v100, z5, tool0;
MoveL Offs(p0,25.14332,86.59432000000001, 0), v100, z5, tool0;
MoveL Offs(p0,25.19744,87.09984, 0), v100, z5, tool0;
MoveL Offs(p0,25.265,87.53, 0), v100, z5, tool0;
MoveL Offs(p0,25.34816,87.89536000000001, 0), v100, z5, tool0;
MoveL Offs(p0,25.44908,88.20647999999998, 0), v100, z5, tool0;
MoveL Offs(p0,25.569920000000003,88.47391999999999, 0), v100, z5, tool0;
MoveL Offs(p0,25.71284,88.70824, 0), v100, z5, tool0;
MoveL Offs(p0,25.880000000000003,88.92, 0), v100, z5, tool0;
MoveL Offs(p0,25.880000000000003,88.92, 0), v100, z5, tool0;
MoveL Offs(p0,26.485080000000004,89.62832, 0), v100, z5, tool0;
MoveL Offs(p0,27.11584000000001,90.42016000000001, 0), v100, z5, tool0;
MoveL Offs(p0,27.75956,91.27583999999999, 0), v100, z5, tool0;
MoveL Offs(p0,28.403519999999997,92.17568000000001, 0), v100, z5, tool0;
MoveL Offs(p0,29.035000000000004,93.1, 0), v100, z5, tool0;
MoveL Offs(p0,29.641280000000002,94.02912, 0), v100, z5, tool0;
MoveL Offs(p0,30.20964,94.94336, 0), v100, z5, tool0;
MoveL Offs(p0,30.727359999999997,95.82304, 0), v100, z5, tool0;
MoveL Offs(p0,31.181720000000002,96.64847999999999, 0), v100, z5, tool0;
MoveL Offs(p0,31.560000000000002,97.4, 0), v100, z5, tool0;
MoveL Offs(p0,31.560000000000002,97.4, 0), v100, z5, tool0;
MoveL Offs(p0,32.28000000000001,99.04212000000001, 0), v100, z5, tool0;
MoveL Offs(p0,32.94720000000001,100.80256000000001, 0), v100, z5, tool0;
MoveL Offs(p0,33.5544,102.64844000000001, 0), v100, z5, tool0;
MoveL Offs(p0,34.0944,104.54688000000002, 0), v100, z5, tool0;
MoveL Offs(p0,34.56,106.465, 0), v100, z5, tool0;
MoveL Offs(p0,34.944,108.36992000000001, 0), v100, z5, tool0;
MoveL Offs(p0,35.2392,110.22876000000001, 0), v100, z5, tool0;
MoveL Offs(p0,35.4384,112.00864000000001, 0), v100, z5, tool0;
MoveL Offs(p0,35.5344,113.67668, 0), v100, z5, tool0;
MoveL Offs(p0,35.519999999999996,115.2, 0), v100, z5, tool0;
MoveL Offs(p0,35.519999999999996,115.2, 0), v100, z5, tool0;
MoveL Offs(p0,35.484440000000006,115.84640000000002, 0), v100, z5, tool0;
MoveL Offs(p0,35.44672000000001,116.37760000000003, 0), v100, z5, tool0;
MoveL Offs(p0,35.402280000000005,116.8056, 0), v100, z5, tool0;
MoveL Offs(p0,35.34656,117.1424, 0), v100, z5, tool0;
MoveL Offs(p0,35.275,117.4, 0), v100, z5, tool0;
MoveL Offs(p0,35.18304,117.5904, 0), v100, z5, tool0;
MoveL Offs(p0,35.06612,117.72560000000001, 0), v100, z5, tool0;
MoveL Offs(p0,34.91968000000001,117.81760000000001, 0), v100, z5, tool0;
MoveL Offs(p0,34.739160000000005,117.87840000000001, 0), v100, z5, tool0;
MoveL Offs(p0,34.519999999999996,117.92, 0), v100, z5, tool0;
MoveL Offs(p0,34.519999999999996,117.92, 0), v100, z5, tool0;
MoveL Offs(p0,34.29012,117.94708000000003, 0), v100, z5, tool0;
MoveL Offs(p0,34.101760000000006,117.94944000000005, 0), v100, z5, tool0;
MoveL Offs(p0,33.95084,117.91676, 0), v100, z5, tool0;
MoveL Offs(p0,33.83328,117.83872, 0), v100, z5, tool0;
MoveL Offs(p0,33.745,117.705, 0), v100, z5, tool0;
MoveL Offs(p0,33.681920000000005,117.50528, 0), v100, z5, tool0;
MoveL Offs(p0,33.63996,117.22923999999998, 0), v100, z5, tool0;
MoveL Offs(p0,33.61504,116.86656, 0), v100, z5, tool0;
MoveL Offs(p0,33.603080000000006,116.40692000000001, 0), v100, z5, tool0;
MoveL Offs(p0,33.6,115.84, 0), v100, z5, tool0;
MoveL Offs(p0,33.6,115.84, 0), v100, z5, tool0;
MoveL Offs(p0,33.584559999999996,115.12252000000004, 0), v100, z5, tool0;
MoveL Offs(p0,33.53888000000001,114.53056000000004, 0), v100, z5, tool0;
MoveL Offs(p0,33.463919999999995,114.06484, 0), v100, z5, tool0;
MoveL Offs(p0,33.360640000000004,113.72608, 0), v100, z5, tool0;
MoveL Offs(p0,33.230000000000004,113.51500000000001, 0), v100, z5, tool0;
MoveL Offs(p0,33.07296,113.43232, 0), v100, z5, tool0;
MoveL Offs(p0,32.89048,113.47876000000001, 0), v100, z5, tool0;
MoveL Offs(p0,32.68352,113.65504000000001, 0), v100, z5, tool0;
MoveL Offs(p0,32.45304,113.96188, 0), v100, z5, tool0;
MoveL Offs(p0,32.2,114.4, 0), v100, z5, tool0;
MoveL Offs(p0,32.2,114.4, 0), v100, z5, tool0;
MoveL Offs(p0,32.0038,114.77104000000001, 0), v100, z5, tool0;
MoveL Offs(p0,31.82080000000001,115.06912000000004, 0), v100, z5, tool0;
MoveL Offs(p0,31.647399999999998,115.29567999999999, 0), v100, z5, tool0;
MoveL Offs(p0,31.480000000000008,115.45216, 0), v100, z5, tool0;
MoveL Offs(p0,31.314999999999998,115.54, 0), v100, z5, tool0;
MoveL Offs(p0,31.1488,115.56064, 0), v100, z5, tool0;
MoveL Offs(p0,30.977799999999995,115.51552, 0), v100, z5, tool0;
MoveL Offs(p0,30.798400000000004,115.40608000000002, 0), v100, z5, tool0;
MoveL Offs(p0,30.607000000000006,115.23376, 0), v100, z5, tool0;
MoveL Offs(p0,30.4,115.0, 0), v100, z5, tool0;
MoveL Offs(p0,30.4,115.0, 0), v100, z5, tool0;
MoveL Offs(p0,30.26456,114.85016, 0), v100, z5, tool0;
MoveL Offs(p0,30.142080000000004,114.73728000000003, 0), v100, z5, tool0;
MoveL Offs(p0,30.02632,114.66232, 0), v100, z5, tool0;
MoveL Offs(p0,29.911039999999996,114.62624000000001, 0), v100, z5, tool0;
MoveL Offs(p0,29.79,114.63, 0), v100, z5, tool0;
MoveL Offs(p0,29.656960000000005,114.67456, 0), v100, z5, tool0;
MoveL Offs(p0,29.505679999999995,114.76088, 0), v100, z5, tool0;
MoveL Offs(p0,29.329920000000005,114.88992000000003, 0), v100, z5, tool0;
MoveL Offs(p0,29.12344,115.06263999999999, 0), v100, z5, tool0;
MoveL Offs(p0,28.880000000000003,115.28, 0), v100, z5, tool0;
MoveL Offs(p0,27.919999999999998,116.2, 0), v100, z5, tool0;
MoveL Offs(p0,27.32,115.32000000000001, 0), v100, z5, tool0;
MoveL Offs(p0,27.32,115.32000000000001, 0), v100, z5, tool0;
MoveL Offs(p0,27.211080000000003,115.16788000000001, 0), v100, z5, tool0;
MoveL Offs(p0,27.101440000000007,115.02464000000005, 0), v100, z5, tool0;
MoveL Offs(p0,26.992759999999997,114.89196, 0), v100, z5, tool0;
MoveL Offs(p0,26.886720000000004,114.77152000000001, 0), v100, z5, tool0;
MoveL Offs(p0,26.785000000000004,114.665, 0), v100, z5, tool0;
MoveL Offs(p0,26.689279999999997,114.57408000000001, 0), v100, z5, tool0;
MoveL Offs(p0,26.601239999999997,114.50044, 0), v100, z5, tool0;
MoveL Offs(p0,26.522560000000006,114.44576000000002, 0), v100, z5, tool0;
MoveL Offs(p0,26.454920000000005,114.41171999999999, 0), v100, z5, tool0;
MoveL Offs(p0,26.4,114.4, 0), v100, z5, tool0;
MoveL Offs(p0,26.4,114.4, 0), v100, z5, tool0;
MoveL Offs(p0,26.3416,114.43044, 0), v100, z5, tool0;
MoveL Offs(p0,26.26400000000001,114.51872, 0), v100, z5, tool0;
MoveL Offs(p0,26.169600000000003,114.66028000000001, 0), v100, z5, tool0;
MoveL Offs(p0,26.0608,114.85056, 0), v100, z5, tool0;
MoveL Offs(p0,25.939999999999998,115.085, 0), v100, z5, tool0;
MoveL Offs(p0,25.8096,115.35904000000001, 0), v100, z5, tool0;
MoveL Offs(p0,25.671999999999997,115.66812, 0), v100, z5, tool0;
MoveL Offs(p0,25.5296,116.00768000000001, 0), v100, z5, tool0;
MoveL Offs(p0,25.384800000000002,116.37316000000001, 0), v100, z5, tool0;
MoveL Offs(p0,25.240000000000002,116.75999999999999, 0), v100, z5, tool0;
MoveL Offs(p0,25.240000000000002,116.75999999999999, 0), v100, z5, tool0;
MoveL Offs(p0,24.926800000000004,117.58152000000004, 0), v100, z5, tool0;
MoveL Offs(p0,24.592000000000002,118.35936000000004, 0), v100, z5, tool0;
MoveL Offs(p0,24.242799999999995,119.08344000000002, 0), v100, z5, tool0;
MoveL Offs(p0,23.886400000000002,119.74368, 0), v100, z5, tool0;
MoveL Offs(p0,23.53,120.33, 0), v100, z5, tool0;
MoveL Offs(p0,23.180799999999998,120.83232000000001, 0), v100, z5, tool0;
MoveL Offs(p0,22.845999999999997,121.24056, 0), v100, z5, tool0;
MoveL Offs(p0,22.5328,121.54464, 0), v100, z5, tool0;
MoveL Offs(p0,22.2484,121.73448, 0), v100, z5, tool0;
MoveL Offs(p0,22.0,121.8, 0), v100, z5, tool0;
MoveL Offs(p0,22.0,121.8, 0), v100, z5, tool0;
MoveL Offs(p0,21.890240000000002,121.81752000000002, 0), v100, z5, tool0;
MoveL Offs(p0,21.755520000000008,121.86816000000003, 0), v100, z5, tool0;
MoveL Offs(p0,21.59968,121.94904000000001, 0), v100, z5, tool0;
MoveL Offs(p0,21.426560000000002,122.05728000000002, 0), v100, z5, tool0;
MoveL Offs(p0,21.240000000000002,122.19000000000001, 0), v100, z5, tool0;
MoveL Offs(p0,21.04384,122.34432000000001, 0), v100, z5, tool0;
MoveL Offs(p0,20.84192,122.51736000000001, 0), v100, z5, tool0;
MoveL Offs(p0,20.63808,122.70624000000001, 0), v100, z5, tool0;
MoveL Offs(p0,20.43616,122.90808000000001, 0), v100, z5, tool0;
MoveL Offs(p0,20.240000000000002,123.12, 0), v100, z5, tool0;
MoveL Offs(p0,20.240000000000002,123.12, 0), v100, z5, tool0;
MoveL Offs(p0,19.86476,123.50719999999998, 0), v100, z5, tool0;
MoveL Offs(p0,19.48928,123.82720000000002, 0), v100, z5, tool0;
MoveL Offs(p0,19.12292,124.07759999999999, 0), v100, z5, tool0;
MoveL Offs(p0,18.77504,124.256, 0), v100, z5, tool0;
MoveL Offs(p0,18.455000000000002,124.35999999999999, 0), v100, z5, tool0;
MoveL Offs(p0,18.172159999999998,124.38719999999998, 0), v100, z5, tool0;
MoveL Offs(p0,17.935880000000004,124.33520000000001, 0), v100, z5, tool0;
MoveL Offs(p0,17.75552,124.20160000000001, 0), v100, z5, tool0;
MoveL Offs(p0,17.64044,123.98400000000001, 0), v100, z5, tool0;
MoveL Offs(p0,17.6,123.67999999999999, 0), v100, z5, tool0;
MoveL Offs(p0,17.6,123.67999999999999, 0), v100, z5, tool0;
MoveL Offs(p0,17.604720000000004,123.55596, 0), v100, z5, tool0;
MoveL Offs(p0,17.61856000000001,123.40288000000002, 0), v100, z5, tool0;
MoveL Offs(p0,17.641039999999997,123.22531999999998, 0), v100, z5, tool0;
MoveL Offs(p0,17.671680000000002,123.02784000000001, 0), v100, z5, tool0;
MoveL Offs(p0,17.71,122.81500000000001, 0), v100, z5, tool0;
MoveL Offs(p0,17.755519999999997,122.59135999999998, 0), v100, z5, tool0;
MoveL Offs(p0,17.80776,122.36148, 0), v100, z5, tool0;
MoveL Offs(p0,17.86624,122.12992000000001, 0), v100, z5, tool0;
MoveL Offs(p0,17.930480000000003,121.90124, 0), v100, z5, tool0;
MoveL Offs(p0,18.0,121.67999999999999, 0), v100, z5, tool0;
MoveL Offs(p0,18.0,121.67999999999999, 0), v100, z5, tool0;
MoveL Offs(p0,18.08512,121.36268000000003, 0), v100, z5, tool0;
MoveL Offs(p0,18.148160000000004,121.10464000000005, 0), v100, z5, tool0;
MoveL Offs(p0,18.18864,120.90275999999999, 0), v100, z5, tool0;
MoveL Offs(p0,18.206080000000004,120.75392000000002, 0), v100, z5, tool0;
MoveL Offs(p0,18.2,120.655, 0), v100, z5, tool0;
MoveL Offs(p0,18.169919999999998,120.60287999999998, 0), v100, z5, tool0;
MoveL Offs(p0,18.115360000000003,120.59443999999999, 0), v100, z5, tool0;
MoveL Offs(p0,18.03584,120.62656000000001, 0), v100, z5, tool0;
MoveL Offs(p0,17.93088,120.69612000000002, 0), v100, z5, tool0;
MoveL Offs(p0,17.8,120.8, 0), v100, z5, tool0;
MoveL Offs(p0,17.8,120.8, 0), v100, z5, tool0;
MoveL Offs(p0,17.509840000000004,121.01296000000002, 0), v100, z5, tool0;
MoveL Offs(p0,17.264320000000005,121.12608000000004, 0), v100, z5, tool0;
MoveL Offs(p0,17.06488,121.14271999999998, 0), v100, z5, tool0;
MoveL Offs(p0,16.91296,121.06624000000002, 0), v100, z5, tool0;
MoveL Offs(p0,16.81,120.9, 0), v100, z5, tool0;
MoveL Offs(p0,16.75744,120.64735999999998, 0), v100, z5, tool0;
MoveL Offs(p0,16.75672,120.31168, 0), v100, z5, tool0;
MoveL Offs(p0,16.809280000000005,119.89632000000002, 0), v100, z5, tool0;
MoveL Offs(p0,16.916559999999997,119.40464000000001, 0), v100, z5, tool0;
MoveL Offs(p0,17.080000000000002,118.84, 0), v100, z5, tool0;
MoveL Offs(p0,17.080000000000002,118.84, 0), v100, z5, tool0;
MoveL Offs(p0,17.18188,118.51332, 0), v100, z5, tool0;
MoveL Offs(p0,17.271040000000006,118.18496000000002, 0), v100, z5, tool0;
MoveL Offs(p0,17.34676,117.86044, 0), v100, z5, tool0;
MoveL Offs(p0,17.40832,117.54528000000002, 0), v100, z5, tool0;
MoveL Offs(p0,17.455000000000002,117.245, 0), v100, z5, tool0;
MoveL Offs(p0,17.486079999999998,116.96511999999998, 0), v100, z5, tool0;
MoveL Offs(p0,17.50084,116.71115999999999, 0), v100, z5, tool0;
MoveL Offs(p0,17.498560000000005,116.48864, 0), v100, z5, tool0;
MoveL Offs(p0,17.47852,116.30308, 0), v100, z5, tool0;
MoveL Offs(p0,17.44,116.16, 0), v100, z5, tool0;
MoveL Offs(p0,17.44,116.16, 0), v100, z5, tool0;
MoveL Offs(p0,17.361400000000003,115.97904000000003, 0), v100, z5, tool0;
MoveL Offs(p0,17.291200000000003,115.84512000000004, 0), v100, z5, tool0;
MoveL Offs(p0,17.2258,115.75967999999997, 0), v100, z5, tool0;
MoveL Offs(p0,17.1616,115.72416000000003, 0), v100, z5, tool0;
MoveL Offs(p0,17.095,115.74000000000001, 0), v100, z5, tool0;
MoveL Offs(p0,17.022399999999998,115.80864, 0), v100, z5, tool0;
MoveL Offs(p0,16.940199999999997,115.93152, 0), v100, z5, tool0;
MoveL Offs(p0,16.8448,116.11008000000001, 0), v100, z5, tool0;
MoveL Offs(p0,16.732599999999998,116.34576000000001, 0), v100, z5, tool0;
MoveL Offs(p0,16.6,116.64000000000001, 0), v100, z5, tool0;
MoveL Offs(p0,16.6,116.64000000000001, 0), v100, z5, tool0;
MoveL Offs(p0,16.3808,117.12972000000002, 0), v100, z5, tool0;
MoveL Offs(p0,16.176000000000005,117.51936, 0), v100, z5, tool0;
MoveL Offs(p0,15.980799999999999,117.80963999999999, 0), v100, z5, tool0;
MoveL Offs(p0,15.7904,118.00128, 0), v100, z5, tool0;
MoveL Offs(p0,15.6,118.095, 0), v100, z5, tool0;
MoveL Offs(p0,15.4048,118.09151999999999, 0), v100, z5, tool0;
MoveL Offs(p0,15.2,117.99155999999998, 0), v100, z5, tool0;
MoveL Offs(p0,14.980800000000002,117.79584, 0), v100, z5, tool0;
MoveL Offs(p0,14.7424,117.50507999999999, 0), v100, z5, tool0;
MoveL Offs(p0,14.48,117.12, 0), v100, z5, tool0;
MoveL Offs(p0,13.680000000000001,115.88, 0), v100, z5, tool0;
MoveL Offs(p0,13.040000000000001,117.12, 0), v100, z5, tool0;
MoveL Offs(p0,13.040000000000001,117.12, 0), v100, z5, tool0;
MoveL Offs(p0,12.929960000000003,117.33080000000002, 0), v100, z5, tool0;
MoveL Offs(p0,12.817280000000006,117.5296, 0), v100, z5, tool0;
MoveL Offs(p0,12.704119999999998,117.71399999999998, 0), v100, z5, tool0;
MoveL Offs(p0,12.592640000000001,117.88160000000002, 0), v100, z5, tool0;
MoveL Offs(p0,12.485,118.03, 0), v100, z5, tool0;
MoveL Offs(p0,12.38336,118.1568, 0), v100, z5, tool0;
MoveL Offs(p0,12.28988,118.2596, 0), v100, z5, tool0;
MoveL Offs(p0,12.20672,118.33600000000001, 0), v100, z5, tool0;
MoveL Offs(p0,12.13604,118.3836, 0), v100, z5, tool0;
MoveL Offs(p0,12.08,118.4, 0), v100, z5, tool0;
MoveL Offs(p0,12.08,118.4, 0), v100, z5, tool0;
MoveL Offs(p0,12.013079999999999,118.38016, 0), v100, z5, tool0;
MoveL Offs(p0,11.933440000000003,118.32288000000003, 0), v100, z5, tool0;
MoveL Offs(p0,11.842760000000002,118.23151999999996, 0), v100, z5, tool0;
MoveL Offs(p0,11.74272,118.10944000000002, 0), v100, z5, tool0;
MoveL Offs(p0,11.635,117.96, 0), v100, z5, tool0;
MoveL Offs(p0,11.521279999999999,117.78655999999998, 0), v100, z5, tool0;
MoveL Offs(p0,11.403239999999998,117.59248, 0), v100, z5, tool0;
MoveL Offs(p0,11.28256,117.38112000000001, 0), v100, z5, tool0;
MoveL Offs(p0,11.16092,117.15584000000001, 0), v100, z5, tool0;
MoveL Offs(p0,11.040000000000001,116.92, 0), v100, z5, tool0;
MoveL Offs(p0,11.040000000000001,116.92, 0), v100, z5, tool0;
MoveL Offs(p0,10.852960000000003,116.54016000000001, 0), v100, z5, tool0;
MoveL Offs(p0,10.695680000000005,116.23808000000004, 0), v100, z5, tool0;
MoveL Offs(p0,10.56192,116.00992, 0), v100, z5, tool0;
MoveL Offs(p0,10.445440000000001,115.85184000000004, 0), v100, z5, tool0;
MoveL Offs(p0,10.34,115.75999999999999, 0), v100, z5, tool0;
MoveL Offs(p0,10.239360000000001,115.73056000000001, 0), v100, z5, tool0;
MoveL Offs(p0,10.13728,115.75967999999997, 0), v100, z5, tool0;
MoveL Offs(p0,10.02752,115.84352000000001, 0), v100, z5, tool0;
MoveL Offs(p0,9.903839999999999,115.97824, 0), v100, z5, tool0;
MoveL Offs(p0,9.76,116.16, 0), v100, z5, tool0;
MoveL Offs(p0,9.76,116.16, 0), v100, z5, tool0;
MoveL Offs(p0,9.675080000000001,116.28432000000002, 0), v100, z5, tool0;
MoveL Offs(p0,9.589440000000002,116.41536000000004, 0), v100, z5, tool0;
MoveL Offs(p0,9.50476,116.55023999999999, 0), v100, z5, tool0;
MoveL Offs(p0,9.422720000000002,116.68607999999999, 0), v100, z5, tool0;
MoveL Offs(p0,9.345,116.82000000000001, 0), v100, z5, tool0;
MoveL Offs(p0,9.27328,116.94912, 0), v100, z5, tool0;
MoveL Offs(p0,9.20924,117.07055999999997, 0), v100, z5, tool0;
MoveL Offs(p0,9.15456,117.18144, 0), v100, z5, tool0;
MoveL Offs(p0,9.110920000000002,117.27888, 0), v100, z5, tool0;
MoveL Offs(p0,9.08,117.35999999999999, 0), v100, z5, tool0;
MoveL Offs(p0,9.08,117.35999999999999, 0), v100, z5, tool0;
MoveL Offs(p0,9.041440000000001,117.44524000000001, 0), v100, z5, tool0;
MoveL Offs(p0,8.997120000000002,117.50912000000002, 0), v100, z5, tool0;
MoveL Offs(p0,8.94608,117.55188000000001, 0), v100, z5, tool0;
MoveL Offs(p0,8.887360000000001,117.57376000000002, 0), v100, z5, tool0;
MoveL Offs(p0,8.82,117.575, 0), v100, z5, tool0;
MoveL Offs(p0,8.743039999999999,117.55584000000002, 0), v100, z5, tool0;
MoveL Offs(p0,8.65552,117.51651999999999, 0), v100, z5, tool0;
MoveL Offs(p0,8.556480000000002,117.45728000000004, 0), v100, z5, tool0;
MoveL Offs(p0,8.44496,117.37836000000001, 0), v100, z5, tool0;
MoveL Offs(p0,8.32,117.28, 0), v100, z5, tool0;
MoveL Offs(p0,8.32,117.28, 0), v100, z5, tool0;
MoveL Offs(p0,8.1744,117.16388000000002, 0), v100, z5, tool0;
MoveL Offs(p0,8.048000000000002,117.08064000000005, 0), v100, z5, tool0;
MoveL Offs(p0,7.938399999999999,117.03195999999998, 0), v100, z5, tool0;
MoveL Offs(p0,7.8432,117.01951999999999, 0), v100, z5, tool0;
MoveL Offs(p0,7.76,117.045, 0), v100, z5, tool0;
MoveL Offs(p0,7.686400000000001,117.11008, 0), v100, z5, tool0;
MoveL Offs(p0,7.62,117.21644, 0), v100, z5, tool0;
MoveL Offs(p0,7.558400000000002,117.36576, 0), v100, z5, tool0;
MoveL Offs(p0,7.4992,117.55972, 0), v100, z5, tool0;
MoveL Offs(p0,7.44,117.8, 0), v100, z5, tool0;
MoveL Offs(p0,7.44,117.8, 0), v100, z5, tool0;
MoveL Offs(p0,7.38596,117.99324000000001, 0), v100, z5, tool0;
MoveL Offs(p0,7.319680000000003,118.16512000000003, 0), v100, z5, tool0;
MoveL Offs(p0,7.24092,118.31587999999996, 0), v100, z5, tool0;
MoveL Offs(p0,7.149440000000001,118.44576000000002, 0), v100, z5, tool0;
MoveL Offs(p0,7.045,118.55499999999999, 0), v100, z5, tool0;
MoveL Offs(p0,6.92736,118.64384, 0), v100, z5, tool0;
MoveL Offs(p0,6.79628,118.71252, 0), v100, z5, tool0;
MoveL Offs(p0,6.6515200000000005,118.76128000000001, 0), v100, z5, tool0;
MoveL Offs(p0,6.492839999999999,118.79036, 0), v100, z5, tool0;
MoveL Offs(p0,6.32,118.8, 0), v100, z5, tool0;
MoveL Offs(p0,6.32,118.8, 0), v100, z5, tool0;
MoveL Offs(p0,6.102320000000001,118.79368, 0), v100, z5, tool0;
MoveL Offs(p0,5.927360000000002,118.76384000000004, 0), v100, z5, tool0;
MoveL Offs(p0,5.79224,118.69415999999997, 0), v100, z5, tool0;
MoveL Offs(p0,5.6940800000000005,118.56832, 0), v100, z5, tool0;
MoveL Offs(p0,5.63,118.37, 0), v100, z5, tool0;
MoveL Offs(p0,5.597119999999999,118.08287999999997, 0), v100, z5, tool0;
MoveL Offs(p0,5.59256,117.69063999999999, 0), v100, z5, tool0;
MoveL Offs(p0,5.613440000000001,117.17696000000001, 0), v100, z5, tool0;
MoveL Offs(p0,5.656880000000001,116.52552, 0), v100, z5, tool0;
MoveL Offs(p0,5.720000000000001,115.72, 0), v100, z5, tool0;
MoveL Offs(p0,5.720000000000001,115.72, 0), v100, z5, tool0;
MoveL Offs(p0,5.921880000000001,113.92152000000003, 0), v100, z5, tool0;
MoveL Offs(p0,6.235840000000003,112.06496000000004, 0), v100, z5, tool0;
MoveL Offs(p0,6.656360000000001,110.16663999999999, 0), v100, z5, tool0;
MoveL Offs(p0,7.17792,108.24288000000001, 0), v100, z5, tool0;
MoveL Offs(p0,7.795,106.30999999999999, 0), v100, z5, tool0;
MoveL Offs(p0,8.502080000000001,104.38432, 0), v100, z5, tool0;
MoveL Offs(p0,9.29364,102.48216, 0), v100, z5, tool0;
MoveL Offs(p0,10.16416,100.61984, 0), v100, z5, tool0;
MoveL Offs(p0,11.108120000000001,98.81368, 0), v100, z5, tool0;
MoveL Offs(p0,12.120000000000001,97.08, 0), v100, z5, tool0;
MoveL Offs(p0,12.120000000000001,97.08, 0), v100, z5, tool0;
MoveL Offs(p0,12.918440000000004,95.78528, 0), v100, z5, tool0;
MoveL Offs(p0,13.544320000000004,94.75744000000005, 0), v100, z5, tool0;
MoveL Offs(p0,14.007480000000001,93.96096000000001, 0), v100, z5, tool0;
MoveL Offs(p0,14.317760000000002,93.36032000000003, 0), v100, z5, tool0;
MoveL Offs(p0,14.485,92.92, 0), v100, z5, tool0;
MoveL Offs(p0,14.51904,92.60448, 0), v100, z5, tool0;
MoveL Offs(p0,14.42972,92.37824, 0), v100, z5, tool0;
MoveL Offs(p0,14.22688,92.20576000000001, 0), v100, z5, tool0;
MoveL Offs(p0,13.920359999999999,92.05152000000001, 0), v100, z5, tool0;
MoveL Offs(p0,13.52,91.88, 0), v100, z5, tool0;
MoveL Offs(p0,13.52,91.88, 0), v100, z5, tool0;
MoveL Offs(p0,12.63584,91.40836000000002, 0), v100, z5, tool0;
MoveL Offs(p0,11.789120000000002,90.77088000000003, 0), v100, z5, tool0;
MoveL Offs(p0,10.98848,89.98172000000001, 0), v100, z5, tool0;
MoveL Offs(p0,10.242560000000003,89.05504, 0), v100, z5, tool0;
MoveL Offs(p0,9.559999999999999,88.005, 0), v100, z5, tool0;
MoveL Offs(p0,8.94944,86.84576000000001, 0), v100, z5, tool0;
MoveL Offs(p0,8.419519999999999,85.59147999999999, 0), v100, z5, tool0;
MoveL Offs(p0,7.978880000000001,84.25632000000002, 0), v100, z5, tool0;
MoveL Offs(p0,7.636159999999999,82.85444, 0), v100, z5, tool0;
MoveL Offs(p0,7.4,81.4, 0), v100, z5, tool0;
MoveL Offs(p0,7.4,81.4, 0), v100, z5, tool0;
MoveL Offs(p0,7.3253200000000005,80.89036000000002, 0), v100, z5, tool0;
MoveL Offs(p0,7.244160000000003,80.43808000000001, 0), v100, z5, tool0;
MoveL Offs(p0,7.154840000000002,80.03811999999999, 0), v100, z5, tool0;
MoveL Offs(p0,7.05568,79.68544, 0), v100, z5, tool0;
MoveL Offs(p0,6.945,79.375, 0), v100, z5, tool0;
MoveL Offs(p0,6.821119999999999,79.10176, 0), v100, z5, tool0;
MoveL Offs(p0,6.68236,78.86068, 0), v100, z5, tool0;
MoveL Offs(p0,6.527040000000001,78.64672, 0), v100, z5, tool0;
MoveL Offs(p0,6.35348,78.45484, 0), v100, z5, tool0;
MoveL Offs(p0,6.16,78.28, 0), v100, z5, tool0;
MoveL Offs(p0,6.16,78.28, 0), v100, z5, tool0;
MoveL Offs(p0,5.988000000000001,78.12288000000001, 0), v100, z5, tool0;
MoveL Offs(p0,5.787200000000001,77.89664000000002, 0), v100, z5, tool0;
MoveL Offs(p0,5.5623999999999985,77.60896, 0), v100, z5, tool0;
MoveL Offs(p0,5.3184000000000005,77.26752, 0), v100, z5, tool0;
MoveL Offs(p0,5.0600000000000005,76.88, 0), v100, z5, tool0;
MoveL Offs(p0,4.792,76.45408, 0), v100, z5, tool0;
MoveL Offs(p0,4.5192,75.99743999999998, 0), v100, z5, tool0;
MoveL Offs(p0,4.2464,75.51776, 0), v100, z5, tool0;
MoveL Offs(p0,3.9784000000000006,75.02272, 0), v100, z5, tool0;
MoveL Offs(p0,3.72,74.52000000000001, 0), v100, z5, tool0;
MoveL Offs(p0,3.72,74.52000000000001, 0), v100, z5, tool0;
MoveL Offs(p0,3.32744,73.70576000000001, 0), v100, z5, tool0;
MoveL Offs(p0,3.008320000000001,73.01248000000001, 0), v100, z5, tool0;
MoveL Offs(p0,2.75448,72.40032, 0), v100, z5, tool0;
MoveL Offs(p0,2.5577600000000005,71.82944, 0), v100, z5, tool0;
MoveL Offs(p0,2.41,71.26, 0), v100, z5, tool0;
MoveL Offs(p0,2.30304,70.65216000000001, 0), v100, z5, tool0;
MoveL Offs(p0,2.22872,69.96608, 0), v100, z5, tool0;
MoveL Offs(p0,2.1788800000000004,69.16192000000001, 0), v100, z5, tool0;
MoveL Offs(p0,2.14536,68.19984000000001, 0), v100, z5, tool0;
MoveL Offs(p0,2.12,67.03999999999999, 0), v100, z5, tool0;
MoveL Offs(p0,2.12,67.03999999999999, 0), v100, z5, tool0;
MoveL Offs(p0,2.1028400000000005,66.01944, 0), v100, z5, tool0;
MoveL Offs(p0,2.07392,65.12992000000001, 0), v100, z5, tool0;
MoveL Offs(p0,2.0310799999999998,64.35368, 0), v100, z5, tool0;
MoveL Offs(p0,1.9721600000000001,63.67296, 0), v100, z5, tool0;
MoveL Offs(p0,1.895,63.07000000000001, 0), v100, z5, tool0;
MoveL Offs(p0,1.79744,62.52704, 0), v100, z5, tool0;
MoveL Offs(p0,1.67732,62.02632, 0), v100, z5, tool0;
MoveL Offs(p0,1.53248,61.55008, 0), v100, z5, tool0;
MoveL Offs(p0,1.36076,61.080560000000006, 0), v100, z5, tool0;
MoveL Offs(p0,1.16,60.6, 0), v100, z5, tool0;
MoveL Offs(p0,1.16,60.6, 0), v100, z5, tool0;
MoveL Offs(p0,0.787,59.58940000000001, 0), v100, z5, tool0;
MoveL Offs(p0,0.48480000000000006,58.38560000000001, 0), v100, z5, tool0;
MoveL Offs(p0,0.2545999999999998,57.03059999999999, 0), v100, z5, tool0;
MoveL Offs(p0,0.09759999999999996,55.5664, 0), v100, z5, tool0;
MoveL Offs(p0,0.015,54.035000000000004, 0), v100, z5, tool0;
MoveL Offs(p0,0.008000000000000044,52.4784, 0), v100, z5, tool0;
MoveL Offs(p0,0.07780000000000005,50.938599999999994, 0), v100, z5, tool0;
MoveL Offs(p0,0.22560000000000008,49.4576, 0), v100, z5, tool0;
MoveL Offs(p0,0.45260000000000017,48.0774, 0), v100, z5, tool0;
MoveL Offs(p0,0.76,46.839999999999996, 0), v100, z5, tool0;
MoveL Offs(p0,0.76,46.839999999999996, 0), v100, z5, tool0;
MoveL Offs(p0,0.9001600000000002,46.3688, 0), v100, z5, tool0;
MoveL Offs(p0,1.0316800000000002,45.87360000000002, 0), v100, z5, tool0;
MoveL Offs(p0,1.1531200000000001,45.364, 0), v100, z5, tool0;
MoveL Offs(p0,1.2630400000000004,44.849599999999995, 0), v100, z5, tool0;
MoveL Offs(p0,1.3599999999999999,44.339999999999996, 0), v100, z5, tool0;
MoveL Offs(p0,1.4425600000000003,43.8448, 0), v100, z5, tool0;
MoveL Offs(p0,1.50928,43.373599999999996, 0), v100, z5, tool0;
MoveL Offs(p0,1.55872,42.936, 0), v100, z5, tool0;
MoveL Offs(p0,1.5894400000000002,42.5416, 0), v100, z5, tool0;
MoveL Offs(p0,1.6,42.2, 0), v100, z5, tool0;
MoveL Offs(p0,1.6,42.2, 0), v100, z5, tool0;
MoveL Offs(p0,1.6461200000000002,41.4994, 0), v100, z5, tool0;
MoveL Offs(p0,1.7769600000000003,40.64640000000001, 0), v100, z5, tool0;
MoveL Offs(p0,1.9812400000000003,39.6782, 0), v100, z5, tool0;
MoveL Offs(p0,2.2476800000000003,38.632000000000005, 0), v100, z5, tool0;
MoveL Offs(p0,2.565,37.545, 0), v100, z5, tool0;
MoveL Offs(p0,2.921920000000001,36.4544, 0), v100, z5, tool0;
MoveL Offs(p0,3.3071600000000005,35.3974, 0), v100, z5, tool0;
MoveL Offs(p0,3.7094400000000007,34.411199999999994, 0), v100, z5, tool0;
MoveL Offs(p0,4.1174800000000005,33.533, 0), v100, z5, tool0;
MoveL Offs(p0,4.5200000000000005,32.8, 0), v100, z5, tool0;
MoveL Offs(p0,4.5200000000000005,32.8, 0), v100, z5, tool0;
MoveL Offs(p0,4.67032,32.5504, 0), v100, z5, tool0;
MoveL Offs(p0,4.853760000000002,32.262400000000014, 0), v100, z5, tool0;
MoveL Offs(p0,5.06504,31.943199999999997, 0), v100, z5, tool0;
MoveL Offs(p0,5.2988800000000005,31.600000000000005, 0), v100, z5, tool0;
MoveL Offs(p0,5.55,31.24, 0), v100, z5, tool0;
MoveL Offs(p0,5.81312,30.8704, 0), v100, z5, tool0;
MoveL Offs(p0,6.082959999999999,30.498400000000004, 0), v100, z5, tool0;
MoveL Offs(p0,6.354240000000001,30.1312, 0), v100, z5, tool0;
MoveL Offs(p0,6.6216800000000005,29.776000000000003, 0), v100, z5, tool0;
MoveL Offs(p0,6.88,29.439999999999998, 0), v100, z5, tool0;
MoveL Offs(p0,6.88,29.439999999999998, 0), v100, z5, tool0;
MoveL Offs(p0,7.126680000000002,29.114480000000007, 0), v100, z5, tool0;
MoveL Offs(p0,7.360640000000002,28.789440000000006, 0), v100, z5, tool0;
MoveL Offs(p0,7.57876,28.47016, 0), v100, z5, tool0;
MoveL Offs(p0,7.777919999999999,28.16192, 0), v100, z5, tool0;
MoveL Offs(p0,7.955,27.869999999999997, 0), v100, z5, tool0;
MoveL Offs(p0,8.106879999999999,27.59968, 0), v100, z5, tool0;
MoveL Offs(p0,8.230440000000002,27.356239999999996, 0), v100, z5, tool0;
MoveL Offs(p0,8.322560000000001,27.144960000000005, 0), v100, z5, tool0;
MoveL Offs(p0,8.380120000000002,26.971120000000003, 0), v100, z5, tool0;
MoveL Offs(p0,8.4,26.839999999999996, 0), v100, z5, tool0;
MoveL Offs(p0,8.4,26.839999999999996, 0), v100, z5, tool0;
MoveL Offs(p0,8.415240000000002,26.701840000000004, 0), v100, z5, tool0;
MoveL Offs(p0,8.459520000000001,26.50752000000001, 0), v100, z5, tool0;
MoveL Offs(p0,8.530679999999998,26.263279999999998, 0), v100, z5, tool0;
MoveL Offs(p0,8.626560000000001,25.975360000000006, 0), v100, z5, tool0;
MoveL Offs(p0,8.745000000000001,25.65, 0), v100, z5, tool0;
MoveL Offs(p0,8.883840000000001,25.29344, 0), v100, z5, tool0;
MoveL Offs(p0,9.04092,24.911920000000002, 0), v100, z5, tool0;
MoveL Offs(p0,9.214080000000001,24.511680000000005, 0), v100, z5, tool0;
MoveL Offs(p0,9.40116,24.09896, 0), v100, z5, tool0;
MoveL Offs(p0,9.6,23.68, 0), v100, z5, tool0;
MoveL Offs(p0,9.6,23.68, 0), v100, z5, tool0;
MoveL Offs(p0,10.092760000000002,22.75056, 0), v100, z5, tool0;
MoveL Offs(p0,10.695680000000001,21.79808000000001, 0), v100, z5, tool0;
MoveL Offs(p0,11.391719999999998,20.84032, 0), v100, z5, tool0;
MoveL Offs(p0,12.16384,19.89504, 0), v100, z5, tool0;
MoveL Offs(p0,12.995,18.98, 0), v100, z5, tool0;
MoveL Offs(p0,13.86816,18.112959999999998, 0), v100, z5, tool0;
MoveL Offs(p0,14.76628,17.31168, 0), v100, z5, tool0;
MoveL Offs(p0,15.672320000000003,16.593920000000004, 0), v100, z5, tool0;
MoveL Offs(p0,16.56924,15.977440000000001, 0), v100, z5, tool0;
MoveL Offs(p0,17.44,15.48, 0), v100, z5, tool0;
MoveL Offs(p0,17.44,15.48, 0), v100, z5, tool0;
MoveL Offs(p0,17.774040000000003,15.303000000000003, 0), v100, z5, tool0;
MoveL Offs(p0,18.101120000000005,15.110400000000004, 0), v100, z5, tool0;
MoveL Offs(p0,18.416680000000003,14.905799999999996, 0), v100, z5, tool0;
MoveL Offs(p0,18.716160000000002,14.692800000000002, 0), v100, z5, tool0;
MoveL Offs(p0,18.994999999999997,14.475, 0), v100, z5, tool0;
MoveL Offs(p0,19.248639999999998,14.256, 0), v100, z5, tool0;
MoveL Offs(p0,19.47252,14.0394, 0), v100, z5, tool0;
MoveL Offs(p0,19.66208,13.828800000000001, 0), v100, z5, tool0;
MoveL Offs(p0,19.81276,13.627799999999999, 0), v100, z5, tool0;
MoveL Offs(p0,19.919999999999998,13.440000000000001, 0), v100, z5, tool0;
MoveL Offs(p0,19.919999999999998,13.440000000000001, 0), v100, z5, tool0;
MoveL Offs(p0,20.598680000000005,12.25252, 0), v100, z5, tool0;
MoveL Offs(p0,21.552640000000004,11.058560000000003, 0), v100, z5, tool0;
MoveL Offs(p0,22.742759999999997,9.882839999999998, 0), v100, z5, tool0;
MoveL Offs(p0,24.129920000000002,8.75008, 0), v100, z5, tool0;
MoveL Offs(p0,25.675,7.685, 0), v100, z5, tool0;
MoveL Offs(p0,27.33888,6.71232, 0), v100, z5, tool0;
MoveL Offs(p0,29.082440000000002,5.8567599999999995, 0), v100, z5, tool0;
MoveL Offs(p0,30.866560000000003,5.14304, 0), v100, z5, tool0;
MoveL Offs(p0,32.652120000000004,4.59588, 0), v100, z5, tool0;
MoveL Offs(p0,34.4,4.24, 0), v100, z5, tool0;
MoveL Offs(p0,34.4,4.24, 0), v100, z5, tool0;
MoveL Offs(p0,34.730760000000004,4.1746, 0), v100, z5, tool0;
MoveL Offs(p0,35.11648000000001,4.076800000000001, 0), v100, z5, tool0;
MoveL Offs(p0,35.54732,3.9501999999999997, 0), v100, z5, tool0;
MoveL Offs(p0,36.01344,3.7984, 0), v100, z5, tool0;
MoveL Offs(p0,36.505,3.625, 0), v100, z5, tool0;
MoveL Offs(p0,37.01216000000001,3.4335999999999998, 0), v100, z5, tool0;
MoveL Offs(p0,37.525079999999996,3.2278, 0), v100, z5, tool0;
MoveL Offs(p0,38.03392,3.0112, 0), v100, z5, tool0;
MoveL Offs(p0,38.52884,2.7874000000000003, 0), v100, z5, tool0;
MoveL Offs(p0,39.0,2.56, 0), v100, z5, tool0;
MoveL Offs(p0,39.0,2.56, 0), v100, z5, tool0;
MoveL Offs(p0,40.277280000000005,1.96032, 0), v100, z5, tool0;
MoveL Offs(p0,41.485440000000004,1.4537600000000006, 0), v100, z5, tool0;
MoveL Offs(p0,42.64895999999999,1.0350399999999997, 0), v100, z5, tool0;
MoveL Offs(p0,43.792320000000004,0.69888, 0), v100, z5, tool0;
MoveL Offs(p0,44.94,0.44000000000000006, 0), v100, z5, tool0;
MoveL Offs(p0,46.11648,0.2531199999999999, 0), v100, z5, tool0;
MoveL Offs(p0,47.34624,0.13295999999999994, 0), v100, z5, tool0;
MoveL Offs(p0,48.65376,0.07423999999999999, 0), v100, z5, tool0;
MoveL Offs(p0,50.06352,0.07168000000000001, 0), v100, z5, tool0;
MoveL Offs(p0,51.6,0.12, 0), v100, z5, tool0;
MoveL Offs(p0,51.6,0.12, 0), v100, z5, tool0;
MoveL Offs(p0,52.42188000000001,0.16300000000000003, 0), v100, z5, tool0;
MoveL Offs(p0,53.226240000000004,0.21920000000000006, 0), v100, z5, tool0;
MoveL Offs(p0,54.00515999999999,0.2874, 0), v100, z5, tool0;
MoveL Offs(p0,54.750720000000015,0.3664, 0), v100, z5, tool0;
MoveL Offs(p0,55.455,0.45499999999999996, 0), v100, z5, tool0;
MoveL Offs(p0,56.110079999999996,0.552, 0), v100, z5, tool0;
MoveL Offs(p0,56.708040000000004,0.6562, 0), v100, z5, tool0;
MoveL Offs(p0,57.24096000000001,0.7664000000000002, 0), v100, z5, tool0;
MoveL Offs(p0,57.700919999999996,0.8814, 0), v100, z5, tool0;
MoveL Offs(p0,58.08,1.0, 0), v100, z5, tool0;
MoveL Offs(p0,58.08,1.0, 0), v100, z5, tool0;
MoveL Offs(p0,58.54852000000001,1.1622400000000002, 0), v100, z5, tool0;
MoveL Offs(p0,58.98176000000001,1.2899200000000002, 0), v100, z5, tool0;
MoveL Offs(p0,59.39723999999999,1.3844800000000002, 0), v100, z5, tool0;
MoveL Offs(p0,59.81248000000001,1.4473600000000002, 0), v100, z5, tool0;
MoveL Offs(p0,60.245000000000005,1.48, 0), v100, z5, tool0;
MoveL Offs(p0,60.71232,1.4838400000000003, 0), v100, z5, tool0;
MoveL Offs(p0,61.23196,1.4603199999999998, 0), v100, z5, tool0;
MoveL Offs(p0,61.82144000000001,1.4108800000000001, 0), v100, z5, tool0;
MoveL Offs(p0,62.49828,1.33696, 0), v100, z5, tool0;
MoveL Offs(p0,63.279999999999994,1.24, 0), v100, z5, tool0;
MoveL Offs(p0,63.279999999999994,1.24, 0), v100, z5, tool0;
MoveL Offs(p0,66.46012,1.0267600000000001, 0), v100, z5, tool0;
MoveL Offs(p0,69.67456000000001,1.2092800000000001, 0), v100, z5, tool0;
MoveL Offs(p0,72.86644,1.76092, 0), v100, z5, tool0;
MoveL Offs(p0,75.97888,2.6550400000000005, 0), v100, z5, tool0;
MoveL Offs(p0,78.955,3.8649999999999998, 0), v100, z5, tool0;
MoveL Offs(p0,81.73792,5.364160000000002, 0), v100, z5, tool0;
MoveL Offs(p0,84.27076000000001,7.125880000000002, 0), v100, z5, tool0;
MoveL Offs(p0,86.49664,9.123520000000003, 0), v100, z5, tool0;
MoveL Offs(p0,88.35868,11.330440000000001, 0), v100, z5, tool0;
MoveL Offs(p0,89.8,13.719999999999999, 0), v100, z5, tool0;
MoveL Offs(p0,89.8,13.719999999999999, 0), v100, z5, tool0;
MoveL Offs(p0,90.05412,14.221280000000002, 0), v100, z5, tool0;
MoveL Offs(p0,90.29696000000001,14.653440000000003, 0), v100, z5, tool0;
MoveL Offs(p0,90.54123999999999,15.028959999999998, 0), v100, z5, tool0;
MoveL Offs(p0,90.79968000000001,15.360320000000002, 0), v100, z5, tool0;
MoveL Offs(p0,91.08500000000001,15.66, 0), v100, z5, tool0;
MoveL Offs(p0,91.40992,15.940479999999999, 0), v100, z5, tool0;
MoveL Offs(p0,91.78716,16.21424, 0), v100, z5, tool0;
MoveL Offs(p0,92.22944,16.49376, 0), v100, z5, tool0;
MoveL Offs(p0,92.74948,16.79152, 0), v100, z5, tool0;
MoveL Offs(p0,93.36,17.119999999999997, 0), v100, z5, tool0;
MoveL Offs(p0,93.36,17.119999999999997, 0), v100, z5, tool0;
MoveL Offs(p0,95.04532000000003,18.146880000000003, 0), v100, z5, tool0;
MoveL Offs(p0,96.63296,19.407040000000002, 0), v100, z5, tool0;
MoveL Offs(p0,98.10443999999998,20.869760000000003, 0), v100, z5, tool0;
MoveL Offs(p0,99.44128,22.50432, 0), v100, z5, tool0;
MoveL Offs(p0,100.625,24.28, 0), v100, z5, tool0;
MoveL Offs(p0,101.63712,26.16608, 0), v100, z5, tool0;
MoveL Offs(p0,102.45916000000003,28.13184, 0), v100, z5, tool0;
MoveL Offs(p0,103.07264,30.146560000000004, 0), v100, z5, tool0;
MoveL Offs(p0,103.45908,32.179520000000004, 0), v100, z5, tool0;
MoveL Offs(p0,103.6,34.2, 0), v100, z5, tool0;
MoveL Offs(p0,103.6,34.2, 0), v100, z5, tool0;
MoveL Offs(p0,103.61112,34.552440000000004, 0), v100, z5, tool0;
MoveL Offs(p0,103.64576000000002,34.89312, 0), v100, z5, tool0;
MoveL Offs(p0,103.70584000000001,35.22708, 0), v100, z5, tool0;
MoveL Offs(p0,103.79328000000001,35.559360000000005, 0), v100, z5, tool0;
MoveL Offs(p0,103.91,35.894999999999996, 0), v100, z5, tool0;
MoveL Offs(p0,104.05792000000001,36.23904, 0), v100, z5, tool0;
MoveL Offs(p0,104.23895999999999,36.59652, 0), v100, z5, tool0;
MoveL Offs(p0,104.45504000000001,36.972480000000004, 0), v100, z5, tool0;
MoveL Offs(p0,104.70808000000002,37.37196, 0), v100, z5, tool0;
MoveL Offs(p0,105.0,37.8, 0), v100, z5, tool0;
MoveL Offs(p0,105.0,37.8, 0), v100, z5, tool0;
MoveL Offs(p0,105.73208000000002,38.96844, 0), v100, z5, tool0;
MoveL Offs(p0,106.38784000000001,40.29312000000001, 0), v100, z5, tool0;
MoveL Offs(p0,106.96056000000002,41.74308, 0), v100, z5, tool0;
MoveL Offs(p0,107.44352,43.28736000000001, 0), v100, z5, tool0;
MoveL Offs(p0,107.83,44.894999999999996, 0), v100, z5, tool0;
MoveL Offs(p0,108.11328,46.535039999999995, 0), v100, z5, tool0;
MoveL Offs(p0,108.28664,48.17652, 0), v100, z5, tool0;
MoveL Offs(p0,108.34336,49.78848, 0), v100, z5, tool0;
MoveL Offs(p0,108.27672,51.33996, 0), v100, z5, tool0;
MoveL Offs(p0,108.08,52.8, 0), v100, z5, tool0;
MoveL Offs(p0,108.08,52.8, 0), v100, z5, tool0;
MoveL Offs(p0,108.01168000000003,53.15548000000001, 0), v100, z5, tool0;
MoveL Offs(p0,107.95104000000006,53.49824000000001, 0), v100, z5, tool0;
MoveL Offs(p0,107.89855999999997,53.822759999999995, 0), v100, z5, tool0;
MoveL Offs(p0,107.85472,54.12352, 0), v100, z5, tool0;
MoveL Offs(p0,107.82000000000001,54.395, 0), v100, z5, tool0;
MoveL Offs(p0,107.79487999999999,54.631679999999996, 0), v100, z5, tool0;
MoveL Offs(p0,107.77984000000001,54.82804, 0), v100, z5, tool0;
MoveL Offs(p0,107.77536,54.97856, 0), v100, z5, tool0;
MoveL Offs(p0,107.78191999999999,55.07772, 0), v100, z5, tool0;
MoveL Offs(p0,107.8,55.120000000000005, 0), v100, z5, tool0;
MoveL Offs(p0,107.8,55.120000000000005, 0), v100, z5, tool0;
MoveL Offs(p0,107.86016000000002,55.10768, 0), v100, z5, tool0;
MoveL Offs(p0,107.98848000000002,55.026240000000016, 0), v100, z5, tool0;
MoveL Offs(p0,108.17872,54.880959999999995, 0), v100, z5, tool0;
MoveL Offs(p0,108.42464,54.67711999999999, 0), v100, z5, tool0;
MoveL Offs(p0,108.72,54.42, 0), v100, z5, tool0;
MoveL Offs(p0,109.05855999999999,54.11487999999999, 0), v100, z5, tool0;
MoveL Offs(p0,109.43408,53.767039999999994, 0), v100, z5, tool0;
MoveL Offs(p0,109.84032000000002,53.38176000000001, 0), v100, z5, tool0;
MoveL Offs(p0,110.27104,52.96432000000001, 0), v100, z5, tool0;
MoveL Offs(p0,110.72,52.52, 0), v100, z5, tool0;
MoveL Offs(p0,110.72,52.52, 0), v100, z5, tool0;
MoveL Offs(p0,111.76908000000003,51.44504000000002, 0), v100, z5, tool0;
MoveL Offs(p0,112.77664000000004,50.31392000000002, 0), v100, z5, tool0;
MoveL Offs(p0,113.73715999999999,49.13528, 0), v100, z5, tool0;
MoveL Offs(p0,114.64511999999999,47.91776000000001, 0), v100, z5, tool0;
MoveL Offs(p0,115.495,46.67, 0), v100, z5, tool0;
MoveL Offs(p0,116.28128000000001,45.40064, 0), v100, z5, tool0;
MoveL Offs(p0,116.99844,44.118320000000004, 0), v100, z5, tool0;
MoveL Offs(p0,117.64096000000002,42.831680000000006, 0), v100, z5, tool0;
MoveL Offs(p0,118.20332,41.54935999999999, 0), v100, z5, tool0;
MoveL Offs(p0,118.67999999999999,40.28, 0), v100, z5, tool0;
MoveL Offs(p0,118.67999999999999,40.28, 0), v100, z5, tool0;
MoveL Offs(p0,118.95436000000002,39.4684, 0), v100, z5, tool0;
MoveL Offs(p0,119.18048000000003,38.740800000000014, 0), v100, z5, tool0;
MoveL Offs(p0,119.36291999999999,38.065999999999995, 0), v100, z5, tool0;
MoveL Offs(p0,119.50624,37.412800000000004, 0), v100, z5, tool0;
MoveL Offs(p0,119.61500000000001,36.75, 0), v100, z5, tool0;
MoveL Offs(p0,119.69376,36.046400000000006, 0), v100, z5, tool0;
MoveL Offs(p0,119.74708000000001,35.270799999999994, 0), v100, z5, tool0;
MoveL Offs(p0,119.77952,34.392, 0), v100, z5, tool0;
MoveL Offs(p0,119.79564000000002,33.3788, 0), v100, z5, tool0;
MoveL Offs(p0,119.8,32.2, 0), v100, z5, tool0;
MoveL Offs(p0,119.8,32.2, 0), v100, z5, tool0;
MoveL Offs(p0,119.79476000000003,31.07176, 0), v100, z5, tool0;
MoveL Offs(p0,119.77728000000002,30.095680000000005, 0), v100, z5, tool0;
MoveL Offs(p0,119.74492000000001,29.24872, 0), v100, z5, tool0;
MoveL Offs(p0,119.69504000000002,28.507839999999998, 0), v100, z5, tool0;
MoveL Offs(p0,119.625,27.85, 0), v100, z5, tool0;
MoveL Offs(p0,119.53216,27.252159999999993, 0), v100, z5, tool0;
MoveL Offs(p0,119.41387999999999,26.691279999999995, 0), v100, z5, tool0;
MoveL Offs(p0,119.26752000000002,26.14432, 0), v100, z5, tool0;
MoveL Offs(p0,119.09043999999999,25.588240000000003, 0), v100, z5, tool0;
MoveL Offs(p0,118.88,25.0, 0), v100, z5, tool0;
MoveL Offs(p0,118.88,25.0, 0), v100, z5, tool0;
MoveL Offs(p0,118.49756,24.058440000000004, 0), v100, z5, tool0;
MoveL Offs(p0,118.07168000000004,23.155520000000006, 0), v100, z5, tool0;
MoveL Offs(p0,117.60452000000001,22.293879999999998, 0), v100, z5, tool0;
MoveL Offs(p0,117.09824000000003,21.47616, 0), v100, z5, tool0;
MoveL Offs(p0,116.55499999999999,20.705000000000002, 0), v100, z5, tool0;
MoveL Offs(p0,115.97696,19.98304, 0), v100, z5, tool0;
MoveL Offs(p0,115.36628,19.31292, 0), v100, z5, tool0;
MoveL Offs(p0,114.72512000000002,18.69728, 0), v100, z5, tool0;
MoveL Offs(p0,114.05564,18.13876, 0), v100, z5, tool0;
MoveL Offs(p0,113.35999999999999,17.64, 0), v100, z5, tool0;
MoveL Offs(p0,113.35999999999999,17.64, 0), v100, z5, tool0;
MoveL Offs(p0,111.91780000000003,16.78924, 0), v100, z5, tool0;
MoveL Offs(p0,110.54400000000001,16.181120000000004, 0), v100, z5, tool0;
MoveL Offs(p0,109.23979999999999,15.815879999999998, 0), v100, z5, tool0;
MoveL Offs(p0,108.00639999999999,15.693760000000001, 0), v100, z5, tool0;
MoveL Offs(p0,106.845,15.815000000000001, 0), v100, z5, tool0;
MoveL Offs(p0,105.7568,16.179840000000002, 0), v100, z5, tool0;
MoveL Offs(p0,104.74299999999998,16.78852, 0), v100, z5, tool0;
MoveL Offs(p0,103.8048,17.641280000000002, 0), v100, z5, tool0;
MoveL Offs(p0,102.9434,18.73836, 0), v100, z5, tool0;
MoveL Offs(p0,102.16,20.080000000000002, 0), v100, z5, tool0;
MoveL Offs(p0,102.16,20.080000000000002, 0), v100, z5, tool0;
MoveL Offs(p0,101.95096000000004,20.47388, 0), v100, z5, tool0;
MoveL Offs(p0,101.75488000000003,20.816640000000007, 0), v100, z5, tool0;
MoveL Offs(p0,101.57032,21.10996, 0), v100, z5, tool0;
MoveL Offs(p0,101.39583999999999,21.355520000000002, 0), v100, z5, tool0;
MoveL Offs(p0,101.22999999999999,21.555, 0), v100, z5, tool0;
MoveL Offs(p0,101.07135999999998,21.710079999999998, 0), v100, z5, tool0;
MoveL Offs(p0,100.91848,21.82244, 0), v100, z5, tool0;
MoveL Offs(p0,100.76992,21.893760000000004, 0), v100, z5, tool0;
MoveL Offs(p0,100.62424000000001,21.925720000000002, 0), v100, z5, tool0;
MoveL Offs(p0,100.47999999999999,21.919999999999998, 0), v100, z5, tool0;
MoveL Offs(p0,100.47999999999999,21.919999999999998, 0), v100, z5, tool0;
MoveL Offs(p0,100.19644000000001,21.76096, 0), v100, z5, tool0;
MoveL Offs(p0,99.99232000000002,21.444480000000006, 0), v100, z5, tool0;
MoveL Offs(p0,99.86547999999999,20.995519999999996, 0), v100, z5, tool0;
MoveL Offs(p0,99.81376,20.43904, 0), v100, z5, tool0;
MoveL Offs(p0,99.83500000000001,19.8, 0), v100, z5, tool0;
MoveL Offs(p0,99.92704,19.10336, 0), v100, z5, tool0;
MoveL Offs(p0,100.08772000000002,18.37408, 0), v100, z5, tool0;
MoveL Offs(p0,100.31488000000002,17.63712, 0), v100, z5, tool0;
MoveL Offs(p0,100.60636000000001,16.917440000000003, 0), v100, z5, tool0;
MoveL Offs(p0,100.96000000000001,16.240000000000002, 0), v100, z5, tool0;
MoveL Offs(p0,100.96000000000001,16.240000000000002, 0), v100, z5, tool0;
MoveL Offs(p0,101.58924000000003,15.291080000000003, 0), v100, z5, tool0;
MoveL Offs(p0,102.29792000000003,14.461440000000005, 0), v100, z5, tool0;
MoveL Offs(p0,103.08147999999998,13.75276, 0), v100, z5, tool0;
MoveL Offs(p0,103.93535999999999,13.166720000000002, 0), v100, z5, tool0;
MoveL Offs(p0,104.85499999999999,12.705, 0), v100, z5, tool0;
MoveL Offs(p0,105.83584,12.36928, 0), v100, z5, tool0;
MoveL Offs(p0,106.87332,12.161240000000001, 0), v100, z5, tool0;
MoveL Offs(p0,107.96288,12.08256, 0), v100, z5, tool0;
MoveL Offs(p0,109.09996000000001,12.134920000000003, 0), v100, z5, tool0;
MoveL Offs(p0,110.28,12.32, 0), v100, z5, tool0;
MoveL Offs(p0,110.28,12.32, 0), v100, z5, tool0;
MoveL Offs(p0,112.32004000000002,12.870920000000003, 0), v100, z5, tool0;
MoveL Offs(p0,114.23552000000004,13.63136, 0), v100, z5, tool0;
MoveL Offs(p0,116.01947999999997,14.594840000000001, 0), v100, z5, tool0;
MoveL Offs(p0,117.66496000000002,15.75488, 0), v100, z5, tool0;
MoveL Offs(p0,119.165,17.105, 0), v100, z5, tool0;
MoveL Offs(p0,120.51263999999999,18.63872, 0), v100, z5, tool0;
MoveL Offs(p0,121.70092,20.349560000000004, 0), v100, z5, tool0;
MoveL Offs(p0,122.72288,22.23104, 0), v100, z5, tool0;
MoveL Offs(p0,123.57156,24.276680000000002, 0), v100, z5, tool0;
MoveL Offs(p0,124.24000000000001,26.48, 0), v100, z5, tool0;
MoveL Offs(p0,124.24000000000001,26.48, 0), v100, z5, tool0;
MoveL Offs(p0,124.50908000000001,27.767480000000006, 0), v100, z5, tool0;
MoveL Offs(p0,124.69344000000005,29.18624000000001, 0), v100, z5, tool0;
MoveL Offs(p0,124.79476,30.706760000000003, 0), v100, z5, tool0;
MoveL Offs(p0,124.81472,32.29952, 0), v100, z5, tool0;
MoveL Offs(p0,124.755,33.935, 0), v100, z5, tool0;
MoveL Offs(p0,124.61728000000001,35.58368, 0), v100, z5, tool0;
MoveL Offs(p0,124.40324000000001,37.21604000000001, 0), v100, z5, tool0;
MoveL Offs(p0,124.11456000000003,38.80256000000001, 0), v100, z5, tool0;
MoveL Offs(p0,123.75291999999999,40.31372, 0), v100, z5, tool0;
MoveL Offs(p0,123.32000000000001,41.72, 0), v100, z5, tool0;
MoveL Offs(p0,123.32000000000001,41.72, 0), v100, z5, tool0;
MoveL Offs(p0,122.53628,43.75784, 0), v100, z5, tool0;
MoveL Offs(p0,121.62464000000003,45.74432, 0), v100, z5, tool0;
MoveL Offs(p0,120.58436000000002,47.680879999999995, 0), v100, z5, tool0;
MoveL Offs(p0,119.41472000000002,49.568960000000004, 0), v100, z5, tool0;
MoveL Offs(p0,118.11500000000001,51.410000000000004, 0), v100, z5, tool0;
MoveL Offs(p0,116.68448000000001,53.205439999999996, 0), v100, z5, tool0;
MoveL Offs(p0,115.12243999999998,54.956720000000004, 0), v100, z5, tool0;
MoveL Offs(p0,113.42816,56.66528000000001, 0), v100, z5, tool0;
MoveL Offs(p0,111.60092,58.33256, 0), v100, z5, tool0;
MoveL Offs(p0,109.64000000000001,59.96, 0), v100, z5, tool0;
MoveL Offs(p0,106.12,62.720000000000006, 0), v100, z5, tool0;
MoveL Offs(p0,106.47999999999999,65.08, 0), v100, z5, tool0;
MoveL Offs(p0,106.47999999999999,65.08, 0), v100, z5, tool0;
MoveL Offs(p0,106.59052,65.89596, 0), v100, z5, tool0;
MoveL Offs(p0,106.65856000000004,66.75488000000003, 0), v100, z5, tool0;
MoveL Offs(p0,106.68484000000001,67.64932000000002, 0), v100, z5, tool0;
MoveL Offs(p0,106.67008000000001,68.57184, 0), v100, z5, tool0;
MoveL Offs(p0,106.61500000000001,69.515, 0), v100, z5, tool0;
MoveL Offs(p0,106.52032,70.47136, 0), v100, z5, tool0;
MoveL Offs(p0,106.38676000000001,71.43348, 0), v100, z5, tool0;
MoveL Offs(p0,106.21504,72.39392000000001, 0), v100, z5, tool0;
MoveL Offs(p0,106.00588000000002,73.34524, 0), v100, z5, tool0;
MoveL Offs(p0,105.75999999999999,74.28, 0), v100, z5, tool0;
MoveL Offs(p0,105.75999999999999,74.28, 0), v100, z5, tool0;
MoveL Offs(p0,105.59084,74.88664000000001, 0), v100, z5, tool0;
MoveL Offs(p0,105.46752000000001,75.41312000000002, 0), v100, z5, tool0;
MoveL Offs(p0,105.39028,75.86328, 0), v100, z5, tool0;
MoveL Offs(p0,105.35936000000001,76.24096000000002, 0), v100, z5, tool0;
MoveL Offs(p0,105.375,76.55, 0), v100, z5, tool0;
MoveL Offs(p0,105.43744,76.79423999999999, 0), v100, z5, tool0;
MoveL Offs(p0,105.54692,76.97752, 0), v100, z5, tool0;
MoveL Offs(p0,105.70368000000003,77.10368000000001, 0), v100, z5, tool0;
MoveL Offs(p0,105.90796,77.17656000000001, 0), v100, z5, tool0;
MoveL Offs(p0,106.16,77.2, 0), v100, z5, tool0;
MoveL Offs(p0,106.16,77.2, 0), v100, z5, tool0;
MoveL Offs(p0,106.44648000000002,77.01548, 0), v100, z5, tool0;
MoveL Offs(p0,106.89184000000003,76.47264000000003, 0), v100, z5, tool0;
MoveL Offs(p0,107.48696,75.58756000000001, 0), v100, z5, tool0;
MoveL Offs(p0,108.22272000000001,74.37632, 0), v100, z5, tool0;
MoveL Offs(p0,109.09,72.85499999999999, 0), v100, z5, tool0;
MoveL Offs(p0,110.07967999999998,71.03967999999999, 0), v100, z5, tool0;
MoveL Offs(p0,111.18263999999999,68.94644000000001, 0), v100, z5, tool0;
MoveL Offs(p0,112.38976000000002,66.59136000000001, 0), v100, z5, tool0;
MoveL Offs(p0,113.69191999999998,63.99051999999999, 0), v100, z5, tool0;
MoveL Offs(p0,115.08,61.160000000000004, 0), v100, z5, tool0;
MoveL Offs(p0,115.08,61.160000000000004, 0), v100, z5, tool0;
MoveL Offs(p0,116.25968,58.769160000000014, 0), v100, z5, tool0;
MoveL Offs(p0,117.27424000000005,56.778880000000015, 0), v100, z5, tool0;
MoveL Offs(p0,118.15296000000001,55.150519999999986, 0), v100, z5, tool0;
MoveL Offs(p0,118.92512000000002,53.84544000000001, 0), v100, z5, tool0;
MoveL Offs(p0,119.62,52.825, 0), v100, z5, tool0;
MoveL Offs(p0,120.26687999999999,52.05056, 0), v100, z5, tool0;
MoveL Offs(p0,120.89504000000002,51.48348, 0), v100, z5, tool0;
MoveL Offs(p0,121.53376,51.08512, 0), v100, z5, tool0;
MoveL Offs(p0,122.21232,50.81684, 0), v100, z5, tool0;
MoveL Offs(p0,122.96,50.64, 0), v100, z5, tool0;
MoveL Offs(p0,122.96,50.64, 0), v100, z5, tool0;
MoveL Offs(p0,123.61948000000002,50.588640000000005, 0), v100, z5, tool0;
MoveL Offs(p0,124.42464000000004,50.65152000000001, 0), v100, z5, tool0;
MoveL Offs(p0,125.37956,50.830079999999995, 0), v100, z5, tool0;
MoveL Offs(p0,126.48832,51.12576, 0), v100, z5, tool0;
MoveL Offs(p0,127.755,51.54, 0), v100, z5, tool0;
MoveL Offs(p0,129.18367999999998,52.074239999999996, 0), v100, z5, tool0;
MoveL Offs(p0,130.77844,52.72992000000001, 0), v100, z5, tool0;
MoveL Offs(p0,132.54336,53.50848, 0), v100, z5, tool0;
MoveL Offs(p0,134.48252,54.41136, 0), v100, z5, tool0;
MoveL Offs(p0,136.6,55.44, 0), v100, z5, tool0;
MoveL Offs(p0,136.6,55.44, 0), v100, z5, tool0;
MoveL Offs(p0,138.81900000000002,56.558400000000006, 0), v100, z5, tool0;
MoveL Offs(p0,140.72000000000006,57.55200000000002, 0), v100, z5, tool0;
MoveL Offs(p0,142.333,58.4424, 0), v100, z5, tool0;
MoveL Offs(p0,143.688,59.2512, 0), v100, z5, tool0;
MoveL Offs(p0,144.815,60.0, 0), v100, z5, tool0;
MoveL Offs(p0,145.744,60.71039999999999, 0), v100, z5, tool0;
MoveL Offs(p0,146.505,61.403999999999996, 0), v100, z5, tool0;
MoveL Offs(p0,147.12800000000001,62.1024, 0), v100, z5, tool0;
MoveL Offs(p0,147.64299999999997,62.827200000000005, 0), v100, z5, tool0;
MoveL Offs(p0,148.07999999999998,63.6, 0), v100, z5, tool0;
MoveL Offs(p0,148.07999999999998,63.6, 0), v100, z5, tool0;
MoveL Offs(p0,148.62088,64.72816000000002, 0), v100, z5, tool0;
MoveL Offs(p0,148.97504000000004,65.79488000000002, 0), v100, z5, tool0;
MoveL Offs(p0,149.11176,66.88752000000001, 0), v100, z5, tool0;
MoveL Offs(p0,149.00032000000002,68.09344000000002, 0), v100, z5, tool0;
MoveL Offs(p0,148.60999999999999,69.5, 0), v100, z5, tool0;
MoveL Offs(p0,147.91008000000002,71.19456, 0), v100, z5, tool0;
MoveL Offs(p0,146.86984,73.26448, 0), v100, z5, tool0;
MoveL Offs(p0,145.45856,75.79712, 0), v100, z5, tool0;
MoveL Offs(p0,143.64551999999998,78.87984, 0), v100, z5, tool0;
MoveL Offs(p0,141.4,82.6, 0), v100, z5, tool0;
MoveL Offs(p0,141.4,82.6, 0), v100, z5, tool0;
MoveL Offs(p0,140.56920000000002,83.98028000000002, 0), v100, z5, tool0;
MoveL Offs(p0,139.76480000000004,85.32384000000005, 0), v100, z5, tool0;
MoveL Offs(p0,138.9988,86.61076, 0), v100, z5, tool0;
MoveL Offs(p0,138.28320000000002,87.82112, 0), v100, z5, tool0;
MoveL Offs(p0,137.63,88.935, 0), v100, z5, tool0;
MoveL Offs(p0,137.05120000000002,89.93248, 0), v100, z5, tool0;
MoveL Offs(p0,136.55880000000002,90.79364, 0), v100, z5, tool0;
MoveL Offs(p0,136.16479999999999,91.49856, 0), v100, z5, tool0;
MoveL Offs(p0,135.8812,92.02732, 0), v100, z5, tool0;
MoveL Offs(p0,135.72,92.36, 0), v100, z5, tool0;
MoveL Offs(p0,135.72,92.36, 0), v100, z5, tool0;
MoveL Offs(p0,135.56916000000004,92.72064, 0), v100, z5, tool0;
MoveL Offs(p0,135.45408000000003,93.01792000000002, 0), v100, z5, tool0;
MoveL Offs(p0,135.37692,93.26287999999998, 0), v100, z5, tool0;
MoveL Offs(p0,135.33984,93.46656000000003, 0), v100, z5, tool0;
MoveL Offs(p0,135.345,93.64, 0), v100, z5, tool0;
MoveL Offs(p0,135.39456,93.79423999999999, 0), v100, z5, tool0;
MoveL Offs(p0,135.49068,93.94032, 0), v100, z5, tool0;
MoveL Offs(p0,135.63552,94.08928, 0), v100, z5, tool0;
MoveL Offs(p0,135.83124000000004,94.25216, 0), v100, z5, tool0;
MoveL Offs(p0,136.07999999999998,94.44, 0), v100, z5, tool0;
MoveL Offs(p0,136.07999999999998,94.44, 0), v100, z5, tool0;
MoveL Offs(p0,136.82296000000002,94.92252, 0), v100, z5, tool0;
MoveL Offs(p0,137.62688000000003,95.29056000000004, 0), v100, z5, tool0;
MoveL Offs(p0,138.47832,95.54484, 0), v100, z5, tool0;
MoveL Offs(p0,139.36384000000004,95.68608, 0), v100, z5, tool0;
MoveL Offs(p0,140.27,95.715, 0), v100, z5, tool0;
MoveL Offs(p0,141.18336,95.63232, 0), v100, z5, tool0;
MoveL Offs(p0,142.09047999999999,95.43876, 0), v100, z5, tool0;
MoveL Offs(p0,142.97792,95.13504, 0), v100, z5, tool0;
MoveL Offs(p0,143.83224,94.72188000000003, 0), v100, z5, tool0;
MoveL Offs(p0,144.64000000000001,94.2, 0), v100, z5, tool0;
MoveL Offs(p0,144.64000000000001,94.2, 0), v100, z5, tool0;
MoveL Offs(p0,145.08412000000004,93.79632000000001, 0), v100, z5, tool0;
MoveL Offs(p0,145.54816000000005,93.26496, 0), v100, z5, tool0;
MoveL Offs(p0,146.02563999999998,92.61743999999999, 0), v100, z5, tool0;
MoveL Offs(p0,146.51008000000002,91.86528000000001, 0), v100, z5, tool0;
MoveL Offs(p0,146.995,91.02000000000001, 0), v100, z5, tool0;
MoveL Offs(p0,147.47392,90.09312, 0), v100, z5, tool0;
MoveL Offs(p0,147.94036,89.09616, 0), v100, z5, tool0;
MoveL Offs(p0,148.38784,88.04064000000001, 0), v100, z5, tool0;
MoveL Offs(p0,148.80988000000002,86.93808000000001, 0), v100, z5, tool0;
MoveL Offs(p0,149.2,85.8, 0), v100, z5, tool0;
MoveL Offs(p0,149.2,85.8, 0), v100, z5, tool0;
MoveL Offs(p0,150.34972000000002,82.5442, 0), v100, z5, tool0;
MoveL Offs(p0,151.68256000000005,79.52480000000003, 0), v100, z5, tool0;
MoveL Offs(p0,153.19204,76.7478, 0), v100, z5, tool0;
MoveL Offs(p0,154.87168,74.21920000000001, 0), v100, z5, tool0;
MoveL Offs(p0,156.715,71.94500000000001, 0), v100, z5, tool0;
MoveL Offs(p0,158.71552,69.9312, 0), v100, z5, tool0;
MoveL Offs(p0,160.86676,68.18379999999999, 0), v100, z5, tool0;
MoveL Offs(p0,163.16224,66.70880000000001, 0), v100, z5, tool0;
MoveL Offs(p0,165.59548,65.51219999999999, 0), v100, z5, tool0;
MoveL Offs(p0,168.16,64.6, 0), v100, z5, tool0;
MoveL Offs(p0,168.16,64.6, 0), v100, z5, tool0;
MoveL Offs(p0,169.26152000000002,64.3392, 0), v100, z5, tool0;
MoveL Offs(p0,170.52096,64.15520000000002, 0), v100, z5, tool0;
MoveL Offs(p0,171.89464,64.0456, 0), v100, z5, tool0;
MoveL Offs(p0,173.33888,64.00800000000001, 0), v100, z5, tool0;
MoveL Offs(p0,174.81,64.03999999999999, 0), v100, z5, tool0;
MoveL Offs(p0,176.26432,64.1392, 0), v100, z5, tool0;
MoveL Offs(p0,177.65816,64.30319999999999, 0), v100, z5, tool0;
MoveL Offs(p0,178.94783999999999,64.5296, 0), v100, z5, tool0;
MoveL Offs(p0,180.08968,64.816, 0), v100, z5, tool0;
MoveL Offs(p0,181.04000000000002,65.16, 0), v100, z5, tool0;
MoveL Offs(p0,181.04000000000002,65.16, 0), v100, z5, tool0;
MoveL Offs(p0,181.76228000000003,65.51272000000002, 0), v100, z5, tool0;
MoveL Offs(p0,182.48384000000004,65.94176000000002, 0), v100, z5, tool0;
MoveL Offs(p0,183.19675999999998,66.43943999999999, 0), v100, z5, tool0;
MoveL Offs(p0,183.89312,66.99808, 0), v100, z5, tool0;
MoveL Offs(p0,184.565,67.61, 0), v100, z5, tool0;
MoveL Offs(p0,185.20448000000002,68.26752, 0), v100, z5, tool0;
MoveL Offs(p0,185.80364000000003,68.96296, 0), v100, z5, tool0;
MoveL Offs(p0,186.35456000000002,69.68864, 0), v100, z5, tool0;
MoveL Offs(p0,186.84932,70.43688, 0), v100, z5, tool0;
MoveL Offs(p0,187.28,71.2, 0), v100, z5, tool0;
MoveL Offs(p0,187.28,71.2, 0), v100, z5, tool0;
MoveL Offs(p0,187.64600000000002,72.05064, 0), v100, z5, tool0;
MoveL Offs(p0,187.92800000000005,73.00352000000002, 0), v100, z5, tool0;
MoveL Offs(p0,188.12599999999998,74.03608, 0), v100, z5, tool0;
MoveL Offs(p0,188.24,75.12576, 0), v100, z5, tool0;
MoveL Offs(p0,188.27,76.25, 0), v100, z5, tool0;
MoveL Offs(p0,188.21599999999998,77.38624, 0), v100, z5, tool0;
MoveL Offs(p0,188.078,78.51191999999999, 0), v100, z5, tool0;
MoveL Offs(p0,187.856,79.60448, 0), v100, z5, tool0;
MoveL Offs(p0,187.55,80.64136, 0), v100, z5, tool0;
MoveL Offs(p0,187.16,81.6, 0), v100, z5, tool0;
MoveL Offs(p0,187.16,81.6, 0), v100, z5, tool0;
MoveL Offs(p0,186.40256000000002,83.01784, 0), v100, z5, tool0;
MoveL Offs(p0,185.48288000000005,84.38432000000003, 0), v100, z5, tool0;
MoveL Offs(p0,184.41391999999996,85.68888, 0), v100, z5, tool0;
MoveL Offs(p0,183.20864,86.92096, 0), v100, z5, tool0;
MoveL Offs(p0,181.88,88.07000000000001, 0), v100, z5, tool0;
MoveL Offs(p0,180.44096000000002,89.12544, 0), v100, z5, tool0;
MoveL Offs(p0,178.90447999999998,90.07672, 0), v100, z5, tool0;
MoveL Offs(p0,177.28352,90.91328000000001, 0), v100, z5, tool0;
