MoveJ Offs(p0,1009.0,2255.0, 10), v30, z1, tool0;
MoveL Offs(p0,1009.0,2255.0, 0), v30, z5, tool0;
MoveL Offs(p0,967.4590000000002,2238.76, 0), v30, z5, tool0;
MoveL Offs(p0,928.7920000000004,2217.8400000000006, 0), v30, z5, tool0;
MoveL Offs(p0,893.233,2192.54, 0), v30, z5, tool0;
MoveL Offs(p0,861.016,2163.16, 0), v30, z5, tool0;
MoveL Offs(p0,832.375,2130.0, 0), v30, z5, tool0;
MoveL Offs(p0,807.5440000000001,2093.3599999999997, 0), v30, z5, tool0;
MoveL Offs(p0,786.7570000000001,2053.54, 0), v30, z5, tool0;
MoveL Offs(p0,770.248,2010.8400000000001, 0), v30, z5, tool0;
MoveL Offs(p0,758.251,1965.56, 0), v30, z5, tool0;
MoveL Offs(p0,751.0,1918.0, 0), v30, z5, tool0;
MoveL Offs(p0,745.0,1861.0, 0), v30, z5, tool0;
MoveL Offs(p0,610.0,1939.0, 0), v30, z5, tool0;
MoveL Offs(p0,475.0,2018.0, 0), v30, z5, tool0;
MoveL Offs(p0,472.0,1983.0, 0), v30, z5, tool0;
MoveL Offs(p0,472.0,1983.0, 0), v30, z5, tool0;
MoveL Offs(p0,471.26,1964.114, 0), v30, z5, tool0;
MoveL Offs(p0,473.4000000000001,1946.9920000000004, 0), v30, z5, tool0;
MoveL Offs(p0,479.56,1930.638, 0), v30, z5, tool0;
MoveL Offs(p0,490.88,1914.0560000000003, 0), v30, z5, tool0;
MoveL Offs(p0,508.5,1896.25, 0), v30, z5, tool0;
MoveL Offs(p0,533.56,1876.224, 0), v30, z5, tool0;
MoveL Offs(p0,567.2,1852.982, 0), v30, z5, tool0;
MoveL Offs(p0,610.5600000000001,1825.5280000000002, 0), v30, z5, tool0;
MoveL Offs(p0,664.7800000000001,1792.866, 0), v30, z5, tool0;
MoveL Offs(p0,731.0,1754.0, 0), v30, z5, tool0;
MoveL Offs(p0,731.0,1754.0, 0), v30, z5, tool0;
MoveL Offs(p0,768.0090000000001,1732.6110000000003, 0), v30, z5, tool0;
MoveL Offs(p0,804.8320000000002,1711.2880000000005, 0), v30, z5, tool0;
MoveL Offs(p0,840.8629999999999,1690.3969999999997, 0), v30, z5, tool0;
MoveL Offs(p0,875.4960000000001,1670.304, 0), v30, z5, tool0;
MoveL Offs(p0,908.125,1651.375, 0), v30, z5, tool0;
MoveL Offs(p0,938.144,1633.9759999999999, 0), v30, z5, tool0;
MoveL Offs(p0,964.9470000000001,1618.473, 0), v30, z5, tool0;
MoveL Offs(p0,987.9280000000001,1605.232, 0), v30, z5, tool0;
MoveL Offs(p0,1006.481,1594.6190000000001, 0), v30, z5, tool0;
MoveL Offs(p0,1020.0,1587.0, 0), v30, z5, tool0;
MoveL Offs(p0,1020.0,1587.0, 0), v30, z5, tool0;
MoveL Offs(p0,1031.124,1580.7820000000004, 0), v30, z5, tool0;
MoveL Offs(p0,1042.7520000000004,1574.2160000000006, 0), v30, z5, tool0;
MoveL Offs(p0,1054.668,1567.434, 0), v30, z5, tool0;
MoveL Offs(p0,1066.6560000000002,1560.5680000000002, 0), v30, z5, tool0;
MoveL Offs(p0,1078.5,1553.75, 0), v30, z5, tool0;
MoveL Offs(p0,1089.984,1547.1119999999999, 0), v30, z5, tool0;
MoveL Offs(p0,1100.8919999999998,1540.786, 0), v30, z5, tool0;
MoveL Offs(p0,1111.0080000000003,1534.904, 0), v30, z5, tool0;
MoveL Offs(p0,1120.116,1529.598, 0), v30, z5, tool0;
MoveL Offs(p0,1128.0,1525.0, 0), v30, z5, tool0;
MoveL Offs(p0,1128.0,1525.0, 0), v30, z5, tool0;
MoveL Offs(p0,1143.196,1516.3880000000001, 0), v30, z5, tool0;
MoveL Offs(p0,1156.5680000000004,1509.7440000000004, 0), v30, z5, tool0;
MoveL Offs(p0,1168.392,1505.0559999999998, 0), v30, z5, tool0;
MoveL Offs(p0,1178.9440000000002,1502.3120000000001, 0), v30, z5, tool0;
MoveL Offs(p0,1188.5,1501.5, 0), v30, z5, tool0;
MoveL Offs(p0,1197.336,1502.608, 0), v30, z5, tool0;
MoveL Offs(p0,1205.728,1505.624, 0), v30, z5, tool0;
MoveL Offs(p0,1213.9520000000002,1510.536, 0), v30, z5, tool0;
MoveL Offs(p0,1222.284,1517.332, 0), v30, z5, tool0;
MoveL Offs(p0,1231.0,1526.0, 0), v30, z5, tool0;
MoveL Offs(p0,1231.0,1526.0, 0), v30, z5, tool0;
MoveL Offs(p0,1245.0900000000004,1539.5920000000003, 0), v30, z5, tool0;
MoveL Offs(p0,1261.8800000000003,1552.6560000000004, 0), v30, z5, tool0;
MoveL Offs(p0,1280.95,1565.024, 0), v30, z5, tool0;
MoveL Offs(p0,1301.88,1576.5280000000002, 0), v30, z5, tool0;
MoveL Offs(p0,1324.25,1587.0, 0), v30, z5, tool0;
MoveL Offs(p0,1347.6399999999999,1596.272, 0), v30, z5, tool0;
MoveL Offs(p0,1371.6299999999999,1604.176, 0), v30, z5, tool0;
MoveL Offs(p0,1395.8000000000002,1610.544, 0), v30, z5, tool0;
MoveL Offs(p0,1419.73,1615.208, 0), v30, z5, tool0;
MoveL Offs(p0,1443.0,1618.0, 0), v30, z5, tool0;
MoveL Offs(p0,1443.0,1618.0, 0), v30, z5, tool0;
MoveL Offs(p0,1460.0110000000004,1619.1940000000002, 0), v30, z5, tool0;
MoveL Offs(p0,1474.0880000000004,1620.4720000000004, 0), v30, z5, tool0;
MoveL Offs(p0,1485.597,1621.9779999999998, 0), v30, z5, tool0;
MoveL Offs(p0,1494.904,1623.856, 0), v30, z5, tool0;
MoveL Offs(p0,1502.375,1626.25, 0), v30, z5, tool0;
MoveL Offs(p0,1508.3759999999997,1629.3039999999999, 0), v30, z5, tool0;
MoveL Offs(p0,1513.2730000000001,1633.162, 0), v30, z5, tool0;
MoveL Offs(p0,1517.4320000000002,1637.9680000000003, 0), v30, z5, tool0;
MoveL Offs(p0,1521.219,1643.866, 0), v30, z5, tool0;
MoveL Offs(p0,1525.0,1651.0, 0), v30, z5, tool0;
MoveL Offs(p0,1525.0,1651.0, 0), v30, z5, tool0;
MoveL Offs(p0,1527.364,1655.488, 0), v30, z5, tool0;
MoveL Offs(p0,1529.6320000000003,1659.9040000000005, 0), v30, z5, tool0;
MoveL Offs(p0,1531.7679999999996,1664.176, 0), v30, z5, tool0;
MoveL Offs(p0,1533.736,1668.2320000000002, 0), v30, z5, tool0;
MoveL Offs(p0,1535.5,1672.0, 0), v30, z5, tool0;
MoveL Offs(p0,1537.024,1675.408, 0), v30, z5, tool0;
MoveL Offs(p0,1538.272,1678.384, 0), v30, z5, tool0;
MoveL Offs(p0,1539.208,1680.8560000000002, 0), v30, z5, tool0;
MoveL Offs(p0,1539.796,1682.7520000000002, 0), v30, z5, tool0;
MoveL Offs(p0,1540.0,1684.0, 0), v30, z5, tool0;
MoveL Offs(p0,1540.0,1684.0, 0), v30, z5, tool0;
MoveL Offs(p0,1539.3280000000002,1684.957, 0), v30, z5, tool0;
MoveL Offs(p0,1537.3840000000002,1686.0160000000005, 0), v30, z5, tool0;
MoveL Offs(p0,1534.2759999999998,1687.1589999999997, 0), v30, z5, tool0;
MoveL Offs(p0,1530.1120000000003,1688.3680000000002, 0), v30, z5, tool0;
MoveL Offs(p0,1525.0,1689.625, 0), v30, z5, tool0;
MoveL Offs(p0,1519.0479999999998,1690.912, 0), v30, z5, tool0;
MoveL Offs(p0,1512.364,1692.2109999999998, 0), v30, z5, tool0;
MoveL Offs(p0,1505.056,1693.5040000000004, 0), v30, z5, tool0;
MoveL Offs(p0,1497.2320000000002,1694.7730000000001, 0), v30, z5, tool0;
MoveL Offs(p0,1489.0,1696.0, 0), v30, z5, tool0;
MoveL Offs(p0,1489.0,1696.0, 0), v30, z5, tool0;
MoveL Offs(p0,1477.6710000000003,1697.7510000000002, 0), v30, z5, tool0;
MoveL Offs(p0,1468.2080000000003,1699.4480000000005, 0), v30, z5, tool0;
MoveL Offs(p0,1460.4969999999998,1701.157, 0), v30, z5, tool0;
MoveL Offs(p0,1454.4240000000002,1702.9440000000002, 0), v30, z5, tool0;
MoveL Offs(p0,1449.875,1704.875, 0), v30, z5, tool0;
MoveL Offs(p0,1446.736,1707.016, 0), v30, z5, tool0;
MoveL Offs(p0,1444.8929999999998,1709.433, 0), v30, z5, tool0;
MoveL Offs(p0,1444.2320000000002,1712.192, 0), v30, z5, tool0;
MoveL Offs(p0,1444.6390000000001,1715.359, 0), v30, z5, tool0;
MoveL Offs(p0,1446.0,1719.0, 0), v30, z5, tool0;
MoveL Offs(p0,1446.0,1719.0, 0), v30, z5, tool0;
MoveL Offs(p0,1457.7330000000004,1746.9030000000002, 0), v30, z5, tool0;
MoveL Offs(p0,1467.2640000000004,1770.6240000000003, 0), v30, z5, tool0;
MoveL Offs(p0,1474.791,1791.081, 0), v30, z5, tool0;
MoveL Offs(p0,1480.5120000000002,1809.1920000000002, 0), v30, z5, tool0;
MoveL Offs(p0,1484.625,1825.875, 0), v30, z5, tool0;
MoveL Offs(p0,1487.328,1842.0480000000002, 0), v30, z5, tool0;
MoveL Offs(p0,1488.819,1858.6290000000001, 0), v30, z5, tool0;
MoveL Offs(p0,1489.2960000000003,1876.536, 0), v30, z5, tool0;
MoveL Offs(p0,1488.957,1896.6870000000001, 0), v30, z5, tool0;
MoveL Offs(p0,1488.0,1920.0, 0), v30, z5, tool0;
MoveL Offs(p0,1488.0,1920.0, 0), v30, z5, tool0;
MoveL Offs(p0,1486.726,1939.2550000000003, 0), v30, z5, tool0;
MoveL Offs(p0,1485.2480000000003,1956.4400000000005, 0), v30, z5, tool0;
MoveL Offs(p0,1483.4820000000002,1971.885, 0), v30, z5, tool0;
MoveL Offs(p0,1481.344,1985.9200000000003, 0), v30, z5, tool0;
MoveL Offs(p0,1478.75,1998.875, 0), v30, z5, tool0;
MoveL Offs(p0,1475.616,2011.08, 0), v30, z5, tool0;
MoveL Offs(p0,1471.858,2022.8650000000002, 0), v30, z5, tool0;
MoveL Offs(p0,1467.3920000000003,2034.5600000000002, 0), v30, z5, tool0;
MoveL Offs(p0,1462.134,2046.4950000000001, 0), v30, z5, tool0;
MoveL Offs(p0,1456.0,2059.0, 0), v30, z5, tool0;
MoveL Offs(p0,1456.0,2059.0, 0), v30, z5, tool0;
MoveL Offs(p0,1434.6190000000001,2096.495, 0), v30, z5, tool0;
MoveL Offs(p0,1410.7120000000004,2130.3600000000006, 0), v30, z5, tool0;
MoveL Offs(p0,1384.3329999999999,2160.5649999999996, 0), v30, z5, tool0;
MoveL Offs(p0,1355.5360000000003,2187.0800000000004, 0), v30, z5, tool0;
MoveL Offs(p0,1324.375,2209.875, 0), v30, z5, tool0;
MoveL Offs(p0,1290.9039999999998,2228.92, 0), v30, z5, tool0;
MoveL Offs(p0,1255.177,2244.185, 0), v30, z5, tool0;
MoveL Offs(p0,1217.248,2255.6400000000003, 0), v30, z5, tool0;
MoveL Offs(p0,1177.171,2263.255, 0), v30, z5, tool0;
MoveL Offs(p0,1135.0,2267.0, 0), v30, z5, tool0;
MoveL Offs(p0,1135.0,2267.0, 0), v30, z5, tool0;
MoveL Offs(p0,1119.8620000000003,2267.3930000000005, 0), v30, z5, tool0;
MoveL Offs(p0,1105.0960000000005,2267.3840000000005, 0), v30, z5, tool0;
MoveL Offs(p0,1090.774,2266.991, 0), v30, z5, tool0;
MoveL Offs(p0,1076.968,2266.2320000000004, 0), v30, z5, tool0;
MoveL Offs(p0,1063.75,2265.125, 0), v30, z5, tool0;
MoveL Offs(p0,1051.192,2263.688, 0), v30, z5, tool0;
MoveL Offs(p0,1039.366,2261.939, 0), v30, z5, tool0;
MoveL Offs(p0,1028.344,2259.8959999999997, 0), v30, z5, tool0;
MoveL Offs(p0,1018.1980000000001,2257.577, 0), v30, z5, tool0;
MoveL Offs(p0,1009.0,2255.0, 0), v30, z5, tool0;
MoveL Offs(p0,1009.0,2255.0, 0), v30, z5, tool0;
MoveJ Offs(p0,1262.0,2157.0, 10), v30, z1, tool0;
MoveL Offs(p0,1262.0,2157.0, 0), v30, z5, tool0;
MoveL Offs(p0,1289.2020000000005,2139.5280000000007, 0), v30, z5, tool0;
MoveL Offs(p0,1313.7760000000005,2120.1840000000007, 0), v30, z5, tool0;
MoveL Offs(p0,1335.6739999999998,2099.076, 0), v30, z5, tool0;
MoveL Offs(p0,1354.8480000000002,2076.3120000000004, 0), v30, z5, tool0;
MoveL Offs(p0,1371.25,2052.0, 0), v30, z5, tool0;
MoveL Offs(p0,1384.832,2026.248, 0), v30, z5, tool0;
MoveL Offs(p0,1395.546,1999.164, 0), v30, z5, tool0;
MoveL Offs(p0,1403.344,1970.8560000000002, 0), v30, z5, tool0;
MoveL Offs(p0,1408.1779999999999,1941.432, 0), v30, z5, tool0;
MoveL Offs(p0,1410.0,1911.0, 0), v30, z5, tool0;
MoveL Offs(p0,1410.0,1911.0, 0), v30, z5, tool0;
MoveL Offs(p0,1409.5630000000003,1887.4310000000003, 0), v30, z5, tool0;
MoveL Offs(p0,1408.1840000000004,1865.7280000000005, 0), v30, z5, tool0;
MoveL Offs(p0,1405.7610000000002,1845.597, 0), v30, z5, tool0;
MoveL Offs(p0,1402.192,1826.744, 0), v30, z5, tool0;
MoveL Offs(p0,1397.375,1808.875, 0), v30, z5, tool0;
MoveL Offs(p0,1391.208,1791.6960000000001, 0), v30, z5, tool0;
MoveL Offs(p0,1383.589,1774.913, 0), v30, z5, tool0;
MoveL Offs(p0,1374.4160000000002,1758.232, 0), v30, z5, tool0;
MoveL Offs(p0,1363.587,1741.359, 0), v30, z5, tool0;
MoveL Offs(p0,1351.0,1724.0, 0), v30, z5, tool0;
MoveL Offs(p0,1351.0,1724.0, 0), v30, z5, tool0;
MoveL Offs(p0,1339.792,1709.8880000000001, 0), v30, z5, tool0;
MoveL Offs(p0,1328.2960000000005,1696.9040000000005, 0), v30, z5, tool0;
MoveL Offs(p0,1316.404,1684.9759999999999, 0), v30, z5, tool0;
MoveL Offs(p0,1304.008,1674.0320000000002, 0), v30, z5, tool0;
MoveL Offs(p0,1291.0,1664.0, 0), v30, z5, tool0;
MoveL Offs(p0,1277.272,1654.808, 0), v30, z5, tool0;
MoveL Offs(p0,1262.716,1646.384, 0), v30, z5, tool0;
MoveL Offs(p0,1247.2240000000002,1638.6560000000002, 0), v30, z5, tool0;
MoveL Offs(p0,1230.688,1631.5520000000001, 0), v30, z5, tool0;
MoveL Offs(p0,1213.0,1625.0, 0), v30, z5, tool0;
MoveL Offs(p0,1213.0,1625.0, 0), v30, z5, tool0;
MoveL Offs(p0,1203.2450000000003,1621.8940000000002, 0), v30, z5, tool0;
MoveL Offs(p0,1194.2400000000002,1620.0720000000003, 0), v30, z5, tool0;
MoveL Offs(p0,1184.875,1619.978, 0), v30, z5, tool0;
MoveL Offs(p0,1174.0400000000002,1622.0560000000003, 0), v30, z5, tool0;
MoveL Offs(p0,1160.625,1626.75, 0), v30, z5, tool0;
MoveL Offs(p0,1143.52,1634.504, 0), v30, z5, tool0;
MoveL Offs(p0,1121.615,1645.7620000000002, 0), v30, z5, tool0;
MoveL Offs(p0,1093.8000000000002,1660.9680000000003, 0), v30, z5, tool0;
MoveL Offs(p0,1058.9650000000001,1680.566, 0), v30, z5, tool0;
MoveL Offs(p0,1016.0,1705.0, 0), v30, z5, tool0;
MoveL Offs(p0,1016.0,1705.0, 0), v30, z5, tool0;
MoveL Offs(p0,988.7450000000001,1721.02, 0), v30, z5, tool0;
MoveL Offs(p0,962.9600000000003,1736.5600000000006, 0), v30, z5, tool0;
MoveL Offs(p0,938.9150000000001,1751.4399999999998, 0), v30, z5, tool0;
MoveL Offs(p0,916.8800000000001,1765.4800000000002, 0), v30, z5, tool0;
MoveL Offs(p0,897.125,1778.5, 0), v30, z5, tool0;
MoveL Offs(p0,879.92,1790.32, 0), v30, z5, tool0;
MoveL Offs(p0,865.5350000000001,1800.76, 0), v30, z5, tool0;
MoveL Offs(p0,854.24,1809.6400000000003, 0), v30, z5, tool0;
MoveL Offs(p0,846.3050000000001,1816.78, 0), v30, z5, tool0;
MoveL Offs(p0,842.0,1822.0, 0), v30, z5, tool0;
MoveL Offs(p0,842.0,1822.0, 0), v30, z5, tool0;
MoveL Offs(p0,839.7230000000001,1827.007, 0), v30, z5, tool0;
MoveL Offs(p0,837.7040000000002,1833.0160000000003, 0), v30, z5, tool0;
MoveL Offs(p0,835.9609999999999,1840.0089999999996, 0), v30, z5, tool0;
MoveL Offs(p0,834.5120000000001,1847.9679999999998, 0), v30, z5, tool0;
MoveL Offs(p0,833.375,1856.875, 0), v30, z5, tool0;
MoveL Offs(p0,832.568,1866.712, 0), v30, z5, tool0;
MoveL Offs(p0,832.1089999999999,1877.4610000000002, 0), v30, z5, tool0;
MoveL Offs(p0,832.0160000000001,1889.1040000000003, 0), v30, z5, tool0;
MoveL Offs(p0,832.307,1901.623, 0), v30, z5, tool0;
MoveL Offs(p0,833.0,1915.0, 0), v30, z5, tool0;
MoveL Offs(p0,833.0,1915.0, 0), v30, z5, tool0;
MoveL Offs(p0,836.267,1948.538, 0), v30, z5, tool0;
MoveL Offs(p0,842.4560000000004,1980.1440000000005, 0), v30, z5, tool0;
MoveL Offs(p0,851.549,2009.8059999999998, 0), v30, z5, tool0;
MoveL Offs(p0,863.528,2037.5120000000002, 0), v30, z5, tool0;
MoveL Offs(p0,878.375,2063.25, 0), v30, z5, tool0;
MoveL Offs(p0,896.0719999999999,2087.0080000000003, 0), v30, z5, tool0;
MoveL Offs(p0,916.601,2108.774, 0), v30, z5, tool0;
MoveL Offs(p0,939.9440000000001,2128.536, 0), v30, z5, tool0;
MoveL Offs(p0,966.0830000000001,2146.282, 0), v30, z5, tool0;
MoveL Offs(p0,995.0,2162.0, 0), v30, z5, tool0;
MoveL Offs(p0,995.0,2162.0, 0), v30, z5, tool0;
MoveL Offs(p0,1010.0990000000002,2169.126, 0), v30, z5, tool0;
MoveL Offs(p0,1023.3920000000003,2174.9680000000008, 0), v30, z5, tool0;
MoveL Offs(p0,1035.473,2179.622, 0), v30, z5, tool0;
MoveL Offs(p0,1046.936,2183.184, 0), v30, z5, tool0;
MoveL Offs(p0,1058.375,2185.75, 0), v30, z5, tool0;
MoveL Offs(p0,1070.384,2187.4159999999997, 0), v30, z5, tool0;
MoveL Offs(p0,1083.557,2188.278, 0), v30, z5, tool0;
MoveL Offs(p0,1098.4880000000003,2188.4320000000002, 0), v30, z5, tool0;
MoveL Offs(p0,1115.7710000000002,2187.974, 0), v30, z5, tool0;
MoveL Offs(p0,1136.0,2187.0, 0), v30, z5, tool0;
MoveL Offs(p0,1136.0,2187.0, 0), v30, z5, tool0;
MoveL Offs(p0,1154.351,2186.0250000000005, 0), v30, z5, tool0;
MoveL Offs(p0,1170.6080000000004,2184.8400000000006, 0), v30, z5, tool0;
MoveL Offs(p0,1185.077,2183.355, 0), v30, z5, tool0;
MoveL Offs(p0,1198.064,2181.4800000000005, 0), v30, z5, tool0;
MoveL Offs(p0,1209.875,2179.125, 0), v30, z5, tool0;
MoveL Offs(p0,1220.816,2176.2, 0), v30, z5, tool0;
MoveL Offs(p0,1231.1930000000002,2172.615, 0), v30, z5, tool0;
MoveL Offs(p0,1241.312,2168.28, 0), v30, z5, tool0;
MoveL Offs(p0,1251.479,2163.105, 0), v30, z5, tool0;
MoveL Offs(p0,1262.0,2157.0, 0), v30, z5, tool0;
MoveL Offs(p0,1262.0,2157.0, 0), v30, z5, tool0;
MoveJ Offs(p0,574.0,1791.0, 10), v30, z1, tool0;
MoveL Offs(p0,574.0,1791.0, 0), v30, z5, tool0;
MoveL Offs(p0,576.635,1785.8050000000003, 0), v30, z5, tool0;
MoveL Offs(p0,579.1200000000002,1779.9200000000005, 0), v30, z5, tool0;
MoveL Offs(p0,581.4250000000001,1773.495, 0), v30, z5, tool0;
MoveL Offs(p0,583.52,1766.6799999999998, 0), v30, z5, tool0;
MoveL Offs(p0,585.375,1759.625, 0), v30, z5, tool0;
MoveL Offs(p0,586.96,1752.48, 0), v30, z5, tool0;
MoveL Offs(p0,588.245,1745.395, 0), v30, z5, tool0;
MoveL Offs(p0,589.2,1738.5200000000002, 0), v30, z5, tool0;
MoveL Offs(p0,589.7950000000001,1732.005, 0), v30, z5, tool0;
MoveL Offs(p0,590.0,1726.0, 0), v30, z5, tool0;
MoveL Offs(p0,590.0,1726.0, 0), v30, z5, tool0;
MoveL Offs(p0,590.133,1717.669, 0), v30, z5, tool0;
MoveL Offs(p0,590.5840000000001,1710.5920000000006, 0), v30, z5, tool0;
MoveL Offs(p0,591.431,1704.6429999999998, 0), v30, z5, tool0;
MoveL Offs(p0,592.7520000000001,1699.6960000000001, 0), v30, z5, tool0;
MoveL Offs(p0,594.625,1695.625, 0), v30, z5, tool0;
MoveL Offs(p0,597.128,1692.304, 0), v30, z5, tool0;
MoveL Offs(p0,600.3389999999999,1689.607, 0), v30, z5, tool0;
MoveL Offs(p0,604.336,1687.4080000000001, 0), v30, z5, tool0;
MoveL Offs(p0,609.197,1685.5810000000001, 0), v30, z5, tool0;
MoveL Offs(p0,615.0,1684.0, 0), v30, z5, tool0;
MoveL Offs(p0,615.0,1684.0, 0), v30, z5, tool0;
MoveL Offs(p0,621.578,1681.8700000000003, 0), v30, z5, tool0;
MoveL Offs(p0,627.4240000000001,1679.2000000000005, 0), v30, z5, tool0;
MoveL Offs(p0,632.406,1676.1699999999998, 0), v30, z5, tool0;
MoveL Offs(p0,636.392,1672.9600000000003, 0), v30, z5, tool0;
MoveL Offs(p0,639.25,1669.75, 0), v30, z5, tool0;
MoveL Offs(p0,640.848,1666.72, 0), v30, z5, tool0;
MoveL Offs(p0,641.054,1664.05, 0), v30, z5, tool0;
MoveL Offs(p0,639.7360000000001,1661.92, 0), v30, z5, tool0;
MoveL Offs(p0,636.7620000000001,1660.51, 0), v30, z5, tool0;
MoveL Offs(p0,632.0,1660.0, 0), v30, z5, tool0;
MoveL Offs(p0,632.0,1660.0, 0), v30, z5, tool0;
MoveL Offs(p0,624.118,1658.2470000000003, 0), v30, z5, tool0;
MoveL Offs(p0,613.464,1653.2960000000005, 0), v30, z5, tool0;
MoveL Offs(p0,600.626,1645.6090000000002, 0), v30, z5, tool0;
MoveL Offs(p0,586.1920000000001,1635.6480000000001, 0), v30, z5, tool0;
MoveL Offs(p0,570.75,1623.875, 0), v30, z5, tool0;
MoveL Offs(p0,554.8879999999999,1610.752, 0), v30, z5, tool0;
MoveL Offs(p0,539.194,1596.741, 0), v30, z5, tool0;
MoveL Offs(p0,524.2560000000001,1582.304, 0), v30, z5, tool0;
MoveL Offs(p0,510.66200000000003,1567.9030000000002, 0), v30, z5, tool0;
MoveL Offs(p0,499.0,1554.0, 0), v30, z5, tool0;
MoveL Offs(p0,499.0,1554.0, 0), v30, z5, tool0;
MoveL Offs(p0,462.2190000000001,1497.6580000000001, 0), v30, z5, tool0;
MoveL Offs(p0,437.43200000000013,1437.1040000000003, 0), v30, z5, tool0;
MoveL Offs(p0,424.273,1373.946, 0), v30, z5, tool0;
MoveL Offs(p0,422.37600000000003,1309.792, 0), v30, z5, tool0;
MoveL Offs(p0,431.375,1246.25, 0), v30, z5, tool0;
MoveL Offs(p0,450.90400000000005,1184.9279999999999, 0), v30, z5, tool0;
MoveL Offs(p0,480.597,1127.434, 0), v30, z5, tool0;
MoveL Offs(p0,520.0880000000001,1075.3760000000002, 0), v30, z5, tool0;
MoveL Offs(p0,569.0110000000001,1030.362, 0), v30, z5, tool0;
MoveL Offs(p0,627.0,994.0, 0), v30, z5, tool0;
MoveL Offs(p0,627.0,994.0, 0), v30, z5, tool0;
MoveL Offs(p0,641.8240000000001,986.6270000000001, 0), v30, z5, tool0;
MoveL Offs(p0,654.9920000000002,980.6160000000002, 0), v30, z5, tool0;
MoveL Offs(p0,667.2479999999999,975.829, 0), v30, z5, tool0;
MoveL Offs(p0,679.3360000000001,972.1279999999999, 0), v30, z5, tool0;
MoveL Offs(p0,692.0,969.375, 0), v30, z5, tool0;
MoveL Offs(p0,705.9839999999999,967.432, 0), v30, z5, tool0;
MoveL Offs(p0,722.032,966.1610000000001, 0), v30, z5, tool0;
MoveL Offs(p0,740.8880000000001,965.424, 0), v30, z5, tool0;
MoveL Offs(p0,763.296,965.0830000000001, 0), v30, z5, tool0;
MoveL Offs(p0,790.0,965.0, 0), v30, z5, tool0;
MoveL Offs(p0,790.0,965.0, 0), v30, z5, tool0;
MoveL Offs(p0,814.1280000000002,965.4000000000002, 0), v30, z5, tool0;
MoveL Offs(p0,835.1840000000002,966.0400000000002, 0), v30, z5, tool0;
MoveL Offs(p0,853.5759999999999,966.98, 0), v30, z5, tool0;
MoveL Offs(p0,869.712,968.2800000000001, 0), v30, z5, tool0;
MoveL Offs(p0,884.0,970.0, 0), v30, z5, tool0;
MoveL Offs(p0,896.8480000000001,972.1999999999999, 0), v30, z5, tool0;
MoveL Offs(p0,908.664,974.9399999999999, 0), v30, z5, tool0;
MoveL Offs(p0,919.856,978.2800000000001, 0), v30, z5, tool0;
MoveL Offs(p0,930.832,982.2800000000001, 0), v30, z5, tool0;
MoveL Offs(p0,942.0,987.0, 0), v30, z5, tool0;
MoveL Offs(p0,942.0,987.0, 0), v30, z5, tool0;
MoveL Offs(p0,958.7370000000001,995.6440000000002, 0), v30, z5, tool0;
MoveL Offs(p0,976.2960000000003,1006.3520000000003, 0), v30, z5, tool0;
MoveL Offs(p0,994.2989999999999,1018.788, 0), v30, z5, tool0;
MoveL Offs(p0,1012.368,1032.616, 0), v30, z5, tool0;
MoveL Offs(p0,1030.125,1047.5, 0), v30, z5, tool0;
MoveL Offs(p0,1047.192,1063.104, 0), v30, z5, tool0;
MoveL Offs(p0,1063.191,1079.092, 0), v30, z5, tool0;
MoveL Offs(p0,1077.7440000000001,1095.1280000000002, 0), v30, z5, tool0;
MoveL Offs(p0,1090.4730000000002,1110.8760000000002, 0), v30, z5, tool0;
MoveL Offs(p0,1101.0,1126.0, 0), v30, z5, tool0;
MoveL Offs(p0,1122.0,1160.0, 0), v30, z5, tool0;
MoveL Offs(p0,1153.0,1113.0, 0), v30, z5, tool0;
MoveL Offs(p0,1153.0,1113.0, 0), v30, z5, tool0;
MoveL Offs(p0,1165.594,1095.6950000000002, 0), v30, z5, tool0;
MoveL Offs(p0,1179.3520000000003,1079.2, 0), v30, z5, tool0;
MoveL Offs(p0,1194.238,1063.5449999999998, 0), v30, z5, tool0;
MoveL Offs(p0,1210.2160000000001,1048.76, 0), v30, z5, tool0;
MoveL Offs(p0,1227.25,1034.875, 0), v30, z5, tool0;
MoveL Offs(p0,1245.304,1021.9200000000001, 0), v30, z5, tool0;
MoveL Offs(p0,1264.3419999999999,1009.925, 0), v30, z5, tool0;
MoveL Offs(p0,1284.328,998.9200000000001, 0), v30, z5, tool0;
MoveL Offs(p0,1305.226,988.935, 0), v30, z5, tool0;
MoveL Offs(p0,1327.0,980.0, 0), v30, z5, tool0;
MoveL Offs(p0,1327.0,980.0, 0), v30, z5, tool0;
MoveL Offs(p0,1352.231,972.046, 0), v30, z5, tool0;
MoveL Offs(p0,1379.5680000000007,966.1680000000002, 0), v30, z5, tool0;
MoveL Offs(p0,1408.477,962.342, 0), v30, z5, tool0;
MoveL Offs(p0,1438.424,960.5440000000001, 0), v30, z5, tool0;
MoveL Offs(p0,1468.875,960.75, 0), v30, z5, tool0;
MoveL Offs(p0,1499.296,962.9359999999999, 0), v30, z5, tool0;
MoveL Offs(p0,1529.153,967.078, 0), v30, z5, tool0;
MoveL Offs(p0,1557.912,973.152, 0), v30, z5, tool0;
MoveL Offs(p0,1585.039,981.134, 0), v30, z5, tool0;
MoveL Offs(p0,1610.0,991.0, 0), v30, z5, tool0;
MoveL Offs(p0,1610.0,991.0, 0), v30, z5, tool0;
MoveL Offs(p0,1631.131,1001.8710000000001, 0), v30, z5, tool0;
MoveL Offs(p0,1652.3280000000004,1015.0880000000002, 0), v30, z5, tool0;
MoveL Offs(p0,1673.297,1030.357, 0), v30, z5, tool0;
MoveL Offs(p0,1693.7440000000001,1047.384, 0), v30, z5, tool0;
MoveL Offs(p0,1713.375,1065.875, 0), v30, z5, tool0;
MoveL Offs(p0,1731.896,1085.536, 0), v30, z5, tool0;
MoveL Offs(p0,1749.013,1106.073, 0), v30, z5, tool0;
MoveL Offs(p0,1764.4320000000002,1127.192, 0), v30, z5, tool0;
MoveL Offs(p0,1777.8590000000002,1148.599, 0), v30, z5, tool0;
MoveL Offs(p0,1789.0,1170.0, 0), v30, z5, tool0;
MoveL Offs(p0,1789.0,1170.0, 0), v30, z5, tool0;
MoveL Offs(p0,1795.3170000000005,1183.656, 0), v30, z5, tool0;
MoveL Offs(p0,1800.5360000000003,1196.2080000000003, 0), v30, z5, tool0;
MoveL Offs(p0,1804.759,1208.232, 0), v30, z5, tool0;
MoveL Offs(p0,1808.0880000000002,1220.304, 0), v30, z5, tool0;
MoveL Offs(p0,1810.625,1233.0, 0), v30, z5, tool0;
MoveL Offs(p0,1812.472,1246.896, 0), v30, z5, tool0;
MoveL Offs(p0,1813.7309999999998,1262.568, 0), v30, z5, tool0;
MoveL Offs(p0,1814.5040000000001,1280.592, 0), v30, z5, tool0;
MoveL Offs(p0,1814.893,1301.544, 0), v30, z5, tool0;
MoveL Offs(p0,1815.0,1326.0, 0), v30, z5, tool0;
MoveL Offs(p0,1815.0,1326.0, 0), v30, z5, tool0;
MoveL Offs(p0,1814.9110000000003,1352.332, 0), v30, z5, tool0;
MoveL Offs(p0,1814.5280000000005,1374.2960000000003, 0), v30, z5, tool0;
MoveL Offs(p0,1813.6769999999997,1392.744, 0), v30, z5, tool0;
MoveL Offs(p0,1812.184,1408.528, 0), v30, z5, tool0;
MoveL Offs(p0,1809.875,1422.5, 0), v30, z5, tool0;
MoveL Offs(p0,1806.5760000000002,1435.5120000000002, 0), v30, z5, tool0;
MoveL Offs(p0,1802.113,1448.416, 0), v30, z5, tool0;
MoveL Offs(p0,1796.3120000000001,1462.0640000000003, 0), v30, z5, tool0;
MoveL Offs(p0,1788.999,1477.3080000000002, 0), v30, z5, tool0;
MoveL Offs(p0,1780.0,1495.0, 0), v30, z5, tool0;
MoveL Offs(p0,1780.0,1495.0, 0), v30, z5, tool0;
MoveL Offs(p0,1774.285,1506.1960000000004, 0), v30, z5, tool0;
MoveL Offs(p0,1768.6000000000004,1516.8880000000004, 0), v30, z5, tool0;
MoveL Offs(p0,1763.0349999999999,1526.9319999999998, 0), v30, z5, tool0;
MoveL Offs(p0,1757.68,1536.1840000000002, 0), v30, z5, tool0;
MoveL Offs(p0,1752.625,1544.5, 0), v30, z5, tool0;
MoveL Offs(p0,1747.96,1551.736, 0), v30, z5, tool0;
MoveL Offs(p0,1743.7749999999996,1557.748, 0), v30, z5, tool0;
MoveL Offs(p0,1740.16,1562.3920000000003, 0), v30, z5, tool0;
MoveL Offs(p0,1737.205,1565.524, 0), v30, z5, tool0;
MoveL Offs(p0,1735.0,1567.0, 0), v30, z5, tool0;
MoveL Offs(p0,1735.0,1567.0, 0), v30, z5, tool0;
MoveL Offs(p0,1733.2720000000002,1566.8600000000004, 0), v30, z5, tool0;
MoveL Offs(p0,1731.1360000000004,1565.8800000000003, 0), v30, z5, tool0;
MoveL Offs(p0,1728.6639999999998,1564.1200000000001, 0), v30, z5, tool0;
MoveL Offs(p0,1725.9280000000003,1561.64, 0), v30, z5, tool0;
MoveL Offs(p0,1723.0,1558.5, 0), v30, z5, tool0;
MoveL Offs(p0,1719.952,1554.76, 0), v30, z5, tool0;
MoveL Offs(p0,1716.8559999999998,1550.48, 0), v30, z5, tool0;
MoveL Offs(p0,1713.784,1545.7200000000003, 0), v30, z5, tool0;
MoveL Offs(p0,1710.808,1540.54, 0), v30, z5, tool0;
MoveL Offs(p0,1708.0,1535.0, 0), v30, z5, tool0;
MoveL Offs(p0,1708.0,1535.0, 0), v30, z5, tool0;
MoveL Offs(p0,1703.412,1525.9420000000002, 0), v30, z5, tool0;
MoveL Offs(p0,1699.8560000000004,1518.3360000000002, 0), v30, z5, tool0;
MoveL Offs(p0,1697.344,1511.8339999999998, 0), v30, z5, tool0;
MoveL Offs(p0,1695.8880000000001,1506.088, 0), v30, z5, tool0;
MoveL Offs(p0,1695.5,1500.75, 0), v30, z5, tool0;
MoveL Offs(p0,1696.192,1495.472, 0), v30, z5, tool0;
MoveL Offs(p0,1697.976,1489.906, 0), v30, z5, tool0;
MoveL Offs(p0,1700.864,1483.7040000000002, 0), v30, z5, tool0;
MoveL Offs(p0,1704.868,1476.518, 0), v30, z5, tool0;
MoveL Offs(p0,1710.0,1468.0, 0), v30, z5, tool0;
MoveL Offs(p0,1710.0,1468.0, 0), v30, z5, tool0;
MoveL Offs(p0,1725.8540000000003,1435.1730000000002, 0), v30, z5, tool0;
MoveL Offs(p0,1736.8720000000003,1400.1440000000005, 0), v30, z5, tool0;
MoveL Offs(p0,1743.1379999999997,1363.5910000000001, 0), v30, z5, tool0;
MoveL Offs(p0,1744.736,1326.192, 0), v30, z5, tool0;
MoveL Offs(p0,1741.75,1288.625, 0), v30, z5, tool0;
MoveL Offs(p0,1734.2640000000001,1251.568, 0), v30, z5, tool0;
MoveL Offs(p0,1722.362,1215.699, 0), v30, z5, tool0;
MoveL Offs(p0,1706.1280000000002,1181.6960000000001, 0), v30, z5, tool0;
MoveL Offs(p0,1685.6460000000002,1150.237, 0), v30, z5, tool0;
MoveL Offs(p0,1661.0,1122.0, 0), v30, z5, tool0;
MoveL Offs(p0,1661.0,1122.0, 0), v30, z5, tool0;
MoveL Offs(p0,1611.4270000000001,1081.8400000000001, 0), v30, z5, tool0;
MoveL Offs(p0,1556.9760000000003,1054.6400000000006, 0), v30, z5, tool0;
MoveL Offs(p0,1499.5489999999998,1039.9199999999998, 0), v30, z5, tool0;
MoveL Offs(p0,1441.048,1037.2, 0), v30, z5, tool0;
MoveL Offs(p0,1383.375,1046.0, 0), v30, z5, tool0;
MoveL Offs(p0,1328.432,1065.84, 0), v30, z5, tool0;
MoveL Offs(p0,1278.1209999999999,1096.24, 0), v30, z5, tool0;
MoveL Offs(p0,1234.344,1136.72, 0), v30, z5, tool0;
MoveL Offs(p0,1199.0030000000002,1186.8, 0), v30, z5, tool0;
MoveL Offs(p0,1174.0,1246.0, 0), v30, z5, tool0;
MoveL Offs(p0,1174.0,1246.0, 0), v30, z5, tool0;
MoveL Offs(p0,1169.38,1263.5070000000003, 0), v30, z5, tool0;
MoveL Offs(p0,1165.7200000000003,1281.6560000000004, 0), v30, z5, tool0;
MoveL Offs(p0,1163.0199999999998,1300.189, 0), v30, z5, tool0;
MoveL Offs(p0,1161.28,1318.8480000000002, 0), v30, z5, tool0;
MoveL Offs(p0,1160.5,1337.375, 0), v30, z5, tool0;
MoveL Offs(p0,1160.68,1355.512, 0), v30, z5, tool0;
MoveL Offs(p0,1161.82,1373.001, 0), v30, z5, tool0;
MoveL Offs(p0,1163.92,1389.584, 0), v30, z5, tool0;
MoveL Offs(p0,1166.98,1405.003, 0), v30, z5, tool0;
MoveL Offs(p0,1171.0,1419.0, 0), v30, z5, tool0;
MoveL Offs(p0,1171.0,1419.0, 0), v30, z5, tool0;
MoveL Offs(p0,1174.659,1430.7340000000002, 0), v30, z5, tool0;
MoveL Offs(p0,1176.2720000000004,1441.1120000000005, 0), v30, z5, tool0;
MoveL Offs(p0,1175.293,1450.698, 0), v30, z5, tool0;
MoveL Offs(p0,1171.1760000000002,1460.056, 0), v30, z5, tool0;
MoveL Offs(p0,1163.375,1469.75, 0), v30, z5, tool0;
MoveL Offs(p0,1151.344,1480.344, 0), v30, z5, tool0;
MoveL Offs(p0,1134.537,1492.402, 0), v30, z5, tool0;
MoveL Offs(p0,1112.4080000000001,1506.4880000000003, 0), v30, z5, tool0;
MoveL Offs(p0,1084.411,1523.1660000000002, 0), v30, z5, tool0;
MoveL Offs(p0,1050.0,1543.0, 0), v30, z5, tool0;
MoveL Offs(p0,1050.0,1543.0, 0), v30, z5, tool0;
MoveL Offs(p0,1032.4840000000002,1553.0600000000002, 0), v30, z5, tool0;
MoveL Offs(p0,1011.5120000000004,1565.0400000000002, 0), v30, z5, tool0;
MoveL Offs(p0,987.6479999999999,1578.64, 0), v30, z5, tool0;
MoveL Offs(p0,961.456,1593.5600000000002, 0), v30, z5, tool0;
MoveL Offs(p0,933.5,1609.5, 0), v30, z5, tool0;
MoveL Offs(p0,904.3439999999999,1626.16, 0), v30, z5, tool0;
MoveL Offs(p0,874.5519999999999,1643.24, 0), v30, z5, tool0;
MoveL Offs(p0,844.6880000000001,1660.44, 0), v30, z5, tool0;
MoveL Offs(p0,815.316,1677.46, 0), v30, z5, tool0;
MoveL Offs(p0,787.0,1694.0, 0), v30, z5, tool0;
MoveL Offs(p0,787.0,1694.0, 0), v30, z5, tool0;
MoveL Offs(p0,759.2890000000002,1709.7720000000002, 0), v30, z5, tool0;
MoveL Offs(p0,732.2320000000002,1725.1360000000006, 0), v30, z5, tool0;
MoveL Offs(p0,706.2429999999999,1739.8639999999998, 0), v30, z5, tool0;
MoveL Offs(p0,681.7360000000001,1753.728, 0), v30, z5, tool0;
MoveL Offs(p0,659.125,1766.5, 0), v30, z5, tool0;
MoveL Offs(p0,638.824,1777.952, 0), v30, z5, tool0;
MoveL Offs(p0,621.247,1787.8559999999998, 0), v30, z5, tool0;
MoveL Offs(p0,606.808,1795.9840000000002, 0), v30, z5, tool0;
MoveL Offs(p0,595.921,1802.108, 0), v30, z5, tool0;
MoveL Offs(p0,589.0,1806.0, 0), v30, z5, tool0;
MoveL Offs(p0,559.0,1821.0, 0), v30, z5, tool0;
MoveL Offs(p0,574.0,1791.0, 0), v30, z5, tool0;
MoveL Offs(p0,574.0,1791.0, 0), v30, z5, tool0;
MoveJ Offs(p0,903.0,1519.0, 10), v30, z1, tool0;
MoveL Offs(p0,903.0,1519.0, 0), v30, z5, tool0;
MoveL Offs(p0,949.9950000000001,1491.699, 0), v30, z5, tool0;
MoveL Offs(p0,987.8400000000003,1469.0720000000003, 0), v30, z5, tool0;
MoveL Offs(p0,1017.5249999999999,1450.033, 0), v30, z5, tool0;
MoveL Offs(p0,1040.0400000000002,1433.496, 0), v30, z5, tool0;
MoveL Offs(p0,1056.375,1418.375, 0), v30, z5, tool0;
MoveL Offs(p0,1067.52,1403.584, 0), v30, z5, tool0;
MoveL Offs(p0,1074.465,1388.0369999999998, 0), v30, z5, tool0;
MoveL Offs(p0,1078.2000000000003,1370.6480000000001, 0), v30, z5, tool0;
MoveL Offs(p0,1079.715,1350.3310000000001, 0), v30, z5, tool0;
MoveL Offs(p0,1080.0,1326.0, 0), v30, z5, tool0;
MoveL Offs(p0,1080.0,1326.0, 0), v30, z5, tool0;
MoveL Offs(p0,1072.949,1262.0020000000002, 0), v30, z5, tool0;
MoveL Offs(p0,1052.9920000000004,1203.8960000000004, 0), v30, z5, tool0;
MoveL Offs(p0,1021.923,1152.714, 0), v30, z5, tool0;
MoveL Offs(p0,981.5360000000001,1109.488, 0), v30, z5, tool0;
MoveL Offs(p0,933.625,1075.25, 0), v30, z5, tool0;
MoveL Offs(p0,879.9839999999999,1051.032, 0), v30, z5, tool0;
MoveL Offs(p0,822.4069999999999,1037.866, 0), v30, z5, tool0;
MoveL Offs(p0,762.688,1036.784, 0), v30, z5, tool0;
MoveL Offs(p0,702.621,1048.818, 0), v30, z5, tool0;
MoveL Offs(p0,644.0,1075.0, 0), v30, z5, tool0;
MoveL Offs(p0,644.0,1075.0, 0), v30, z5, tool0;
MoveL Offs(p0,599.12,1107.561, 0), v30, z5, tool0;
MoveL Offs(p0,562.4000000000002,1146.7280000000003, 0), v30, z5, tool0;
MoveL Offs(p0,534.02,1191.127, 0), v30, z5, tool0;
MoveL Offs(p0,514.16,1239.384, 0), v30, z5, tool0;
MoveL Offs(p0,503.0,1290.125, 0), v30, z5, tool0;
MoveL Offs(p0,500.71999999999997,1341.976, 0), v30, z5, tool0;
MoveL Offs(p0,507.5,1393.563, 0), v30, z5, tool0;
MoveL Offs(p0,523.5200000000001,1443.5120000000002, 0), v30, z5, tool0;
MoveL Offs(p0,548.96,1490.449, 0), v30, z5, tool0;
MoveL Offs(p0,584.0,1533.0, 0), v30, z5, tool0;
MoveL Offs(p0,584.0,1533.0, 0), v30, z5, tool0;
MoveL Offs(p0,596.1020000000002,1544.1470000000002, 0), v30, z5, tool0;
MoveL Offs(p0,609.8960000000002,1555.2160000000003, 0), v30, z5, tool0;
MoveL Offs(p0,624.914,1565.9489999999998, 0), v30, z5, tool0;
MoveL Offs(p0,640.688,1576.0880000000002, 0), v30, z5, tool0;
MoveL Offs(p0,656.75,1585.375, 0), v30, z5, tool0;
MoveL Offs(p0,672.6320000000001,1593.5520000000001, 0), v30, z5, tool0;
MoveL Offs(p0,687.866,1600.3609999999999, 0), v30, z5, tool0;
MoveL Offs(p0,701.9840000000002,1605.544, 0), v30, z5, tool0;
MoveL Offs(p0,714.518,1608.843, 0), v30, z5, tool0;
MoveL Offs(p0,725.0,1610.0, 0), v30, z5, tool0;
MoveL Offs(p0,725.0,1610.0, 0), v30, z5, tool0;
MoveL Offs(p0,730.3080000000001,1608.8020000000001, 0), v30, z5, tool0;
MoveL Offs(p0,739.3840000000002,1605.3360000000005, 0), v30, z5, tool0;
MoveL Offs(p0,751.856,1599.7939999999999, 0), v30, z5, tool0;
MoveL Offs(p0,767.3520000000001,1592.3680000000002, 0), v30, z5, tool0;
MoveL Offs(p0,785.5,1583.25, 0), v30, z5, tool0;
MoveL Offs(p0,805.928,1572.632, 0), v30, z5, tool0;
MoveL Offs(p0,828.2639999999999,1560.7060000000001, 0), v30, z5, tool0;
MoveL Offs(p0,852.1360000000001,1547.6640000000002, 0), v30, z5, tool0;
MoveL Offs(p0,877.172,1533.698, 0), v30, z5, tool0;
MoveL Offs(p0,903.0,1519.0, 0), v30, z5, tool0;
MoveL Offs(p0,903.0,1519.0, 0), v30, z5, tool0;
MoveJ Offs(p0,60.0,492.0, 10), v30, z1, tool0;
MoveL Offs(p0,60.0,492.0, 0), v30, z5, tool0;
MoveL Offs(p0,60.053000000000004,440.32400000000007, 0), v30, z5, tool0;
MoveL Offs(p0,60.304000000000016,398.39200000000005, 0), v30, z5, tool0;
MoveL Offs(p0,60.891,364.848, 0), v30, z5, tool0;
MoveL Offs(p0,61.952,338.33600000000007, 0), v30, z5, tool0;
MoveL Offs(p0,63.625,317.5, 0), v30, z5, tool0;
MoveL Offs(p0,66.048,300.984, 0), v30, z5, tool0;
MoveL Offs(p0,69.359,287.432, 0), v30, z5, tool0;
MoveL Offs(p0,73.69600000000001,275.48800000000006, 0), v30, z5, tool0;
MoveL Offs(p0,79.197,263.796, 0), v30, z5, tool0;
MoveL Offs(p0,86.0,251.0, 0), v30, z5, tool0;
MoveL Offs(p0,86.0,251.0, 0), v30, z5, tool0;
MoveL Offs(p0,95.47900000000001,234.87400000000002, 0), v30, z5, tool0;
MoveL Offs(p0,105.43200000000003,220.63200000000003, 0), v30, z5, tool0;
MoveL Offs(p0,116.033,208.178, 0), v30, z5, tool0;
MoveL Offs(p0,127.45600000000002,197.416, 0), v30, z5, tool0;
MoveL Offs(p0,139.875,188.25, 0), v30, z5, tool0;
MoveL Offs(p0,153.46400000000003,180.584, 0), v30, z5, tool0;
MoveL Offs(p0,168.397,174.322, 0), v30, z5, tool0;
MoveL Offs(p0,184.848,169.368, 0), v30, z5, tool0;
MoveL Offs(p0,202.99099999999999,165.626, 0), v30, z5, tool0;
MoveL Offs(p0,223.0,163.0, 0), v30, z5, tool0;
MoveL Offs(p0,223.0,163.0, 0), v30, z5, tool0;
MoveL Offs(p0,253.39200000000002,161.423, 0), v30, z5, tool0;
MoveL Offs(p0,282.0560000000001,163.22400000000005, 0), v30, z5, tool0;
MoveL Offs(p0,308.824,168.30099999999996, 0), v30, z5, tool0;
MoveL Offs(p0,333.528,176.552, 0), v30, z5, tool0;
MoveL Offs(p0,356.0,187.875, 0), v30, z5, tool0;
MoveL Offs(p0,376.072,202.168, 0), v30, z5, tool0;
MoveL Offs(p0,393.576,219.329, 0), v30, z5, tool0;
MoveL Offs(p0,408.34400000000005,239.25600000000003, 0), v30, z5, tool0;
MoveL Offs(p0,420.208,261.847, 0), v30, z5, tool0;
MoveL Offs(p0,429.0,287.0, 0), v30, z5, tool0;
MoveL Offs(p0,429.0,287.0, 0), v30, z5, tool0;
MoveL Offs(p0,430.766,295.505, 0), v30, z5, tool0;
MoveL Offs(p0,432.4480000000001,308.12000000000006, 0), v30, z5, tool0;
MoveL Offs(p0,434.022,324.395, 0), v30, z5, tool0;
MoveL Offs(p0,435.46400000000006,343.88, 0), v30, z5, tool0;
MoveL Offs(p0,436.75,366.125, 0), v30, z5, tool0;
MoveL Offs(p0,437.856,390.68000000000006, 0), v30, z5, tool0;
MoveL Offs(p0,438.75800000000004,417.095, 0), v30, z5, tool0;
MoveL Offs(p0,439.432,444.9200000000001, 0), v30, z5, tool0;
MoveL Offs(p0,439.85400000000004,473.70500000000004, 0), v30, z5, tool0;
MoveL Offs(p0,440.0,503.0, 0), v30, z5, tool0;
MoveL Offs(p0,440.0,680.0, 0), v30, z5, tool0;
MoveL Offs(p0,405.0,680.0, 0), v30, z5, tool0;
MoveL Offs(p0,370.0,680.0, 0), v30, z5, tool0;
MoveL Offs(p0,370.0,505.0, 0), v30, z5, tool0;
MoveL Offs(p0,370.0,505.0, 0), v30, z5, tool0;
MoveL Offs(p0,369.72300000000007,450.358, 0), v30, z5, tool0;
MoveL Offs(p0,368.7440000000001,404.5840000000001, 0), v30, z5, tool0;
MoveL Offs(p0,366.84099999999995,366.70599999999996, 0), v30, z5, tool0;
MoveL Offs(p0,363.79200000000003,335.752, 0), v30, z5, tool0;
MoveL Offs(p0,359.375,310.75, 0), v30, z5, tool0;
MoveL Offs(p0,353.36799999999994,290.728, 0), v30, z5, tool0;
MoveL Offs(p0,345.549,274.714, 0), v30, z5, tool0;
MoveL Offs(p0,335.696,261.736, 0), v30, z5, tool0;
MoveL Offs(p0,323.587,250.822, 0), v30, z5, tool0;
MoveL Offs(p0,309.0,241.0, 0), v30, z5, tool0;
MoveL Offs(p0,309.0,241.0, 0), v30, z5, tool0;
MoveL Offs(p0,296.3620000000001,234.667, 0), v30, z5, tool0;
MoveL Offs(p0,282.65600000000006,230.05600000000007, 0), v30, z5, tool0;
MoveL Offs(p0,268.194,227.149, 0), v30, z5, tool0;
MoveL Offs(p0,253.288,225.92800000000003, 0), v30, z5, tool0;
MoveL Offs(p0,238.25,226.375, 0), v30, z5, tool0;
MoveL Offs(p0,223.39199999999997,228.47199999999998, 0), v30, z5, tool0;
MoveL Offs(p0,209.02599999999998,232.201, 0), v30, z5, tool0;
MoveL Offs(p0,195.464,237.54400000000004, 0), v30, z5, tool0;
MoveL Offs(p0,183.018,244.483, 0), v30, z5, tool0;
MoveL Offs(p0,172.0,253.0, 0), v30, z5, tool0;
MoveL Offs(p0,172.0,253.0, 0), v30, z5, tool0;
MoveL Offs(p0,162.562,263.14000000000004, 0), v30, z5, tool0;
MoveL Offs(p0,154.57600000000005,274.8400000000001, 0), v30, z5, tool0;
MoveL Offs(p0,147.93399999999997,288.82000000000005, 0), v30, z5, tool0;
MoveL Offs(p0,142.528,305.8, 0), v30, z5, tool0;
MoveL Offs(p0,138.25,326.5, 0), v30, z5, tool0;
MoveL Offs(p0,134.992,351.64, 0), v30, z5, tool0;
MoveL Offs(p0,132.646,381.94000000000005, 0), v30, z5, tool0;
MoveL Offs(p0,131.104,418.12000000000006, 0), v30, z5, tool0;
MoveL Offs(p0,130.258,460.90000000000003, 0), v30, z5, tool0;
MoveL Offs(p0,130.0,511.0, 0), v30, z5, tool0;
MoveL Offs(p0,130.0,678.0, 0), v30, z5, tool0;
MoveL Offs(p0,95.0,682.0, 0), v30, z5, tool0;
MoveL Offs(p0,60.0,686.0, 0), v30, z5, tool0;
MoveL Offs(p0,60.0,492.0, 0), v30, z5, tool0;
MoveL Offs(p0,60.0,492.0, 0), v30, z5, tool0;
MoveJ Offs(p0,570.0,425.0, 10), v30, z1, tool0;
MoveL Offs(p0,570.0,170.0, 0), v30, z5, tool0;
MoveL Offs(p0,610.0,170.0, 0), v30, z5, tool0;
MoveL Offs(p0,650.0,170.0, 0), v30, z5, tool0;
MoveL Offs(p0,650.0,285.0, 0), v30, z5, tool0;
MoveL Offs(p0,650.0,400.0, 0), v30, z5, tool0;
MoveL Offs(p0,740.0,400.0, 0), v30, z5, tool0;
MoveL Offs(p0,740.0,400.0, 0), v30, z5, tool0;
MoveL Offs(p0,764.147,400.02500000000003, 0), v30, z5, tool0;
MoveL Offs(p0,783.5360000000003,400.2000000000001, 0), v30, z5, tool0;
MoveL Offs(p0,798.6889999999999,400.675, 0), v30, z5, tool0;
MoveL Offs(p0,810.128,401.59999999999997, 0), v30, z5, tool0;
MoveL Offs(p0,818.375,403.125, 0), v30, z5, tool0;
MoveL Offs(p0,823.952,405.4, 0), v30, z5, tool0;
MoveL Offs(p0,827.381,408.575, 0), v30, z5, tool0;
MoveL Offs(p0,829.1840000000001,412.80000000000007, 0), v30, z5, tool0;
MoveL Offs(p0,829.883,418.225, 0), v30, z5, tool0;
MoveL Offs(p0,830.0,425.0, 0), v30, z5, tool0;
MoveL Offs(p0,830.0,425.0, 0), v30, z5, tool0;
MoveL Offs(p0,829.9710000000001,429.1910000000001, 0), v30, z5, tool0;
MoveL Offs(p0,829.8880000000003,433.3280000000001, 0), v30, z5, tool0;
MoveL Offs(p0,829.7570000000001,437.35699999999997, 0), v30, z5, tool0;
MoveL Offs(p0,829.5840000000001,441.22400000000005, 0), v30, z5, tool0;
MoveL Offs(p0,829.375,444.875, 0), v30, z5, tool0;
MoveL Offs(p0,829.136,448.25600000000003, 0), v30, z5, tool0;
MoveL Offs(p0,828.873,451.313, 0), v30, z5, tool0;
MoveL Offs(p0,828.5920000000001,453.9920000000001, 0), v30, z5, tool0;
MoveL Offs(p0,828.299,456.23900000000003, 0), v30, z5, tool0;
MoveL Offs(p0,828.0,458.0, 0), v30, z5, tool0;
MoveL Offs(p0,828.0,458.0, 0), v30, z5, tool0;
MoveL Offs(p0,826.2900000000002,459.11000000000007, 0), v30, z5, tool0;
MoveL Offs(p0,822.4800000000001,460.04000000000013, 0), v30, z5, tool0;
MoveL Offs(p0,816.7500000000001,460.78999999999996, 0), v30, z5, tool0;
MoveL Offs(p0,809.2800000000001,461.36, 0), v30, z5, tool0;
MoveL Offs(p0,800.25,461.75, 0), v30, z5, tool0;
MoveL Offs(p0,789.8400000000001,461.9599999999999, 0), v30, z5, tool0;
MoveL Offs(p0,778.23,461.99, 0), v30, z5, tool0;
MoveL Offs(p0,765.6000000000001,461.84000000000003, 0), v30, z5, tool0;
MoveL Offs(p0,752.13,461.51, 0), v30, z5, tool0;
MoveL Offs(p0,738.0,461.0, 0), v30, z5, tool0;
MoveL Offs(p0,650.0,458.0, 0), v30, z5, tool0;
MoveL Offs(p0,650.0,539.0, 0), v30, z5, tool0;
MoveL Offs(p0,650.0,620.0, 0), v30, z5, tool0;
MoveL Offs(p0,745.0,620.0, 0), v30, z5, tool0;
MoveL Offs(p0,840.0,620.0, 0), v30, z5, tool0;
MoveL Offs(p0,840.0,650.0, 0), v30, z5, tool0;
MoveL Offs(p0,840.0,680.0, 0), v30, z5, tool0;
MoveL Offs(p0,705.0,680.0, 0), v30, z5, tool0;
MoveL Offs(p0,570.0,680.0, 0), v30, z5, tool0;
MoveL Offs(p0,570.0,425.0, 0), v30, z5, tool0;
MoveL Offs(p0,570.0,425.0, 0), v30, z5, tool0;
MoveJ Offs(p0,970.0,438.0, 10), v30, z1, tool0;
MoveL Offs(p0,970.0,438.0, 0), v30, z5, tool0;
MoveL Offs(p0,954.6470000000002,399.0, 0), v30, z5, tool0;
MoveL Offs(p0,939.9360000000003,361.5600000000001, 0), v30, z5, tool0;
MoveL Offs(p0,926.089,326.2199999999999, 0), v30, z5, tool0;
MoveL Offs(p0,913.328,293.52, 0), v30, z5, tool0;
MoveL Offs(p0,901.875,264.0, 0), v30, z5, tool0;
MoveL Offs(p0,891.952,238.2, 0), v30, z5, tool0;
MoveL Offs(p0,883.781,216.65999999999997, 0), v30, z5, tool0;
MoveL Offs(p0,877.5840000000001,199.92000000000002, 0), v30, z5, tool0;
MoveL Offs(p0,873.5830000000001,188.52, 0), v30, z5, tool0;
MoveL Offs(p0,872.0,183.0, 0), v30, z5, tool0;
MoveL Offs(p0,872.0,183.0, 0), v30, z5, tool0;
MoveL Offs(p0,871.4390000000001,179.93800000000002, 0), v30, z5, tool0;
MoveL Offs(p0,871.5920000000002,177.34400000000002, 0), v30, z5, tool0;
MoveL Offs(p0,872.513,175.206, 0), v30, z5, tool0;
MoveL Offs(p0,874.2560000000001,173.512, 0), v30, z5, tool0;
MoveL Offs(p0,876.875,172.25, 0), v30, z5, tool0;
MoveL Offs(p0,880.4240000000001,171.408, 0), v30, z5, tool0;
MoveL Offs(p0,884.957,170.974, 0), v30, z5, tool0;
MoveL Offs(p0,890.5280000000001,170.936, 0), v30, z5, tool0;
MoveL Offs(p0,897.191,171.282, 0), v30, z5, tool0;
MoveL Offs(p0,905.0,172.0, 0), v30, z5, tool0;
MoveL Offs(p0,905.0,172.0, 0), v30, z5, tool0;
MoveL Offs(p0,914.5930000000002,172.95700000000002, 0), v30, z5, tool0;
MoveL Offs(p0,922.5840000000002,174.25600000000003, 0), v30, z5, tool0;
MoveL Offs(p0,929.291,176.239, 0), v30, z5, tool0;
MoveL Offs(p0,935.032,179.24800000000002, 0), v30, z5, tool0;
MoveL Offs(p0,940.125,183.625, 0), v30, z5, tool0;
MoveL Offs(p0,944.8879999999999,189.712, 0), v30, z5, tool0;
MoveL Offs(p0,949.6389999999999,197.851, 0), v30, z5, tool0;
MoveL Offs(p0,954.6960000000001,208.38400000000001, 0), v30, z5, tool0;
MoveL Offs(p0,960.3770000000001,221.653, 0), v30, z5, tool0;
MoveL Offs(p0,967.0,238.0, 0), v30, z5, tool0;
MoveL Offs(p0,992.0,300.0, 0), v30, z5, tool0;
MoveL Offs(p0,1110.0,300.0, 0), v30, z5, tool0;
MoveL Offs(p0,1228.0,300.0, 0), v30, z5, tool0;
MoveL Offs(p0,1252.0,235.0, 0), v30, z5, tool0;
MoveL Offs(p0,1275.0,170.0, 0), v30, z5, tool0;
MoveL Offs(p0,1317.0,170.0, 0), v30, z5, tool0;
MoveL Offs(p0,1360.0,170.0, 0), v30, z5, tool0;
MoveL Offs(p0,1339.0,223.0, 0), v30, z5, tool0;
MoveL Offs(p0,1339.0,223.0, 0), v30, z5, tool0;
MoveL Offs(p0,1334.6870000000001,233.92000000000002, 0), v30, z5, tool0;
MoveL Offs(p0,1328.4960000000005,249.5200000000001, 0), v30, z5, tool0;
MoveL Offs(p0,1320.649,269.26, 0), v30, z5, tool0;
MoveL Offs(p0,1311.368,292.6, 0), v30, z5, tool0;
MoveL Offs(p0,1300.875,319.0, 0), v30, z5, tool0;
MoveL Offs(p0,1289.3919999999998,347.92, 0), v30, z5, tool0;
MoveL Offs(p0,1277.141,378.82000000000005, 0), v30, z5, tool0;
MoveL Offs(p0,1264.344,411.1600000000001, 0), v30, z5, tool0;
MoveL Offs(p0,1251.223,444.40000000000003, 0), v30, z5, tool0;
MoveL Offs(p0,1238.0,478.0, 0), v30, z5, tool0;
MoveL Offs(p0,1159.0,680.0, 0), v30, z5, tool0;
MoveL Offs(p0,1112.0,680.0, 0), v30, z5, tool0;
MoveL Offs(p0,1065.0,679.0, 0), v30, z5, tool0;
MoveL Offs(p0,970.0,438.0, 0), v30, z5, tool0;
MoveL Offs(p0,970.0,438.0, 0), v30, z5, tool0;
MoveJ Offs(p0,1203.0,373.0, 10), v30, z1, tool0;
MoveL Offs(p0,1203.0,373.0, 0), v30, z5, tool0;
MoveL Offs(p0,1204.0200000000002,370.2060000000001, 0), v30, z5, tool0;
MoveL Offs(p0,1203.3600000000004,367.8080000000001, 0), v30, z5, tool0;
MoveL Offs(p0,1200.84,365.782, 0), v30, z5, tool0;
MoveL Offs(p0,1196.28,364.10400000000004, 0), v30, z5, tool0;
MoveL Offs(p0,1189.5,362.75, 0), v30, z5, tool0;
MoveL Offs(p0,1180.32,361.69599999999997, 0), v30, z5, tool0;
MoveL Offs(p0,1168.56,360.918, 0), v30, z5, tool0;
MoveL Offs(p0,1154.0400000000002,360.39200000000005, 0), v30, z5, tool0;
MoveL Offs(p0,1136.58,360.09400000000005, 0), v30, z5, tool0;
MoveL Offs(p0,1116.0,360.0, 0), v30, z5, tool0;
MoveL Offs(p0,1116.0,360.0, 0), v30, z5, tool0;
MoveL Offs(p0,1099.7040000000002,360.11800000000005, 0), v30, z5, tool0;
MoveL Offs(p0,1084.5120000000004,360.46400000000006, 0), v30, z5, tool0;
MoveL Offs(p0,1070.5679999999998,361.02599999999995, 0), v30, z5, tool0;
MoveL Offs(p0,1058.016,361.79200000000003, 0), v30, z5, tool0;
MoveL Offs(p0,1047.0,362.75, 0), v30, z5, tool0;
MoveL Offs(p0,1037.664,363.88800000000003, 0), v30, z5, tool0;
MoveL Offs(p0,1030.152,365.19399999999996, 0), v30, z5, tool0;
MoveL Offs(p0,1024.6080000000002,366.65600000000006, 0), v30, z5, tool0;
MoveL Offs(p0,1021.1759999999999,368.262, 0), v30, z5, tool0;
MoveL Offs(p0,1020.0,370.0, 0), v30, z5, tool0;
MoveL Offs(p0,1020.0,370.0, 0), v30, z5, tool0;
MoveL Offs(p0,1020.4970000000001,372.78, 0), v30, z5, tool0;
MoveL Offs(p0,1021.9360000000004,377.9600000000001, 0), v30, z5, tool0;
MoveL Offs(p0,1024.2389999999998,385.3, 0), v30, z5, tool0;
MoveL Offs(p0,1027.3280000000002,394.56000000000006, 0), v30, z5, tool0;
MoveL Offs(p0,1031.125,405.5, 0), v30, z5, tool0;
MoveL Offs(p0,1035.552,417.88, 0), v30, z5, tool0;
MoveL Offs(p0,1040.531,431.46000000000004, 0), v30, z5, tool0;
MoveL Offs(p0,1045.9840000000002,446.0, 0), v30, z5, tool0;
MoveL Offs(p0,1051.833,461.26000000000005, 0), v30, z5, tool0;
MoveL Offs(p0,1058.0,477.0, 0), v30, z5, tool0;
MoveL Offs(p0,1058.0,477.0, 0), v30, z5, tool0;
MoveL Offs(p0,1064.5260000000003,493.12900000000013, 0), v30, z5, tool0;
MoveL Offs(p0,1070.8480000000004,508.9520000000001, 0), v30, z5, tool0;
MoveL Offs(p0,1076.882,524.223, 0), v30, z5, tool0;
MoveL Offs(p0,1082.5439999999999,538.696, 0), v30, z5, tool0;
MoveL Offs(p0,1087.75,552.125, 0), v30, z5, tool0;
MoveL Offs(p0,1092.416,564.264, 0), v30, z5, tool0;
MoveL Offs(p0,1096.458,574.867, 0), v30, z5, tool0;
MoveL Offs(p0,1099.7920000000001,583.6880000000001, 0), v30, z5, tool0;
MoveL Offs(p0,1102.334,590.481, 0), v30, z5, tool0;
MoveL Offs(p0,1104.0,595.0, 0), v30, z5, tool0;
MoveL Offs(p0,1104.0,595.0, 0), v30, z5, tool0;
MoveL Offs(p0,1105.9940000000004,598.3610000000001, 0), v30, z5, tool0;
MoveL Offs(p0,1108.4320000000002,599.3280000000001, 0), v30, z5, tool0;
MoveL Offs(p0,1111.3980000000001,597.727, 0), v30, z5, tool0;
MoveL Offs(p0,1114.976,593.384, 0), v30, z5, tool0;
MoveL Offs(p0,1119.25,586.125, 0), v30, z5, tool0;
MoveL Offs(p0,1124.304,575.7760000000001, 0), v30, z5, tool0;
MoveL Offs(p0,1130.222,562.1629999999999, 0), v30, z5, tool0;
MoveL Offs(p0,1137.0880000000002,545.1120000000001, 0), v30, z5, tool0;
MoveL Offs(p0,1144.9859999999999,524.4490000000001, 0), v30, z5, tool0;
MoveL Offs(p0,1154.0,500.0, 0), v30, z5, tool0;
MoveL Offs(p0,1154.0,500.0, 0), v30, z5, tool0;
MoveL Offs(p0,1160.853,481.297, 0), v30, z5, tool0;
MoveL Offs(p0,1167.5440000000003,463.1760000000001, 0), v30, z5, tool0;
MoveL Offs(p0,1173.971,445.91900000000004, 0), v30, z5, tool0;
MoveL Offs(p0,1180.0320000000002,429.80800000000005, 0), v30, z5, tool0;
MoveL Offs(p0,1185.625,415.125, 0), v30, z5, tool0;
MoveL Offs(p0,1190.648,402.152, 0), v30, z5, tool0;
MoveL Offs(p0,1194.999,391.171, 0), v30, z5, tool0;
MoveL Offs(p0,1198.576,382.46400000000006, 0), v30, z5, tool0;
MoveL Offs(p0,1201.277,376.313, 0), v30, z5, tool0;
MoveL Offs(p0,1203.0,373.0, 0), v30, z5, tool0;
MoveL Offs(p0,1203.0,373.0, 0), v30, z5, tool0;
MoveJ Offs(p0,1410.0,424.0, 10), v30, z1, tool0;
MoveL Offs(p0,1410.0,168.0, 0), v30, z5, tool0;
MoveL Offs(p0,1523.0,171.0, 0), v30, z5, tool0;
MoveL Offs(p0,1523.0,171.0, 0), v30, z5, tool0;
MoveL Offs(p0,1548.2300000000002,171.96900000000002, 0), v30, z5, tool0;
MoveL Offs(p0,1570.1600000000003,173.11200000000005, 0), v30, z5, tool0;
MoveL Offs(p0,1589.1499999999996,174.48299999999998, 0), v30, z5, tool0;
MoveL Offs(p0,1605.5600000000004,176.136, 0), v30, z5, tool0;
MoveL Offs(p0,1619.75,178.125, 0), v30, z5, tool0;
MoveL Offs(p0,1632.08,180.50400000000002, 0), v30, z5, tool0;
MoveL Offs(p0,1642.91,183.327, 0), v30, z5, tool0;
MoveL Offs(p0,1652.6000000000001,186.64800000000002, 0), v30, z5, tool0;
MoveL Offs(p0,1661.51,190.52100000000002, 0), v30, z5, tool0;
MoveL Offs(p0,1670.0,195.0, 0), v30, z5, tool0;
MoveL Offs(p0,1670.0,195.0, 0), v30, z5, tool0;
MoveL Offs(p0,1690.4730000000002,209.62400000000005, 0), v30, z5, tool0;
MoveL Offs(p0,1707.4240000000004,227.27200000000002, 0), v30, z5, tool0;
MoveL Offs(p0,1720.751,247.30799999999996, 0), v30, z5, tool0;
MoveL Offs(p0,1730.3520000000003,269.096, 0), v30, z5, tool0;
MoveL Offs(p0,1736.125,292.0, 0), v30, z5, tool0;
MoveL Offs(p0,1737.9679999999998,315.384, 0), v30, z5, tool0;
MoveL Offs(p0,1735.779,338.61199999999997, 0), v30, z5, tool0;
MoveL Offs(p0,1729.4560000000001,361.048, 0), v30, z5, tool0;
MoveL Offs(p0,1718.897,382.05600000000004, 0), v30, z5, tool0;
MoveL Offs(p0,1704.0,401.0, 0), v30, z5, tool0;
MoveL Offs(p0,1704.0,401.0, 0), v30, z5, tool0;
MoveL Offs(p0,1699.396,405.7000000000001, 0), v30, z5, tool0;
MoveL Offs(p0,1694.6480000000006,410.1600000000001, 0), v30, z5, tool0;
MoveL Offs(p0,1689.852,414.31999999999994, 0), v30, z5, tool0;
MoveL Offs(p0,1685.104,418.12, 0), v30, z5, tool0;
MoveL Offs(p0,1680.5,421.5, 0), v30, z5, tool0;
MoveL Offs(p0,1676.136,424.4, 0), v30, z5, tool0;
MoveL Offs(p0,1672.108,426.76, 0), v30, z5, tool0;
MoveL Offs(p0,1668.5120000000002,428.52000000000004, 0), v30, z5, tool0;
MoveL Offs(p0,1665.4440000000002,429.62, 0), v30, z5, tool0;
MoveL Offs(p0,1663.0,430.0, 0), v30, z5, tool0;
MoveL Offs(p0,1663.0,430.0, 0), v30, z5, tool0;
MoveL Offs(p0,1657.9560000000001,430.51000000000005, 0), v30, z5, tool0;
MoveL Offs(p0,1654.2080000000005,431.92000000000013, 0), v30, z5, tool0;
MoveL Offs(p0,1651.7320000000002,434.04999999999995, 0), v30, z5, tool0;
MoveL Offs(p0,1650.5040000000001,436.71999999999997, 0), v30, z5, tool0;
MoveL Offs(p0,1650.5,439.75, 0), v30, z5, tool0;
MoveL Offs(p0,1651.6960000000001,442.96000000000004, 0), v30, z5, tool0;
MoveL Offs(p0,1654.0679999999998,446.17, 0), v30, z5, tool0;
MoveL Offs(p0,1657.592,449.20000000000005, 0), v30, z5, tool0;
MoveL Offs(p0,1662.2440000000001,451.87000000000006, 0), v30, z5, tool0;
MoveL Offs(p0,1668.0,454.0, 0), v30, z5, tool0;
MoveL Offs(p0,1668.0,454.0, 0), v30, z5, tool0;
MoveL Offs(p0,1681.2650000000003,460.83600000000007, 0), v30, z5, tool0;
MoveL Offs(p0,1692.7600000000004,471.8480000000001, 0), v30, z5, tool0;
MoveL Offs(p0,1702.3349999999998,486.292, 0), v30, z5, tool0;
MoveL Offs(p0,1709.8400000000001,503.4240000000001, 0), v30, z5, tool0;
MoveL Offs(p0,1715.125,522.5, 0), v30, z5, tool0;
MoveL Offs(p0,1718.04,542.7760000000001, 0), v30, z5, tool0;
MoveL Offs(p0,1718.435,563.508, 0), v30, z5, tool0;
MoveL Offs(p0,1716.1600000000003,583.952, 0), v30, z5, tool0;
MoveL Offs(p0,1711.065,603.364, 0), v30, z5, tool0;
MoveL Offs(p0,1703.0,621.0, 0), v30, z5, tool0;
MoveL Offs(p0,1703.0,621.0, 0), v30, z5, tool0;
MoveL Offs(p0,1694.383,633.101, 0), v30, z5, tool0;
MoveL Offs(p0,1683.9840000000004,643.6480000000001, 0), v30, z5, tool0;
MoveL Offs(p0,1671.581,652.707, 0), v30, z5, tool0;
MoveL Offs(p0,1656.952,660.344, 0), v30, z5, tool0;
MoveL Offs(p0,1639.875,666.625, 0), v30, z5, tool0;
MoveL Offs(p0,1620.128,671.616, 0), v30, z5, tool0;
MoveL Offs(p0,1597.489,675.383, 0), v30, z5, tool0;
MoveL Offs(p0,1571.7360000000003,677.9920000000001, 0), v30, z5, tool0;
MoveL Offs(p0,1542.6470000000002,679.509, 0), v30, z5, tool0;
MoveL Offs(p0,1510.0,680.0, 0), v30, z5, tool0;
MoveL Offs(p0,1410.0,680.0, 0), v30, z5, tool0;
MoveL Offs(p0,1410.0,424.0, 0), v30, z5, tool0;
MoveL Offs(p0,1410.0,424.0, 0), v30, z5, tool0;
MoveJ Offs(p0,1621.0,601.0, 10), v30, z1, tool0;
MoveL Offs(p0,1621.0,601.0, 0), v30, z5, tool0;
MoveL Offs(p0,1625.775,597.0020000000001, 0), v30, z5, tool0;
MoveL Offs(p0,1629.9200000000005,592.7760000000002, 0), v30, z5, tool0;
MoveL Offs(p0,1633.465,588.274, 0), v30, z5, tool0;
MoveL Offs(p0,1636.44,583.448, 0), v30, z5, tool0;
MoveL Offs(p0,1638.875,578.25, 0), v30, z5, tool0;
MoveL Offs(p0,1640.8000000000002,572.632, 0), v30, z5, tool0;
MoveL Offs(p0,1642.245,566.546, 0), v30, z5, tool0;
MoveL Offs(p0,1643.2400000000002,559.9440000000001, 0), v30, z5, tool0;
MoveL Offs(p0,1643.815,552.778, 0), v30, z5, tool0;
MoveL Offs(p0,1644.0,545.0, 0), v30, z5, tool0;
MoveL Offs(p0,1644.0,545.0, 0), v30, z5, tool0;
MoveL Offs(p0,1643.0900000000001,530.0210000000002, 0), v30, z5, tool0;
MoveL Offs(p0,1640.3200000000004,516.8480000000002, 0), v30, z5, tool0;
MoveL Offs(p0,1635.6299999999999,505.42699999999996, 0), v30, z5, tool0;
MoveL Offs(p0,1628.96,495.704, 0), v30, z5, tool0;
MoveL Offs(p0,1620.25,487.625, 0), v30, z5, tool0;
MoveL Offs(p0,1609.4399999999998,481.136, 0), v30, z5, tool0;
MoveL Offs(p0,1596.4699999999998,476.183, 0), v30, z5, tool0;
MoveL Offs(p0,1581.2800000000002,472.712, 0), v30, z5, tool0;
MoveL Offs(p0,1563.8100000000002,470.66900000000004, 0), v30, z5, tool0;
MoveL Offs(p0,1544.0,470.0, 0), v30, z5, tool0;
MoveL Offs(p0,1490.0,470.0, 0), v30, z5, tool0;
MoveL Offs(p0,1490.0,545.0, 0), v30, z5, tool0;
MoveL Offs(p0,1490.0,620.0, 0), v30, z5, tool0;
MoveL Offs(p0,1544.0,620.0, 0), v30, z5, tool0;
MoveL Offs(p0,1544.0,620.0, 0), v30, z5, tool0;
MoveL Offs(p0,1554.9580000000005,619.8190000000001, 0), v30, z5, tool0;
MoveL Offs(p0,1565.0640000000005,619.2720000000002, 0), v30, z5, tool0;
MoveL Offs(p0,1574.366,618.353, 0), v30, z5, tool0;
MoveL Offs(p0,1582.9120000000003,617.056, 0), v30, z5, tool0;
MoveL Offs(p0,1590.75,615.375, 0), v30, z5, tool0;
MoveL Offs(p0,1597.928,613.304, 0), v30, z5, tool0;
MoveL Offs(p0,1604.494,610.837, 0), v30, z5, tool0;
MoveL Offs(p0,1610.496,607.9680000000001, 0), v30, z5, tool0;
MoveL Offs(p0,1615.982,604.691, 0), v30, z5, tool0;
MoveL Offs(p0,1621.0,601.0, 0), v30, z5, tool0;
MoveL Offs(p0,1621.0,601.0, 0), v30, z5, tool0;
MoveJ Offs(p0,1627.0,385.0, 10), v30, z1, tool0;
MoveL Offs(p0,1627.0,385.0, 0), v30, z5, tool0;
MoveL Offs(p0,1638.582,375.06800000000004, 0), v30, z5, tool0;
MoveL Offs(p0,1647.5360000000007,363.02400000000006, 0), v30, z5, tool0;
MoveL Offs(p0,1653.874,349.396, 0), v30, z5, tool0;
MoveL Offs(p0,1657.6080000000002,334.71200000000005, 0), v30, z5, tool0;
MoveL Offs(p0,1658.75,319.5, 0), v30, z5, tool0;
MoveL Offs(p0,1657.312,304.288, 0), v30, z5, tool0;
MoveL Offs(p0,1653.306,289.604, 0), v30, z5, tool0;
MoveL Offs(p0,1646.7440000000001,275.976, 0), v30, z5, tool0;
MoveL Offs(p0,1637.638,263.932, 0), v30, z5, tool0;
MoveL Offs(p0,1626.0,254.0, 0), v30, z5, tool0;
MoveL Offs(p0,1626.0,254.0, 0), v30, z5, tool0;
MoveL Offs(p0,1621.1680000000001,251.54900000000004, 0), v30, z5, tool0;
MoveL Offs(p0,1615.1840000000004,249.03200000000007, 0), v30, z5, tool0;
MoveL Offs(p0,1608.216,246.50300000000001, 0), v30, z5, tool0;
MoveL Offs(p0,1600.4320000000002,244.016, 0), v30, z5, tool0;
MoveL Offs(p0,1592.0,241.625, 0), v30, z5, tool0;
MoveL Offs(p0,1583.088,239.38400000000001, 0), v30, z5, tool0;
MoveL Offs(p0,1573.864,237.34700000000004, 0), v30, z5, tool0;
MoveL Offs(p0,1564.496,235.56800000000004, 0), v30, z5, tool0;
MoveL Offs(p0,1555.152,234.101, 0), v30, z5, tool0;
MoveL Offs(p0,1546.0,233.0, 0), v30, z5, tool0;
MoveL Offs(p0,1490.0,227.0, 0), v30, z5, tool0;
MoveL Offs(p0,1490.0,320.0, 0), v30, z5, tool0;
MoveL Offs(p0,1490.0,413.0, 0), v30, z5, tool0;
MoveL Offs(p0,1547.0,406.0, 0), v30, z5, tool0;
MoveL Offs(p0,1547.0,406.0, 0), v30, z5, tool0;
MoveL Offs(p0,1556.6920000000002,404.65600000000006, 0), v30, z5, tool0;
MoveL Offs(p0,1566.4560000000006,403.0480000000001, 0), v30, z5, tool0;
MoveL Offs(p0,1576.1240000000003,401.212, 0), v30, z5, tool0;
MoveL Offs(p0,1585.528,399.184, 0), v30, z5, tool0;
MoveL Offs(p0,1594.5,397.0, 0), v30, z5, tool0;
MoveL Offs(p0,1602.872,394.69599999999997, 0), v30, z5, tool0;
MoveL Offs(p0,1610.476,392.308, 0), v30, z5, tool0;
MoveL Offs(p0,1617.1440000000002,389.872, 0), v30, z5, tool0;
MoveL Offs(p0,1622.708,387.424, 0), v30, z5, tool0;
MoveL Offs(p0,1627.0,385.0, 0), v30, z5, tool0;
MoveL Offs(p0,1627.0,385.0, 0), v30, z5, tool0;
MoveJ Offs(p0,1969.0,666.0, 10), v30, z1, tool0;
MoveL Offs(p0,1969.0,666.0, 0), v30, z5, tool0;
MoveL Offs(p0,1940.0050000000003,653.663, 0), v30, z5, tool0;
MoveL Offs(p0,1913.6800000000005,638.3440000000002, 0), v30, z5, tool0;
MoveL Offs(p0,1890.115,620.1809999999999, 0), v30, z5, tool0;
MoveL Offs(p0,1869.4,599.312, 0), v30, z5, tool0;
MoveL Offs(p0,1851.625,575.875, 0), v30, z5, tool0;
MoveL Offs(p0,1836.8799999999999,550.0079999999999, 0), v30, z5, tool0;
MoveL Offs(p0,1825.2549999999999,521.8489999999999, 0), v30, z5, tool0;
MoveL Offs(p0,1816.8400000000001,491.53600000000006, 0), v30, z5, tool0;
MoveL Offs(p0,1811.7250000000001,459.207, 0), v30, z5, tool0;
MoveL Offs(p0,1810.0,425.0, 0), v30, z5, tool0;
MoveL Offs(p0,1810.0,425.0, 0), v30, z5, tool0;
MoveL Offs(p0,1812.998,378.98, 0), v30, z5, tool0;
MoveL Offs(p0,1821.8640000000005,337.0400000000001, 0), v30, z5, tool0;
MoveL Offs(p0,1836.4060000000002,299.35999999999996, 0), v30, z5, tool0;
MoveL Offs(p0,1856.432,266.12, 0), v30, z5, tool0;
MoveL Offs(p0,1881.75,237.5, 0), v30, z5, tool0;
MoveL Offs(p0,1912.1680000000001,213.67999999999998, 0), v30, z5, tool0;
MoveL Offs(p0,1947.494,194.83999999999997, 0), v30, z5, tool0;
MoveL Offs(p0,1987.536,181.16000000000003, 0), v30, z5, tool0;
MoveL Offs(p0,2032.102,172.82000000000002, 0), v30, z5, tool0;
MoveL Offs(p0,2081.0,170.0, 0), v30, z5, tool0;
MoveL Offs(p0,2081.0,170.0, 0), v30, z5, tool0;
MoveL Offs(p0,2106.688,170.347, 0), v30, z5, tool0;
MoveL Offs(p0,2128.7040000000006,171.45600000000005, 0), v30, z5, tool0;
MoveL Offs(p0,2147.276,173.42899999999997, 0), v30, z5, tool0;
MoveL Offs(p0,2162.632,176.36800000000002, 0), v30, z5, tool0;
MoveL Offs(p0,2175.0,180.375, 0), v30, z5, tool0;
MoveL Offs(p0,2184.608,185.55200000000002, 0), v30, z5, tool0;
MoveL Offs(p0,2191.684,192.001, 0), v30, z5, tool0;
MoveL Offs(p0,2196.456,199.824, 0), v30, z5, tool0;
MoveL Offs(p0,2199.152,209.12300000000002, 0), v30, z5, tool0;
MoveL Offs(p0,2200.0,220.0, 0), v30, z5, tool0;
MoveL Offs(p0,2200.0,220.0, 0), v30, z5, tool0;
MoveL Offs(p0,2199.967,229.17200000000003, 0), v30, z5, tool0;
MoveL Offs(p0,2199.616000000001,236.37600000000006, 0), v30, z5, tool0;
MoveL Offs(p0,2198.569,241.744, 0), v30, z5, tool0;
MoveL Offs(p0,2196.448,245.408, 0), v30, z5, tool0;
MoveL Offs(p0,2192.875,247.5, 0), v30, z5, tool0;
MoveL Offs(p0,2187.4719999999998,248.152, 0), v30, z5, tool0;
MoveL Offs(p0,2179.861,247.49599999999998, 0), v30, z5, tool0;
MoveL Offs(p0,2169.664,245.66400000000002, 0), v30, z5, tool0;
MoveL Offs(p0,2156.503,242.788, 0), v30, z5, tool0;
MoveL Offs(p0,2140.0,239.0, 0), v30, z5, tool0;
MoveL Offs(p0,2140.0,239.0, 0), v30, z5, tool0;
MoveL Offs(p0,2098.737,232.79300000000006, 0), v30, z5, tool0;
MoveL Offs(p0,2059.8560000000007,233.14400000000006, 0), v30, z5, tool0;
MoveL Offs(p0,2023.8189999999997,239.71099999999998, 0), v30, z5, tool0;
MoveL Offs(p0,1991.0880000000002,252.15200000000002, 0), v30, z5, tool0;
MoveL Offs(p0,1962.125,270.125, 0), v30, z5, tool0;
MoveL Offs(p0,1937.392,293.288, 0), v30, z5, tool0;
MoveL Offs(p0,1917.3509999999999,321.299, 0), v30, z5, tool0;
MoveL Offs(p0,1902.464,353.81600000000003, 0), v30, z5, tool0;
MoveL Offs(p0,1893.1930000000002,390.497, 0), v30, z5, tool0;
MoveL Offs(p0,1890.0,431.0, 0), v30, z5, tool0;
MoveL Offs(p0,1890.0,431.0, 0), v30, z5, tool0;
MoveL Offs(p0,1890.9550000000002,453.523, 0), v30, z5, tool0;
MoveL Offs(p0,1893.8000000000006,474.86400000000015, 0), v30, z5, tool0;
MoveL Offs(p0,1898.5049999999999,494.98100000000005, 0), v30, z5, tool0;
MoveL Offs(p0,1905.0400000000002,513.8320000000001, 0), v30, z5, tool0;
MoveL Offs(p0,1913.375,531.375, 0), v30, z5, tool0;
MoveL Offs(p0,1923.48,547.568, 0), v30, z5, tool0;
MoveL Offs(p0,1935.325,562.369, 0), v30, z5, tool0;
MoveL Offs(p0,1948.88,575.736, 0), v30, z5, tool0;
MoveL Offs(p0,1964.115,587.6270000000001, 0), v30, z5, tool0;
MoveL Offs(p0,1981.0,598.0, 0), v30, z5, tool0;
MoveL Offs(p0,1981.0,598.0, 0), v30, z5, tool0;
MoveL Offs(p0,1991.563,603.5000000000001, 0), v30, z5, tool0;
MoveL Offs(p0,2001.3040000000008,608.0400000000001, 0), v30, z5, tool0;
MoveL Offs(p0,2010.6009999999999,611.68, 0), v30, z5, tool0;
MoveL Offs(p0,2019.8319999999999,614.48, 0), v30, z5, tool0;
MoveL Offs(p0,2029.375,616.5, 0), v30, z5, tool0;
MoveL Offs(p0,2039.608,617.8, 0), v30, z5, tool0;
MoveL Offs(p0,2050.909,618.44, 0), v30, z5, tool0;
MoveL Offs(p0,2063.6560000000004,618.48, 0), v30, z5, tool0;
MoveL Offs(p0,2078.227,617.98, 0), v30, z5, tool0;
MoveL Offs(p0,2095.0,617.0, 0), v30, z5, tool0;
MoveL Offs(p0,2095.0,617.0, 0), v30, z5, tool0;
MoveL Offs(p0,2106.671,616.3140000000001, 0), v30, z5, tool0;
MoveL Offs(p0,2118.1680000000006,615.4720000000001, 0), v30, z5, tool0;
MoveL Offs(p0,2129.317,614.4979999999999, 0), v30, z5, tool0;
MoveL Offs(p0,2139.9440000000004,613.416, 0), v30, z5, tool0;
MoveL Offs(p0,2149.875,612.25, 0), v30, z5, tool0;
MoveL Offs(p0,2158.936,611.024, 0), v30, z5, tool0;
MoveL Offs(p0,2166.953,609.762, 0), v30, z5, tool0;
MoveL Offs(p0,2173.7520000000004,608.488, 0), v30, z5, tool0;
MoveL Offs(p0,2179.159,607.226, 0), v30, z5, tool0;
MoveL Offs(p0,2183.0,606.0, 0), v30, z5, tool0;
MoveL Offs(p0,2183.0,606.0, 0), v30, z5, tool0;
MoveL Offs(p0,2186.878,604.2450000000001, 0), v30, z5, tool0;
MoveL Offs(p0,2190.1440000000007,603.2400000000001, 0), v30, z5, tool0;
MoveL Offs(p0,2192.846,603.0749999999999, 0), v30, z5, tool0;
MoveL Offs(p0,2195.032,603.84, 0), v30, z5, tool0;
MoveL Offs(p0,2196.75,605.625, 0), v30, z5, tool0;
MoveL Offs(p0,2198.048,608.52, 0), v30, z5, tool0;
MoveL Offs(p0,2198.974,612.615, 0), v30, z5, tool0;
MoveL Offs(p0,2199.576,618.0, 0), v30, z5, tool0;
MoveL Offs(p0,2199.902,624.765, 0), v30, z5, tool0;
MoveL Offs(p0,2200.0,633.0, 0), v30, z5, tool0;
MoveL Offs(p0,2200.0,633.0, 0), v30, z5, tool0;
MoveL Offs(p0,2199.843,640.817, 0), v30, z5, tool0;
MoveL Offs(p0,2199.344000000001,647.5360000000002, 0), v30, z5, tool0;
MoveL Offs(p0,2198.461,653.2589999999999, 0), v30, z5, tool0;
MoveL Offs(p0,2197.152,658.088, 0), v30, z5, tool0;
MoveL Offs(p0,2195.375,662.125, 0), v30, z5, tool0;
MoveL Offs(p0,2193.0879999999997,665.472, 0), v30, z5, tool0;
MoveL Offs(p0,2190.249,668.231, 0), v30, z5, tool0;
MoveL Offs(p0,2186.816,670.5040000000001, 0), v30, z5, tool0;
MoveL Offs(p0,2182.7470000000003,672.393, 0), v30, z5, tool0;
MoveL Offs(p0,2178.0,674.0, 0), v30, z5, tool0;
MoveL Offs(p0,2178.0,674.0, 0), v30, z5, tool0;
MoveL Offs(p0,2163.427,676.5840000000002, 0), v30, z5, tool0;
MoveL Offs(p0,2144.4560000000006,678.3520000000001, 0), v30, z5, tool0;
MoveL Offs(p0,2122.209,679.3279999999999, 0), v30, z5, tool0;
MoveL Offs(p0,2097.808,679.5360000000001, 0), v30, z5, tool0;
MoveL Offs(p0,2072.375,679.0, 0), v30, z5, tool0;
MoveL Offs(p0,2047.0319999999997,677.744, 0), v30, z5, tool0;
MoveL Offs(p0,2022.9009999999998,675.7919999999999, 0), v30, z5, tool0;
MoveL Offs(p0,2001.1040000000003,673.1680000000001, 0), v30, z5, tool0;
MoveL Offs(p0,1982.7630000000001,669.8960000000001, 0), v30, z5, tool0;
MoveL Offs(p0,1969.0,666.0, 0), v30, z5, tool0;
MoveL Offs(p0,1969.0,666.0, 0), v30, z5, tool0;
