MoveJ Offs(p0,100.9,225.5, 10), v30, z1, tool0;
MoveL Offs(p0,100.9,225.5, 0), v30, z5, tool0;
MoveL Offs(p0,96.74590000000002,223.87600000000003, 0), v30, z5, tool0;
MoveL Offs(p0,92.87920000000004,221.78400000000005, 0), v30, z5, tool0;
MoveL Offs(p0,89.32329999999999,219.254, 0), v30, z5, tool0;
MoveL Offs(p0,86.10159999999999,216.31599999999997, 0), v30, z5, tool0;
MoveL Offs(p0,83.2375,213.0, 0), v30, z5, tool0;
MoveL Offs(p0,80.7544,209.33599999999996, 0), v30, z5, tool0;
MoveL Offs(p0,78.6757,205.35399999999998, 0), v30, z5, tool0;
MoveL Offs(p0,77.0248,201.084, 0), v30, z5, tool0;
MoveL Offs(p0,75.82509999999999,196.55599999999998, 0), v30, z5, tool0;
MoveL Offs(p0,75.1,191.8, 0), v30, z5, tool0;
MoveL Offs(p0,74.5,186.1, 0), v30, z5, tool0;
MoveL Offs(p0,61.0,193.9, 0), v30, z5, tool0;
MoveL Offs(p0,47.5,201.8, 0), v30, z5, tool0;
MoveL Offs(p0,47.2,198.3, 0), v30, z5, tool0;
MoveL Offs(p0,47.2,198.3, 0), v30, z5, tool0;
MoveL Offs(p0,47.126,196.41140000000001, 0), v30, z5, tool0;
MoveL Offs(p0,47.34000000000001,194.69920000000005, 0), v30, z5, tool0;
MoveL Offs(p0,47.956,193.0638, 0), v30, z5, tool0;
MoveL Offs(p0,49.088,191.40560000000002, 0), v30, z5, tool0;
MoveL Offs(p0,50.85,189.625, 0), v30, z5, tool0;
MoveL Offs(p0,53.355999999999995,187.6224, 0), v30, z5, tool0;
MoveL Offs(p0,56.720000000000006,185.2982, 0), v30, z5, tool0;
MoveL Offs(p0,61.056000000000004,182.55280000000002, 0), v30, z5, tool0;
MoveL Offs(p0,66.47800000000001,179.2866, 0), v30, z5, tool0;
MoveL Offs(p0,73.1,175.4, 0), v30, z5, tool0;
MoveL Offs(p0,73.1,175.4, 0), v30, z5, tool0;
MoveL Offs(p0,76.80090000000001,173.26110000000003, 0), v30, z5, tool0;
MoveL Offs(p0,80.48320000000002,171.12880000000004, 0), v30, z5, tool0;
MoveL Offs(p0,84.0863,169.03969999999998, 0), v30, z5, tool0;
MoveL Offs(p0,87.54960000000001,167.03040000000001, 0), v30, z5, tool0;
MoveL Offs(p0,90.8125,165.1375, 0), v30, z5, tool0;
MoveL Offs(p0,93.8144,163.39759999999998, 0), v30, z5, tool0;
MoveL Offs(p0,96.49470000000001,161.8473, 0), v30, z5, tool0;
MoveL Offs(p0,98.79280000000001,160.5232, 0), v30, z5, tool0;
MoveL Offs(p0,100.6481,159.4619, 0), v30, z5, tool0;
MoveL Offs(p0,102.0,158.7, 0), v30, z5, tool0;
MoveL Offs(p0,102.0,158.7, 0), v30, z5, tool0;
MoveL Offs(p0,103.11240000000001,158.07820000000004, 0), v30, z5, tool0;
MoveL Offs(p0,104.27520000000004,157.42160000000007, 0), v30, z5, tool0;
MoveL Offs(p0,105.46679999999999,156.7434, 0), v30, z5, tool0;
MoveL Offs(p0,106.66560000000001,156.0568, 0), v30, z5, tool0;
MoveL Offs(p0,107.85,155.375, 0), v30, z5, tool0;
MoveL Offs(p0,108.99839999999999,154.7112, 0), v30, z5, tool0;
MoveL Offs(p0,110.08919999999998,154.0786, 0), v30, z5, tool0;
MoveL Offs(p0,111.10080000000002,153.4904, 0), v30, z5, tool0;
MoveL Offs(p0,112.0116,152.9598, 0), v30, z5, tool0;
MoveL Offs(p0,112.8,152.5, 0), v30, z5, tool0;
MoveL Offs(p0,112.8,152.5, 0), v30, z5, tool0;
MoveL Offs(p0,114.3196,151.6388, 0), v30, z5, tool0;
MoveL Offs(p0,115.65680000000005,150.97440000000003, 0), v30, z5, tool0;
MoveL Offs(p0,116.8392,150.5056, 0), v30, z5, tool0;
MoveL Offs(p0,117.89440000000002,150.2312, 0), v30, z5, tool0;
MoveL Offs(p0,118.85,150.15, 0), v30, z5, tool0;
MoveL Offs(p0,119.7336,150.2608, 0), v30, z5, tool0;
MoveL Offs(p0,120.5728,150.5624, 0), v30, z5, tool0;
MoveL Offs(p0,121.39520000000002,151.05360000000002, 0), v30, z5, tool0;
MoveL Offs(p0,122.22840000000001,151.7332, 0), v30, z5, tool0;
MoveL Offs(p0,123.1,152.6, 0), v30, z5, tool0;
MoveL Offs(p0,123.1,152.6, 0), v30, z5, tool0;
MoveL Offs(p0,124.50900000000004,153.95920000000004, 0), v30, z5, tool0;
MoveL Offs(p0,126.18800000000003,155.26560000000003, 0), v30, z5, tool0;
MoveL Offs(p0,128.095,156.5024, 0), v30, z5, tool0;
MoveL Offs(p0,130.18800000000002,157.6528, 0), v30, z5, tool0;
MoveL Offs(p0,132.425,158.7, 0), v30, z5, tool0;
MoveL Offs(p0,134.76399999999998,159.6272, 0), v30, z5, tool0;
MoveL Offs(p0,137.16299999999998,160.4176, 0), v30, z5, tool0;
MoveL Offs(p0,139.58,161.05440000000002, 0), v30, z5, tool0;
MoveL Offs(p0,141.973,161.5208, 0), v30, z5, tool0;
MoveL Offs(p0,144.3,161.8, 0), v30, z5, tool0;
MoveL Offs(p0,144.3,161.8, 0), v30, z5, tool0;
MoveL Offs(p0,146.00110000000004,161.91940000000002, 0), v30, z5, tool0;
MoveL Offs(p0,147.40880000000004,162.04720000000003, 0), v30, z5, tool0;
MoveL Offs(p0,148.5597,162.19779999999997, 0), v30, z5, tool0;
MoveL Offs(p0,149.4904,162.3856, 0), v30, z5, tool0;
MoveL Offs(p0,150.2375,162.625, 0), v30, z5, tool0;
MoveL Offs(p0,150.83759999999998,162.9304, 0), v30, z5, tool0;
MoveL Offs(p0,151.3273,163.3162, 0), v30, z5, tool0;
MoveL Offs(p0,151.74320000000003,163.79680000000002, 0), v30, z5, tool0;
MoveL Offs(p0,152.1219,164.3866, 0), v30, z5, tool0;
MoveL Offs(p0,152.5,165.1, 0), v30, z5, tool0;
MoveL Offs(p0,152.5,165.1, 0), v30, z5, tool0;
MoveL Offs(p0,152.7364,165.5488, 0), v30, z5, tool0;
MoveL Offs(p0,152.96320000000003,165.99040000000005, 0), v30, z5, tool0;
MoveL Offs(p0,153.17679999999996,166.4176, 0), v30, z5, tool0;
MoveL Offs(p0,153.3736,166.8232, 0), v30, z5, tool0;
MoveL Offs(p0,153.55,167.2, 0), v30, z5, tool0;
MoveL Offs(p0,153.70239999999998,167.5408, 0), v30, z5, tool0;
MoveL Offs(p0,153.8272,167.8384, 0), v30, z5, tool0;
MoveL Offs(p0,153.9208,168.08560000000003, 0), v30, z5, tool0;
MoveL Offs(p0,153.9796,168.2752, 0), v30, z5, tool0;
MoveL Offs(p0,154.0,168.4, 0), v30, z5, tool0;
MoveL Offs(p0,154.0,168.4, 0), v30, z5, tool0;
MoveL Offs(p0,153.93280000000001,168.4957, 0), v30, z5, tool0;
MoveL Offs(p0,153.7384,168.60160000000005, 0), v30, z5, tool0;
MoveL Offs(p0,153.42759999999998,168.71589999999998, 0), v30, z5, tool0;
MoveL Offs(p0,153.01120000000003,168.8368, 0), v30, z5, tool0;
MoveL Offs(p0,152.5,168.9625, 0), v30, z5, tool0;
MoveL Offs(p0,151.90479999999997,169.09120000000001, 0), v30, z5, tool0;
MoveL Offs(p0,151.2364,169.22109999999998, 0), v30, z5, tool0;
MoveL Offs(p0,150.50560000000002,169.35040000000004, 0), v30, z5, tool0;
MoveL Offs(p0,149.72320000000002,169.4773, 0), v30, z5, tool0;
MoveL Offs(p0,148.9,169.6, 0), v30, z5, tool0;
MoveL Offs(p0,148.9,169.6, 0), v30, z5, tool0;
MoveL Offs(p0,147.76710000000003,169.7751, 0), v30, z5, tool0;
MoveL Offs(p0,146.82080000000002,169.94480000000004, 0), v30, z5, tool0;
MoveL Offs(p0,146.04969999999997,170.1157, 0), v30, z5, tool0;
MoveL Offs(p0,145.44240000000002,170.29440000000002, 0), v30, z5, tool0;
MoveL Offs(p0,144.9875,170.4875, 0), v30, z5, tool0;
MoveL Offs(p0,144.67360000000002,170.7016, 0), v30, z5, tool0;
MoveL Offs(p0,144.4893,170.9433, 0), v30, z5, tool0;
MoveL Offs(p0,144.4232,171.2192, 0), v30, z5, tool0;
MoveL Offs(p0,144.46390000000002,171.5359, 0), v30, z5, tool0;
MoveL Offs(p0,144.6,171.9, 0), v30, z5, tool0;
MoveL Offs(p0,144.6,171.9, 0), v30, z5, tool0;
MoveL Offs(p0,145.77330000000003,174.69030000000004, 0), v30, z5, tool0;
MoveL Offs(p0,146.72640000000004,177.06240000000003, 0), v30, z5, tool0;
MoveL Offs(p0,147.4791,179.10809999999998, 0), v30, z5, tool0;
MoveL Offs(p0,148.05120000000002,180.91920000000002, 0), v30, z5, tool0;
MoveL Offs(p0,148.4625,182.5875, 0), v30, z5, tool0;
MoveL Offs(p0,148.7328,184.20480000000003, 0), v30, z5, tool0;
MoveL Offs(p0,148.8819,185.86290000000002, 0), v30, z5, tool0;
MoveL Offs(p0,148.92960000000002,187.6536, 0), v30, z5, tool0;
MoveL Offs(p0,148.8957,189.6687, 0), v30, z5, tool0;
MoveL Offs(p0,148.8,192.0, 0), v30, z5, tool0;
MoveL Offs(p0,148.8,192.0, 0), v30, z5, tool0;
MoveL Offs(p0,148.67260000000002,193.92550000000003, 0), v30, z5, tool0;
MoveL Offs(p0,148.52480000000003,195.64400000000006, 0), v30, z5, tool0;
MoveL Offs(p0,148.34820000000002,197.1885, 0), v30, z5, tool0;
MoveL Offs(p0,148.1344,198.59200000000004, 0), v30, z5, tool0;
MoveL Offs(p0,147.875,199.8875, 0), v30, z5, tool0;
MoveL Offs(p0,147.5616,201.108, 0), v30, z5, tool0;
MoveL Offs(p0,147.1858,202.28650000000002, 0), v30, z5, tool0;
MoveL Offs(p0,146.73920000000004,203.45600000000002, 0), v30, z5, tool0;
MoveL Offs(p0,146.2134,204.64950000000002, 0), v30, z5, tool0;
MoveL Offs(p0,145.6,205.9, 0), v30, z5, tool0;
MoveL Offs(p0,145.6,205.9, 0), v30, z5, tool0;
MoveL Offs(p0,143.4619,209.6495, 0), v30, z5, tool0;
MoveL Offs(p0,141.07120000000003,213.03600000000006, 0), v30, z5, tool0;
MoveL Offs(p0,138.43329999999997,216.05649999999997, 0), v30, z5, tool0;
MoveL Offs(p0,135.55360000000002,218.70800000000003, 0), v30, z5, tool0;
MoveL Offs(p0,132.4375,220.9875, 0), v30, z5, tool0;
MoveL Offs(p0,129.0904,222.892, 0), v30, z5, tool0;
MoveL Offs(p0,125.51769999999999,224.4185, 0), v30, z5, tool0;
MoveL Offs(p0,121.7248,225.56400000000002, 0), v30, z5, tool0;
MoveL Offs(p0,117.7171,226.3255, 0), v30, z5, tool0;
MoveL Offs(p0,113.5,226.7, 0), v30, z5, tool0;
MoveL Offs(p0,113.5,226.7, 0), v30, z5, tool0;
MoveL Offs(p0,111.98620000000003,226.73930000000004, 0), v30, z5, tool0;
MoveL Offs(p0,110.50960000000005,226.73840000000004, 0), v30, z5, tool0;
MoveL Offs(p0,109.07739999999998,226.6991, 0), v30, z5, tool0;
MoveL Offs(p0,107.69680000000001,226.62320000000005, 0), v30, z5, tool0;
MoveL Offs(p0,106.375,226.5125, 0), v30, z5, tool0;
MoveL Offs(p0,105.1192,226.36880000000002, 0), v30, z5, tool0;
MoveL Offs(p0,103.9366,226.19389999999999, 0), v30, z5, tool0;
MoveL Offs(p0,102.8344,225.98959999999997, 0), v30, z5, tool0;
MoveL Offs(p0,101.81980000000001,225.75770000000003, 0), v30, z5, tool0;
MoveL Offs(p0,100.9,225.5, 0), v30, z5, tool0;
MoveL Offs(p0,100.9,225.5, 0), v30, z5, tool0;
MoveJ Offs(p0,126.2,215.7, 10), v30, z1, tool0;
MoveL Offs(p0,126.2,215.7, 0), v30, z5, tool0;
MoveL Offs(p0,128.92020000000005,213.95280000000008, 0), v30, z5, tool0;
MoveL Offs(p0,131.37760000000006,212.01840000000007, 0), v30, z5, tool0;
MoveL Offs(p0,133.56739999999996,209.9076, 0), v30, z5, tool0;
MoveL Offs(p0,135.4848,207.63120000000004, 0), v30, z5, tool0;
MoveL Offs(p0,137.125,205.2, 0), v30, z5, tool0;
MoveL Offs(p0,138.4832,202.6248, 0), v30, z5, tool0;
MoveL Offs(p0,139.5546,199.9164, 0), v30, z5, tool0;
MoveL Offs(p0,140.33440000000002,197.08560000000003, 0), v30, z5, tool0;
MoveL Offs(p0,140.81779999999998,194.1432, 0), v30, z5, tool0;
MoveL Offs(p0,141.0,191.1, 0), v30, z5, tool0;
MoveL Offs(p0,141.0,191.1, 0), v30, z5, tool0;
MoveL Offs(p0,140.95630000000003,188.74310000000003, 0), v30, z5, tool0;
MoveL Offs(p0,140.81840000000005,186.57280000000006, 0), v30, z5, tool0;
MoveL Offs(p0,140.57610000000003,184.5597, 0), v30, z5, tool0;
MoveL Offs(p0,140.2192,182.6744, 0), v30, z5, tool0;
MoveL Offs(p0,139.7375,180.8875, 0), v30, z5, tool0;
MoveL Offs(p0,139.1208,179.1696, 0), v30, z5, tool0;
MoveL Offs(p0,138.3589,177.4913, 0), v30, z5, tool0;
MoveL Offs(p0,137.44160000000002,175.82319999999999, 0), v30, z5, tool0;
MoveL Offs(p0,136.3587,174.1359, 0), v30, z5, tool0;
MoveL Offs(p0,135.1,172.4, 0), v30, z5, tool0;
MoveL Offs(p0,135.1,172.4, 0), v30, z5, tool0;
MoveL Offs(p0,133.9792,170.98880000000003, 0), v30, z5, tool0;
MoveL Offs(p0,132.82960000000006,169.69040000000004, 0), v30, z5, tool0;
MoveL Offs(p0,131.6404,168.49759999999998, 0), v30, z5, tool0;
MoveL Offs(p0,130.4008,167.40320000000003, 0), v30, z5, tool0;
MoveL Offs(p0,129.1,166.4, 0), v30, z5, tool0;
MoveL Offs(p0,127.7272,165.4808, 0), v30, z5, tool0;
MoveL Offs(p0,126.27159999999999,164.6384, 0), v30, z5, tool0;
MoveL Offs(p0,124.72240000000002,163.86560000000003, 0), v30, z5, tool0;
MoveL Offs(p0,123.06880000000001,163.1552, 0), v30, z5, tool0;
MoveL Offs(p0,121.3,162.5, 0), v30, z5, tool0;
MoveL Offs(p0,121.3,162.5, 0), v30, z5, tool0;
MoveL Offs(p0,120.32450000000003,162.18940000000003, 0), v30, z5, tool0;
MoveL Offs(p0,119.42400000000002,162.00720000000004, 0), v30, z5, tool0;
MoveL Offs(p0,118.4875,161.9978, 0), v30, z5, tool0;
MoveL Offs(p0,117.40400000000002,162.20560000000003, 0), v30, z5, tool0;
MoveL Offs(p0,116.0625,162.675, 0), v30, z5, tool0;
MoveL Offs(p0,114.352,163.4504, 0), v30, z5, tool0;
MoveL Offs(p0,112.1615,164.57620000000003, 0), v30, z5, tool0;
MoveL Offs(p0,109.38000000000002,166.09680000000003, 0), v30, z5, tool0;
MoveL Offs(p0,105.89650000000002,168.0566, 0), v30, z5, tool0;
MoveL Offs(p0,101.6,170.5, 0), v30, z5, tool0;
MoveL Offs(p0,101.6,170.5, 0), v30, z5, tool0;
MoveL Offs(p0,98.87450000000001,172.102, 0), v30, z5, tool0;
MoveL Offs(p0,96.29600000000002,173.65600000000006, 0), v30, z5, tool0;
MoveL Offs(p0,93.89150000000001,175.14399999999998, 0), v30, z5, tool0;
MoveL Offs(p0,91.68800000000002,176.54800000000003, 0), v30, z5, tool0;
MoveL Offs(p0,89.7125,177.85, 0), v30, z5, tool0;
MoveL Offs(p0,87.99199999999999,179.03199999999998, 0), v30, z5, tool0;
MoveL Offs(p0,86.55350000000001,180.076, 0), v30, z5, tool0;
MoveL Offs(p0,85.424,180.96400000000003, 0), v30, z5, tool0;
MoveL Offs(p0,84.63050000000001,181.678, 0), v30, z5, tool0;
MoveL Offs(p0,84.2,182.2, 0), v30, z5, tool0;
MoveL Offs(p0,84.2,182.2, 0), v30, z5, tool0;
MoveL Offs(p0,83.9723,182.7007, 0), v30, z5, tool0;
MoveL Offs(p0,83.77040000000002,183.30160000000004, 0), v30, z5, tool0;
MoveL Offs(p0,83.59609999999999,184.00089999999994, 0), v30, z5, tool0;
MoveL Offs(p0,83.4512,184.7968, 0), v30, z5, tool0;
MoveL Offs(p0,83.3375,185.6875, 0), v30, z5, tool0;
MoveL Offs(p0,83.2568,186.6712, 0), v30, z5, tool0;
MoveL Offs(p0,83.2109,187.7461, 0), v30, z5, tool0;
MoveL Offs(p0,83.20160000000001,188.91040000000004, 0), v30, z5, tool0;
MoveL Offs(p0,83.2307,190.16230000000002, 0), v30, z5, tool0;
MoveL Offs(p0,83.3,191.5, 0), v30, z5, tool0;
MoveL Offs(p0,83.3,191.5, 0), v30, z5, tool0;
MoveL Offs(p0,83.6267,194.8538, 0), v30, z5, tool0;
MoveL Offs(p0,84.24560000000004,198.01440000000005, 0), v30, z5, tool0;
MoveL Offs(p0,85.1549,200.98059999999998, 0), v30, z5, tool0;
MoveL Offs(p0,86.3528,203.7512, 0), v30, z5, tool0;
MoveL Offs(p0,87.8375,206.325, 0), v30, z5, tool0;
MoveL Offs(p0,89.60719999999999,208.70080000000002, 0), v30, z5, tool0;
MoveL Offs(p0,91.6601,210.8774, 0), v30, z5, tool0;
MoveL Offs(p0,93.99440000000001,212.8536, 0), v30, z5, tool0;
MoveL Offs(p0,96.60830000000001,214.62820000000002, 0), v30, z5, tool0;
MoveL Offs(p0,99.5,216.2, 0), v30, z5, tool0;
MoveL Offs(p0,99.5,216.2, 0), v30, z5, tool0;
MoveL Offs(p0,101.00990000000002,216.91260000000003, 0), v30, z5, tool0;
MoveL Offs(p0,102.33920000000003,217.49680000000006, 0), v30, z5, tool0;
MoveL Offs(p0,103.54729999999999,217.9622, 0), v30, z5, tool0;
MoveL Offs(p0,104.69359999999999,218.31840000000003, 0), v30, z5, tool0;
MoveL Offs(p0,105.8375,218.575, 0), v30, z5, tool0;
MoveL Offs(p0,107.0384,218.74159999999998, 0), v30, z5, tool0;
MoveL Offs(p0,108.3557,218.82779999999997, 0), v30, z5, tool0;
MoveL Offs(p0,109.84880000000003,218.84320000000002, 0), v30, z5, tool0;
MoveL Offs(p0,111.57710000000002,218.7974, 0), v30, z5, tool0;
MoveL Offs(p0,113.6,218.7, 0), v30, z5, tool0;
MoveL Offs(p0,113.6,218.7, 0), v30, z5, tool0;
MoveL Offs(p0,115.4351,218.60250000000005, 0), v30, z5, tool0;
MoveL Offs(p0,117.06080000000004,218.48400000000007, 0), v30, z5, tool0;
MoveL Offs(p0,118.5077,218.3355, 0), v30, z5, tool0;
MoveL Offs(p0,119.80640000000001,218.14800000000005, 0), v30, z5, tool0;
MoveL Offs(p0,120.9875,217.9125, 0), v30, z5, tool0;
MoveL Offs(p0,122.08160000000001,217.61999999999998, 0), v30, z5, tool0;
MoveL Offs(p0,123.11930000000002,217.26149999999998, 0), v30, z5, tool0;
MoveL Offs(p0,124.13119999999999,216.82800000000003, 0), v30, z5, tool0;
MoveL Offs(p0,125.1479,216.3105, 0), v30, z5, tool0;
MoveL Offs(p0,126.2,215.7, 0), v30, z5, tool0;
MoveL Offs(p0,126.2,215.7, 0), v30, z5, tool0;
MoveJ Offs(p0,57.4,179.1, 10), v30, z1, tool0;
MoveL Offs(p0,57.4,179.1, 0), v30, z5, tool0;
MoveL Offs(p0,57.6635,178.58050000000003, 0), v30, z5, tool0;
MoveL Offs(p0,57.91200000000002,177.99200000000005, 0), v30, z5, tool0;
MoveL Offs(p0,58.142500000000005,177.34949999999998, 0), v30, z5, tool0;
MoveL Offs(p0,58.352,176.66799999999998, 0), v30, z5, tool0;
MoveL Offs(p0,58.5375,175.9625, 0), v30, z5, tool0;
MoveL Offs(p0,58.696000000000005,175.248, 0), v30, z5, tool0;
MoveL Offs(p0,58.8245,174.5395, 0), v30, z5, tool0;
MoveL Offs(p0,58.92,173.85200000000003, 0), v30, z5, tool0;
MoveL Offs(p0,58.97950000000001,173.2005, 0), v30, z5, tool0;
MoveL Offs(p0,59.0,172.6, 0), v30, z5, tool0;
MoveL Offs(p0,59.0,172.6, 0), v30, z5, tool0;
MoveL Offs(p0,59.0133,171.76690000000002, 0), v30, z5, tool0;
MoveL Offs(p0,59.058400000000006,171.05920000000006, 0), v30, z5, tool0;
MoveL Offs(p0,59.143100000000004,170.46429999999998, 0), v30, z5, tool0;
MoveL Offs(p0,59.275200000000005,169.9696, 0), v30, z5, tool0;
MoveL Offs(p0,59.4625,169.5625, 0), v30, z5, tool0;
MoveL Offs(p0,59.7128,169.2304, 0), v30, z5, tool0;
MoveL Offs(p0,60.033899999999996,168.9607, 0), v30, z5, tool0;
MoveL Offs(p0,60.4336,168.7408, 0), v30, z5, tool0;
MoveL Offs(p0,60.9197,168.55810000000002, 0), v30, z5, tool0;
MoveL Offs(p0,61.5,168.4, 0), v30, z5, tool0;
MoveL Offs(p0,61.5,168.4, 0), v30, z5, tool0;
MoveL Offs(p0,62.157799999999995,168.18700000000004, 0), v30, z5, tool0;
MoveL Offs(p0,62.74240000000001,167.92000000000004, 0), v30, z5, tool0;
MoveL Offs(p0,63.24059999999999,167.617, 0), v30, z5, tool0;
MoveL Offs(p0,63.6392,167.29600000000002, 0), v30, z5, tool0;
MoveL Offs(p0,63.925,166.975, 0), v30, z5, tool0;
MoveL Offs(p0,64.0848,166.672, 0), v30, z5, tool0;
MoveL Offs(p0,64.1054,166.405, 0), v30, z5, tool0;
MoveL Offs(p0,63.97360000000001,166.192, 0), v30, z5, tool0;
MoveL Offs(p0,63.67620000000001,166.051, 0), v30, z5, tool0;
MoveL Offs(p0,63.2,166.0, 0), v30, z5, tool0;
MoveL Offs(p0,63.2,166.0, 0), v30, z5, tool0;
MoveL Offs(p0,62.41180000000001,165.82470000000004, 0), v30, z5, tool0;
MoveL Offs(p0,61.3464,165.32960000000006, 0), v30, z5, tool0;
MoveL Offs(p0,60.062599999999996,164.5609, 0), v30, z5, tool0;
MoveL Offs(p0,58.61920000000001,163.56480000000002, 0), v30, z5, tool0;
MoveL Offs(p0,57.075,162.3875, 0), v30, z5, tool0;
MoveL Offs(p0,55.48879999999999,161.0752, 0), v30, z5, tool0;
MoveL Offs(p0,53.919399999999996,159.6741, 0), v30, z5, tool0;
MoveL Offs(p0,52.42560000000001,158.2304, 0), v30, z5, tool0;
MoveL Offs(p0,51.0662,156.79030000000003, 0), v30, z5, tool0;
MoveL Offs(p0,49.9,155.4, 0), v30, z5, tool0;
MoveL Offs(p0,49.9,155.4, 0), v30, z5, tool0;
MoveL Offs(p0,46.22190000000001,149.7658, 0), v30, z5, tool0;
MoveL Offs(p0,43.743200000000016,143.71040000000002, 0), v30, z5, tool0;
MoveL Offs(p0,42.4273,137.3946, 0), v30, z5, tool0;
MoveL Offs(p0,42.2376,130.9792, 0), v30, z5, tool0;
MoveL Offs(p0,43.1375,124.625, 0), v30, z5, tool0;
MoveL Offs(p0,45.0904,118.49279999999999, 0), v30, z5, tool0;
MoveL Offs(p0,48.0597,112.7434, 0), v30, z5, tool0;
MoveL Offs(p0,52.00880000000001,107.53760000000003, 0), v30, z5, tool0;
MoveL Offs(p0,56.90110000000001,103.03620000000001, 0), v30, z5, tool0;
MoveL Offs(p0,62.7,99.4, 0), v30, z5, tool0;
MoveL Offs(p0,62.7,99.4, 0), v30, z5, tool0;
MoveL Offs(p0,64.1824,98.6627, 0), v30, z5, tool0;
MoveL Offs(p0,65.49920000000002,98.06160000000003, 0), v30, z5, tool0;
MoveL Offs(p0,66.72479999999999,97.5829, 0), v30, z5, tool0;
MoveL Offs(p0,67.93360000000001,97.21279999999999, 0), v30, z5, tool0;
MoveL Offs(p0,69.2,96.9375, 0), v30, z5, tool0;
MoveL Offs(p0,70.5984,96.7432, 0), v30, z5, tool0;
MoveL Offs(p0,72.20320000000001,96.6161, 0), v30, z5, tool0;
MoveL Offs(p0,74.08880000000002,96.5424, 0), v30, z5, tool0;
MoveL Offs(p0,76.3296,96.5083, 0), v30, z5, tool0;
MoveL Offs(p0,79.0,96.5, 0), v30, z5, tool0;
MoveL Offs(p0,79.0,96.5, 0), v30, z5, tool0;
MoveL Offs(p0,81.41280000000002,96.54000000000002, 0), v30, z5, tool0;
MoveL Offs(p0,83.51840000000001,96.60400000000001, 0), v30, z5, tool0;
MoveL Offs(p0,85.35759999999999,96.69800000000001, 0), v30, z5, tool0;
MoveL Offs(p0,86.9712,96.828, 0), v30, z5, tool0;
MoveL Offs(p0,88.4,97.0, 0), v30, z5, tool0;
MoveL Offs(p0,89.68480000000001,97.22, 0), v30, z5, tool0;
MoveL Offs(p0,90.8664,97.494, 0), v30, z5, tool0;
MoveL Offs(p0,91.9856,97.828, 0), v30, z5, tool0;
MoveL Offs(p0,93.0832,98.22800000000001, 0), v30, z5, tool0;
MoveL Offs(p0,94.2,98.7, 0), v30, z5, tool0;
MoveL Offs(p0,94.2,98.7, 0), v30, z5, tool0;
MoveL Offs(p0,95.87370000000001,99.56440000000002, 0), v30, z5, tool0;
MoveL Offs(p0,97.62960000000002,100.63520000000003, 0), v30, z5, tool0;
MoveL Offs(p0,99.42989999999999,101.8788, 0), v30, z5, tool0;
MoveL Offs(p0,101.2368,103.2616, 0), v30, z5, tool0;
MoveL Offs(p0,103.0125,104.75, 0), v30, z5, tool0;
MoveL Offs(p0,104.7192,106.3104, 0), v30, z5, tool0;
MoveL Offs(p0,106.3191,107.90920000000001, 0), v30, z5, tool0;
MoveL Offs(p0,107.77440000000001,109.51280000000001, 0), v30, z5, tool0;
MoveL Offs(p0,109.04730000000002,111.08760000000002, 0), v30, z5, tool0;
MoveL Offs(p0,110.1,112.6, 0), v30, z5, tool0;
MoveL Offs(p0,112.2,116.0, 0), v30, z5, tool0;
MoveL Offs(p0,115.3,111.3, 0), v30, z5, tool0;
MoveL Offs(p0,115.3,111.3, 0), v30, z5, tool0;
MoveL Offs(p0,116.55940000000001,109.56950000000002, 0), v30, z5, tool0;
MoveL Offs(p0,117.93520000000004,107.92, 0), v30, z5, tool0;
MoveL Offs(p0,119.4238,106.35449999999999, 0), v30, z5, tool0;
MoveL Offs(p0,121.0216,104.876, 0), v30, z5, tool0;
MoveL Offs(p0,122.725,103.4875, 0), v30, z5, tool0;
MoveL Offs(p0,124.53040000000001,102.19200000000001, 0), v30, z5, tool0;
MoveL Offs(p0,126.43419999999999,100.99249999999999, 0), v30, z5, tool0;
MoveL Offs(p0,128.4328,99.89200000000001, 0), v30, z5, tool0;
MoveL Offs(p0,130.5226,98.89349999999999, 0), v30, z5, tool0;
MoveL Offs(p0,132.7,98.0, 0), v30, z5, tool0;
MoveL Offs(p0,132.7,98.0, 0), v30, z5, tool0;
MoveL Offs(p0,135.2231,97.2046, 0), v30, z5, tool0;
MoveL Offs(p0,137.95680000000007,96.61680000000003, 0), v30, z5, tool0;
MoveL Offs(p0,140.8477,96.2342, 0), v30, z5, tool0;
MoveL Offs(p0,143.8424,96.05440000000002, 0), v30, z5, tool0;
MoveL Offs(p0,146.8875,96.075, 0), v30, z5, tool0;
MoveL Offs(p0,149.9296,96.2936, 0), v30, z5, tool0;
MoveL Offs(p0,152.9153,96.70779999999999, 0), v30, z5, tool0;
MoveL Offs(p0,155.7912,97.3152, 0), v30, z5, tool0;
MoveL Offs(p0,158.5039,98.1134, 0), v30, z5, tool0;
MoveL Offs(p0,161.0,99.1, 0), v30, z5, tool0;
MoveL Offs(p0,161.0,99.1, 0), v30, z5, tool0;
MoveL Offs(p0,163.1131,100.18710000000002, 0), v30, z5, tool0;
MoveL Offs(p0,165.23280000000005,101.50880000000002, 0), v30, z5, tool0;
MoveL Offs(p0,167.3297,103.03569999999999, 0), v30, z5, tool0;
MoveL Offs(p0,169.3744,104.7384, 0), v30, z5, tool0;
MoveL Offs(p0,171.3375,106.5875, 0), v30, z5, tool0;
MoveL Offs(p0,173.18959999999998,108.5536, 0), v30, z5, tool0;
MoveL Offs(p0,174.9013,110.60730000000001, 0), v30, z5, tool0;
MoveL Offs(p0,176.44320000000002,112.7192, 0), v30, z5, tool0;
MoveL Offs(p0,177.78590000000003,114.8599, 0), v30, z5, tool0;
MoveL Offs(p0,178.9,117.0, 0), v30, z5, tool0;
MoveL Offs(p0,178.9,117.0, 0), v30, z5, tool0;
MoveL Offs(p0,179.53170000000006,118.3656, 0), v30, z5, tool0;
MoveL Offs(p0,180.05360000000002,119.62080000000003, 0), v30, z5, tool0;
MoveL Offs(p0,180.4759,120.8232, 0), v30, z5, tool0;
MoveL Offs(p0,180.80880000000002,122.03040000000001, 0), v30, z5, tool0;
MoveL Offs(p0,181.0625,123.3, 0), v30, z5, tool0;
MoveL Offs(p0,181.2472,124.6896, 0), v30, z5, tool0;
MoveL Offs(p0,181.37309999999997,126.2568, 0), v30, z5, tool0;
MoveL Offs(p0,181.4504,128.0592, 0), v30, z5, tool0;
MoveL Offs(p0,181.48930000000001,130.1544, 0), v30, z5, tool0;
MoveL Offs(p0,181.5,132.6, 0), v30, z5, tool0;
MoveL Offs(p0,181.5,132.6, 0), v30, z5, tool0;
MoveL Offs(p0,181.49110000000002,135.2332, 0), v30, z5, tool0;
MoveL Offs(p0,181.45280000000005,137.42960000000002, 0), v30, z5, tool0;
MoveL Offs(p0,181.36769999999996,139.27439999999999, 0), v30, z5, tool0;
MoveL Offs(p0,181.2184,140.8528, 0), v30, z5, tool0;
MoveL Offs(p0,180.9875,142.25, 0), v30, z5, tool0;
MoveL Offs(p0,180.65760000000003,143.55120000000002, 0), v30, z5, tool0;
MoveL Offs(p0,180.2113,144.8416, 0), v30, z5, tool0;
MoveL Offs(p0,179.6312,146.20640000000003, 0), v30, z5, tool0;
MoveL Offs(p0,178.8999,147.73080000000002, 0), v30, z5, tool0;
MoveL Offs(p0,178.0,149.5, 0), v30, z5, tool0;
MoveL Offs(p0,178.0,149.5, 0), v30, z5, tool0;
MoveL Offs(p0,177.4285,150.61960000000005, 0), v30, z5, tool0;
MoveL Offs(p0,176.86000000000004,151.68880000000004, 0), v30, z5, tool0;
MoveL Offs(p0,176.30349999999999,152.6932, 0), v30, z5, tool0;
MoveL Offs(p0,175.768,153.6184, 0), v30, z5, tool0;
MoveL Offs(p0,175.2625,154.45, 0), v30, z5, tool0;
MoveL Offs(p0,174.796,155.17360000000002, 0), v30, z5, tool0;
MoveL Offs(p0,174.37749999999997,155.7748, 0), v30, z5, tool0;
MoveL Offs(p0,174.01600000000002,156.23920000000004, 0), v30, z5, tool0;
MoveL Offs(p0,173.7205,156.55239999999998, 0), v30, z5, tool0;
MoveL Offs(p0,173.5,156.7, 0), v30, z5, tool0;
MoveL Offs(p0,173.5,156.7, 0), v30, z5, tool0;
MoveL Offs(p0,173.3272,156.68600000000004, 0), v30, z5, tool0;
MoveL Offs(p0,173.11360000000005,156.58800000000002, 0), v30, z5, tool0;
MoveL Offs(p0,172.86639999999997,156.412, 0), v30, z5, tool0;
MoveL Offs(p0,172.59280000000004,156.16400000000002, 0), v30, z5, tool0;
MoveL Offs(p0,172.3,155.85, 0), v30, z5, tool0;
MoveL Offs(p0,171.9952,155.476, 0), v30, z5, tool0;
MoveL Offs(p0,171.68559999999997,155.048, 0), v30, z5, tool0;
MoveL Offs(p0,171.3784,154.57200000000003, 0), v30, z5, tool0;
MoveL Offs(p0,171.0808,154.054, 0), v30, z5, tool0;
MoveL Offs(p0,170.8,153.5, 0), v30, z5, tool0;
MoveL Offs(p0,170.8,153.5, 0), v30, z5, tool0;
MoveL Offs(p0,170.34120000000001,152.59420000000003, 0), v30, z5, tool0;
MoveL Offs(p0,169.98560000000003,151.83360000000002, 0), v30, z5, tool0;
MoveL Offs(p0,169.7344,151.18339999999998, 0), v30, z5, tool0;
MoveL Offs(p0,169.58880000000002,150.6088, 0), v30, z5, tool0;
MoveL Offs(p0,169.55,150.075, 0), v30, z5, tool0;
MoveL Offs(p0,169.6192,149.5472, 0), v30, z5, tool0;
MoveL Offs(p0,169.79760000000002,148.9906, 0), v30, z5, tool0;
MoveL Offs(p0,170.0864,148.37040000000002, 0), v30, z5, tool0;
MoveL Offs(p0,170.4868,147.6518, 0), v30, z5, tool0;
MoveL Offs(p0,171.0,146.8, 0), v30, z5, tool0;
MoveL Offs(p0,171.0,146.8, 0), v30, z5, tool0;
MoveL Offs(p0,172.58540000000002,143.51730000000003, 0), v30, z5, tool0;
MoveL Offs(p0,173.68720000000002,140.01440000000005, 0), v30, z5, tool0;
MoveL Offs(p0,174.31379999999996,136.3591, 0), v30, z5, tool0;
MoveL Offs(p0,174.4736,132.6192, 0), v30, z5, tool0;
MoveL Offs(p0,174.175,128.8625, 0), v30, z5, tool0;
MoveL Offs(p0,173.4264,125.1568, 0), v30, z5, tool0;
MoveL Offs(p0,172.2362,121.5699, 0), v30, z5, tool0;
MoveL Offs(p0,170.61280000000002,118.16960000000002, 0), v30, z5, tool0;
MoveL Offs(p0,168.5646,115.0237, 0), v30, z5, tool0;
MoveL Offs(p0,166.1,112.2, 0), v30, z5, tool0;
MoveL Offs(p0,166.1,112.2, 0), v30, z5, tool0;
MoveL Offs(p0,161.14270000000002,108.18400000000001, 0), v30, z5, tool0;
MoveL Offs(p0,155.69760000000002,105.46400000000006, 0), v30, z5, tool0;
MoveL Offs(p0,149.95489999999998,103.99199999999999, 0), v30, z5, tool0;
MoveL Offs(p0,144.1048,103.72, 0), v30, z5, tool0;
MoveL Offs(p0,138.3375,104.6, 0), v30, z5, tool0;
MoveL Offs(p0,132.8432,106.58399999999999, 0), v30, z5, tool0;
MoveL Offs(p0,127.81209999999999,109.624, 0), v30, z5, tool0;
MoveL Offs(p0,123.43440000000001,113.672, 0), v30, z5, tool0;
MoveL Offs(p0,119.90030000000002,118.67999999999999, 0), v30, z5, tool0;
MoveL Offs(p0,117.4,124.6, 0), v30, z5, tool0;
MoveL Offs(p0,117.4,124.6, 0), v30, z5, tool0;
MoveL Offs(p0,116.93800000000002,126.35070000000003, 0), v30, z5, tool0;
MoveL Offs(p0,116.57200000000003,128.16560000000004, 0), v30, z5, tool0;
MoveL Offs(p0,116.30199999999998,130.0189, 0), v30, z5, tool0;
MoveL Offs(p0,116.128,131.8848, 0), v30, z5, tool0;
MoveL Offs(p0,116.05,133.7375, 0), v30, z5, tool0;
MoveL Offs(p0,116.06800000000001,135.5512, 0), v30, z5, tool0;
MoveL Offs(p0,116.18199999999999,137.3001, 0), v30, z5, tool0;
MoveL Offs(p0,116.39200000000001,138.9584, 0), v30, z5, tool0;
MoveL Offs(p0,116.69800000000001,140.50029999999998, 0), v30, z5, tool0;
MoveL Offs(p0,117.1,141.9, 0), v30, z5, tool0;
MoveL Offs(p0,117.1,141.9, 0), v30, z5, tool0;
MoveL Offs(p0,117.4659,143.07340000000002, 0), v30, z5, tool0;
MoveL Offs(p0,117.62720000000004,144.11120000000005, 0), v30, z5, tool0;
MoveL Offs(p0,117.52929999999999,145.06980000000001, 0), v30, z5, tool0;
MoveL Offs(p0,117.11760000000001,146.00560000000002, 0), v30, z5, tool0;
MoveL Offs(p0,116.3375,146.975, 0), v30, z5, tool0;
MoveL Offs(p0,115.1344,148.0344, 0), v30, z5, tool0;
MoveL Offs(p0,113.4537,149.24020000000002, 0), v30, z5, tool0;
MoveL Offs(p0,111.24080000000001,150.64880000000002, 0), v30, z5, tool0;
MoveL Offs(p0,108.4411,152.31660000000002, 0), v30, z5, tool0;
MoveL Offs(p0,105.0,154.3, 0), v30, z5, tool0;
MoveL Offs(p0,105.0,154.3, 0), v30, z5, tool0;
MoveL Offs(p0,103.24840000000002,155.306, 0), v30, z5, tool0;
MoveL Offs(p0,101.15120000000005,156.50400000000002, 0), v30, z5, tool0;
MoveL Offs(p0,98.7648,157.864, 0), v30, z5, tool0;
MoveL Offs(p0,96.1456,159.35600000000002, 0), v30, z5, tool0;
MoveL Offs(p0,93.35,160.95, 0), v30, z5, tool0;
MoveL Offs(p0,90.4344,162.616, 0), v30, z5, tool0;
MoveL Offs(p0,87.45519999999999,164.324, 0), v30, z5, tool0;
MoveL Offs(p0,84.46880000000002,166.044, 0), v30, z5, tool0;
MoveL Offs(p0,81.5316,167.746, 0), v30, z5, tool0;
MoveL Offs(p0,78.7,169.4, 0), v30, z5, tool0;
MoveL Offs(p0,78.7,169.4, 0), v30, z5, tool0;
MoveL Offs(p0,75.92890000000003,170.9772, 0), v30, z5, tool0;
MoveL Offs(p0,73.22320000000002,172.51360000000005, 0), v30, z5, tool0;
MoveL Offs(p0,70.62429999999999,173.98639999999997, 0), v30, z5, tool0;
MoveL Offs(p0,68.17360000000001,175.3728, 0), v30, z5, tool0;
MoveL Offs(p0,65.9125,176.65, 0), v30, z5, tool0;
MoveL Offs(p0,63.8824,177.7952, 0), v30, z5, tool0;
MoveL Offs(p0,62.1247,178.7856, 0), v30, z5, tool0;
MoveL Offs(p0,60.6808,179.59840000000003, 0), v30, z5, tool0;
MoveL Offs(p0,59.5921,180.2108, 0), v30, z5, tool0;
MoveL Offs(p0,58.9,180.6, 0), v30, z5, tool0;
MoveL Offs(p0,55.9,182.1, 0), v30, z5, tool0;
MoveL Offs(p0,57.4,179.1, 0), v30, z5, tool0;
MoveL Offs(p0,57.4,179.1, 0), v30, z5, tool0;
MoveJ Offs(p0,90.3,151.9, 10), v30, z1, tool0;
MoveL Offs(p0,90.3,151.9, 0), v30, z5, tool0;
MoveL Offs(p0,94.99950000000001,149.1699, 0), v30, z5, tool0;
MoveL Offs(p0,98.78400000000002,146.90720000000005, 0), v30, z5, tool0;
MoveL Offs(p0,101.75249999999998,145.0033, 0), v30, z5, tool0;
MoveL Offs(p0,104.00400000000002,143.3496, 0), v30, z5, tool0;
MoveL Offs(p0,105.6375,141.8375, 0), v30, z5, tool0;
MoveL Offs(p0,106.752,140.35840000000002, 0), v30, z5, tool0;
MoveL Offs(p0,107.44649999999999,138.8037, 0), v30, z5, tool0;
MoveL Offs(p0,107.82000000000002,137.06480000000002, 0), v30, z5, tool0;
MoveL Offs(p0,107.97149999999999,135.03310000000002, 0), v30, z5, tool0;
MoveL Offs(p0,108.0,132.6, 0), v30, z5, tool0;
MoveL Offs(p0,108.0,132.6, 0), v30, z5, tool0;
MoveL Offs(p0,107.29490000000001,126.20020000000002, 0), v30, z5, tool0;
MoveL Offs(p0,105.29920000000004,120.38960000000004, 0), v30, z5, tool0;
MoveL Offs(p0,102.1923,115.2714, 0), v30, z5, tool0;
MoveL Offs(p0,98.15360000000001,110.9488, 0), v30, z5, tool0;
MoveL Offs(p0,93.3625,107.525, 0), v30, z5, tool0;
MoveL Offs(p0,87.99839999999999,105.10319999999999, 0), v30, z5, tool0;
MoveL Offs(p0,82.24069999999999,103.78659999999999, 0), v30, z5, tool0;
MoveL Offs(p0,76.2688,103.67840000000001, 0), v30, z5, tool0;
MoveL Offs(p0,70.2621,104.8818, 0), v30, z5, tool0;
MoveL Offs(p0,64.4,107.5, 0), v30, z5, tool0;
MoveL Offs(p0,64.4,107.5, 0), v30, z5, tool0;
MoveL Offs(p0,59.912,110.75609999999999, 0), v30, z5, tool0;
MoveL Offs(p0,56.24000000000002,114.67280000000002, 0), v30, z5, tool0;
MoveL Offs(p0,53.402,119.11269999999999, 0), v30, z5, tool0;
MoveL Offs(p0,51.416,123.9384, 0), v30, z5, tool0;
MoveL Offs(p0,50.3,129.0125, 0), v30, z5, tool0;
MoveL Offs(p0,50.071999999999996,134.19760000000002, 0), v30, z5, tool0;
MoveL Offs(p0,50.75,139.3563, 0), v30, z5, tool0;
MoveL Offs(p0,52.35200000000001,144.3512, 0), v30, z5, tool0;
MoveL Offs(p0,54.896,149.0449, 0), v30, z5, tool0;
MoveL Offs(p0,58.4,153.3, 0), v30, z5, tool0;
MoveL Offs(p0,58.4,153.3, 0), v30, z5, tool0;
MoveL Offs(p0,59.61020000000002,154.4147, 0), v30, z5, tool0;
MoveL Offs(p0,60.98960000000002,155.52160000000003, 0), v30, z5, tool0;
MoveL Offs(p0,62.4914,156.5949, 0), v30, z5, tool0;
MoveL Offs(p0,64.0688,157.60880000000003, 0), v30, z5, tool0;
MoveL Offs(p0,65.675,158.5375, 0), v30, z5, tool0;
MoveL Offs(p0,67.26320000000001,159.35520000000002, 0), v30, z5, tool0;
MoveL Offs(p0,68.78659999999999,160.03609999999998, 0), v30, z5, tool0;
MoveL Offs(p0,70.19840000000002,160.55440000000002, 0), v30, z5, tool0;
MoveL Offs(p0,71.4518,160.8843, 0), v30, z5, tool0;
MoveL Offs(p0,72.5,161.0, 0), v30, z5, tool0;
MoveL Offs(p0,72.5,161.0, 0), v30, z5, tool0;
MoveL Offs(p0,73.03080000000001,160.8802, 0), v30, z5, tool0;
MoveL Offs(p0,73.93840000000003,160.53360000000004, 0), v30, z5, tool0;
MoveL Offs(p0,75.1856,159.9794, 0), v30, z5, tool0;
MoveL Offs(p0,76.7352,159.23680000000002, 0), v30, z5, tool0;
MoveL Offs(p0,78.55,158.325, 0), v30, z5, tool0;
MoveL Offs(p0,80.5928,157.2632, 0), v30, z5, tool0;
MoveL Offs(p0,82.82639999999999,156.0706, 0), v30, z5, tool0;
MoveL Offs(p0,85.21360000000001,154.76640000000003, 0), v30, z5, tool0;
MoveL Offs(p0,87.7172,153.3698, 0), v30, z5, tool0;
MoveL Offs(p0,90.3,151.9, 0), v30, z5, tool0;
MoveL Offs(p0,90.3,151.9, 0), v30, z5, tool0;
MoveJ Offs(p0,6.0,49.2, 10), v30, z1, tool0;
MoveL Offs(p0,6.0,49.2, 0), v30, z5, tool0;
MoveL Offs(p0,6.0053,44.03240000000001, 0), v30, z5, tool0;
MoveL Offs(p0,6.030400000000002,39.839200000000005, 0), v30, z5, tool0;
MoveL Offs(p0,6.0891,36.4848, 0), v30, z5, tool0;
MoveL Offs(p0,6.1952,33.833600000000004, 0), v30, z5, tool0;
MoveL Offs(p0,6.3625,31.75, 0), v30, z5, tool0;
MoveL Offs(p0,6.6048,30.098399999999998, 0), v30, z5, tool0;
MoveL Offs(p0,6.935899999999999,28.7432, 0), v30, z5, tool0;
MoveL Offs(p0,7.369600000000001,27.548800000000007, 0), v30, z5, tool0;
MoveL Offs(p0,7.919700000000001,26.3796, 0), v30, z5, tool0;
MoveL Offs(p0,8.6,25.1, 0), v30, z5, tool0;
MoveL Offs(p0,8.6,25.1, 0), v30, z5, tool0;
MoveL Offs(p0,9.547900000000002,23.4874, 0), v30, z5, tool0;
MoveL Offs(p0,10.543200000000002,22.063200000000002, 0), v30, z5, tool0;
MoveL Offs(p0,11.6033,20.8178, 0), v30, z5, tool0;
MoveL Offs(p0,12.745600000000001,19.7416, 0), v30, z5, tool0;
MoveL Offs(p0,13.9875,18.825, 0), v30, z5, tool0;
MoveL Offs(p0,15.346400000000003,18.0584, 0), v30, z5, tool0;
MoveL Offs(p0,16.8397,17.4322, 0), v30, z5, tool0;
MoveL Offs(p0,18.4848,16.936799999999998, 0), v30, z5, tool0;
MoveL Offs(p0,20.2991,16.5626, 0), v30, z5, tool0;
MoveL Offs(p0,22.3,16.3, 0), v30, z5, tool0;
MoveL Offs(p0,22.3,16.3, 0), v30, z5, tool0;
MoveL Offs(p0,25.3392,16.1423, 0), v30, z5, tool0;
MoveL Offs(p0,28.20560000000001,16.322400000000005, 0), v30, z5, tool0;
MoveL Offs(p0,30.8824,16.830099999999995, 0), v30, z5, tool0;
MoveL Offs(p0,33.3528,17.6552, 0), v30, z5, tool0;
MoveL Offs(p0,35.6,18.7875, 0), v30, z5, tool0;
MoveL Offs(p0,37.6072,20.2168, 0), v30, z5, tool0;
MoveL Offs(p0,39.357600000000005,21.9329, 0), v30, z5, tool0;
MoveL Offs(p0,40.8344,23.925600000000003, 0), v30, z5, tool0;
MoveL Offs(p0,42.0208,26.1847, 0), v30, z5, tool0;
MoveL Offs(p0,42.9,28.7, 0), v30, z5, tool0;
MoveL Offs(p0,42.9,28.7, 0), v30, z5, tool0;
MoveL Offs(p0,43.0766,29.5505, 0), v30, z5, tool0;
MoveL Offs(p0,43.24480000000001,30.812000000000005, 0), v30, z5, tool0;
MoveL Offs(p0,43.4022,32.439499999999995, 0), v30, z5, tool0;
MoveL Offs(p0,43.546400000000006,34.388, 0), v30, z5, tool0;
MoveL Offs(p0,43.675,36.6125, 0), v30, z5, tool0;
MoveL Offs(p0,43.7856,39.068000000000005, 0), v30, z5, tool0;
MoveL Offs(p0,43.875800000000005,41.709500000000006, 0), v30, z5, tool0;
MoveL Offs(p0,43.943200000000004,44.492000000000004, 0), v30, z5, tool0;
MoveL Offs(p0,43.985400000000006,47.37050000000001, 0), v30, z5, tool0;
MoveL Offs(p0,44.0,50.3, 0), v30, z5, tool0;
MoveL Offs(p0,44.0,68.0, 0), v30, z5, tool0;
MoveL Offs(p0,40.5,68.0, 0), v30, z5, tool0;
MoveL Offs(p0,37.0,68.0, 0), v30, z5, tool0;
MoveL Offs(p0,37.0,50.5, 0), v30, z5, tool0;
MoveL Offs(p0,37.0,50.5, 0), v30, z5, tool0;
MoveL Offs(p0,36.972300000000004,45.0358, 0), v30, z5, tool0;
MoveL Offs(p0,36.87440000000001,40.45840000000001, 0), v30, z5, tool0;
MoveL Offs(p0,36.684099999999994,36.67059999999999, 0), v30, z5, tool0;
MoveL Offs(p0,36.379200000000004,33.5752, 0), v30, z5, tool0;
MoveL Offs(p0,35.9375,31.075, 0), v30, z5, tool0;
MoveL Offs(p0,35.3368,29.0728, 0), v30, z5, tool0;
MoveL Offs(p0,34.554899999999996,27.4714, 0), v30, z5, tool0;
MoveL Offs(p0,33.5696,26.1736, 0), v30, z5, tool0;
MoveL Offs(p0,32.3587,25.0822, 0), v30, z5, tool0;
MoveL Offs(p0,30.9,24.1, 0), v30, z5, tool0;
MoveL Offs(p0,30.9,24.1, 0), v30, z5, tool0;
MoveL Offs(p0,29.63620000000001,23.4667, 0), v30, z5, tool0;
MoveL Offs(p0,28.265600000000006,23.00560000000001, 0), v30, z5, tool0;
MoveL Offs(p0,26.8194,22.7149, 0), v30, z5, tool0;
MoveL Offs(p0,25.3288,22.592800000000004, 0), v30, z5, tool0;
MoveL Offs(p0,23.825,22.6375, 0), v30, z5, tool0;
MoveL Offs(p0,22.339199999999998,22.847199999999997, 0), v30, z5, tool0;
MoveL Offs(p0,20.9026,23.2201, 0), v30, z5, tool0;
MoveL Offs(p0,19.5464,23.754400000000004, 0), v30, z5, tool0;
MoveL Offs(p0,18.3018,24.4483, 0), v30, z5, tool0;
MoveL Offs(p0,17.2,25.3, 0), v30, z5, tool0;
MoveL Offs(p0,17.2,25.3, 0), v30, z5, tool0;
MoveL Offs(p0,16.2562,26.314000000000004, 0), v30, z5, tool0;
MoveL Offs(p0,15.457600000000005,27.48400000000001, 0), v30, z5, tool0;
MoveL Offs(p0,14.793399999999997,28.882000000000005, 0), v30, z5, tool0;
MoveL Offs(p0,14.252799999999999,30.580000000000002, 0), v30, z5, tool0;
MoveL Offs(p0,13.825,32.65, 0), v30, z5, tool0;
MoveL Offs(p0,13.499199999999998,35.164, 0), v30, z5, tool0;
MoveL Offs(p0,13.264599999999998,38.194, 0), v30, z5, tool0;
MoveL Offs(p0,13.110400000000002,41.812000000000005, 0), v30, z5, tool0;
MoveL Offs(p0,13.0258,46.09, 0), v30, z5, tool0;
MoveL Offs(p0,13.0,51.1, 0), v30, z5, tool0;
MoveL Offs(p0,13.0,67.8, 0), v30, z5, tool0;
MoveL Offs(p0,9.5,68.2, 0), v30, z5, tool0;
MoveL Offs(p0,6.0,68.6, 0), v30, z5, tool0;
MoveL Offs(p0,6.0,49.2, 0), v30, z5, tool0;
MoveL Offs(p0,6.0,49.2, 0), v30, z5, tool0;
MoveJ Offs(p0,57.0,42.5, 10), v30, z1, tool0;
MoveL Offs(p0,57.0,17.0, 0), v30, z5, tool0;
MoveL Offs(p0,61.0,17.0, 0), v30, z5, tool0;
MoveL Offs(p0,65.0,17.0, 0), v30, z5, tool0;
MoveL Offs(p0,65.0,28.5, 0), v30, z5, tool0;
MoveL Offs(p0,65.0,40.0, 0), v30, z5, tool0;
MoveL Offs(p0,74.0,40.0, 0), v30, z5, tool0;
MoveL Offs(p0,74.0,40.0, 0), v30, z5, tool0;
MoveL Offs(p0,76.41470000000001,40.002500000000005, 0), v30, z5, tool0;
MoveL Offs(p0,78.35360000000003,40.02000000000001, 0), v30, z5, tool0;
MoveL Offs(p0,79.86889999999998,40.0675, 0), v30, z5, tool0;
MoveL Offs(p0,81.0128,40.16, 0), v30, z5, tool0;
MoveL Offs(p0,81.8375,40.3125, 0), v30, z5, tool0;
MoveL Offs(p0,82.3952,40.54, 0), v30, z5, tool0;
MoveL Offs(p0,82.7381,40.8575, 0), v30, z5, tool0;
MoveL Offs(p0,82.9184,41.28000000000001, 0), v30, z5, tool0;
MoveL Offs(p0,82.98830000000001,41.822500000000005, 0), v30, z5, tool0;
MoveL Offs(p0,83.0,42.5, 0), v30, z5, tool0;
MoveL Offs(p0,83.0,42.5, 0), v30, z5, tool0;
MoveL Offs(p0,82.99710000000002,42.91910000000001, 0), v30, z5, tool0;
MoveL Offs(p0,82.98880000000003,43.332800000000006, 0), v30, z5, tool0;
MoveL Offs(p0,82.9757,43.735699999999994, 0), v30, z5, tool0;
MoveL Offs(p0,82.95840000000001,44.122400000000006, 0), v30, z5, tool0;
MoveL Offs(p0,82.9375,44.4875, 0), v30, z5, tool0;
MoveL Offs(p0,82.9136,44.8256, 0), v30, z5, tool0;
MoveL Offs(p0,82.88730000000001,45.131299999999996, 0), v30, z5, tool0;
MoveL Offs(p0,82.85920000000002,45.39920000000001, 0), v30, z5, tool0;
MoveL Offs(p0,82.8299,45.623900000000006, 0), v30, z5, tool0;
MoveL Offs(p0,82.8,45.8, 0), v30, z5, tool0;
MoveL Offs(p0,82.8,45.8, 0), v30, z5, tool0;
MoveL Offs(p0,82.62900000000002,45.91100000000001, 0), v30, z5, tool0;
MoveL Offs(p0,82.24800000000002,46.00400000000001, 0), v30, z5, tool0;
MoveL Offs(p0,81.67500000000001,46.07899999999999, 0), v30, z5, tool0;
MoveL Offs(p0,80.92800000000001,46.136, 0), v30, z5, tool0;
MoveL Offs(p0,80.025,46.175, 0), v30, z5, tool0;
MoveL Offs(p0,78.98400000000001,46.19599999999999, 0), v30, z5, tool0;
MoveL Offs(p0,77.82300000000001,46.199, 0), v30, z5, tool0;
MoveL Offs(p0,76.56000000000002,46.184000000000005, 0), v30, z5, tool0;
MoveL Offs(p0,75.213,46.150999999999996, 0), v30, z5, tool0;
MoveL Offs(p0,73.8,46.1, 0), v30, z5, tool0;
MoveL Offs(p0,65.0,45.8, 0), v30, z5, tool0;
MoveL Offs(p0,65.0,53.9, 0), v30, z5, tool0;
MoveL Offs(p0,65.0,62.0, 0), v30, z5, tool0;
MoveL Offs(p0,74.5,62.0, 0), v30, z5, tool0;
MoveL Offs(p0,84.0,62.0, 0), v30, z5, tool0;
MoveL Offs(p0,84.0,65.0, 0), v30, z5, tool0;
MoveL Offs(p0,84.0,68.0, 0), v30, z5, tool0;
MoveL Offs(p0,70.5,68.0, 0), v30, z5, tool0;
MoveL Offs(p0,57.0,68.0, 0), v30, z5, tool0;
MoveL Offs(p0,57.0,42.5, 0), v30, z5, tool0;
MoveL Offs(p0,57.0,42.5, 0), v30, z5, tool0;
MoveJ Offs(p0,97.0,43.8, 10), v30, z1, tool0;
MoveL Offs(p0,97.0,43.8, 0), v30, z5, tool0;
MoveL Offs(p0,95.46470000000002,39.9, 0), v30, z5, tool0;
MoveL Offs(p0,93.99360000000003,36.15600000000001, 0), v30, z5, tool0;
MoveL Offs(p0,92.6089,32.62199999999999, 0), v30, z5, tool0;
MoveL Offs(p0,91.33279999999999,29.351999999999997, 0), v30, z5, tool0;
MoveL Offs(p0,90.1875,26.4, 0), v30, z5, tool0;
MoveL Offs(p0,89.1952,23.82, 0), v30, z5, tool0;
MoveL Offs(p0,88.37809999999999,21.665999999999997, 0), v30, z5, tool0;
MoveL Offs(p0,87.75840000000001,19.992, 0), v30, z5, tool0;
MoveL Offs(p0,87.35830000000001,18.852, 0), v30, z5, tool0;
MoveL Offs(p0,87.2,18.3, 0), v30, z5, tool0;
MoveL Offs(p0,87.2,18.3, 0), v30, z5, tool0;
MoveL Offs(p0,87.1439,17.9938, 0), v30, z5, tool0;
MoveL Offs(p0,87.15920000000003,17.7344, 0), v30, z5, tool0;
MoveL Offs(p0,87.2513,17.520599999999998, 0), v30, z5, tool0;
MoveL Offs(p0,87.4256,17.3512, 0), v30, z5, tool0;
MoveL Offs(p0,87.6875,17.225, 0), v30, z5, tool0;
MoveL Offs(p0,88.04240000000001,17.1408, 0), v30, z5, tool0;
MoveL Offs(p0,88.4957,17.0974, 0), v30, z5, tool0;
MoveL Offs(p0,89.05280000000002,17.093600000000002, 0), v30, z5, tool0;
MoveL Offs(p0,89.7191,17.1282, 0), v30, z5, tool0;
MoveL Offs(p0,90.5,17.2, 0), v30, z5, tool0;
MoveL Offs(p0,90.5,17.2, 0), v30, z5, tool0;
MoveL Offs(p0,91.45930000000001,17.295700000000004, 0), v30, z5, tool0;
MoveL Offs(p0,92.25840000000002,17.425600000000003, 0), v30, z5, tool0;
MoveL Offs(p0,92.9291,17.6239, 0), v30, z5, tool0;
MoveL Offs(p0,93.5032,17.9248, 0), v30, z5, tool0;
MoveL Offs(p0,94.0125,18.3625, 0), v30, z5, tool0;
MoveL Offs(p0,94.4888,18.9712, 0), v30, z5, tool0;
MoveL Offs(p0,94.9639,19.7851, 0), v30, z5, tool0;
MoveL Offs(p0,95.46960000000001,20.8384, 0), v30, z5, tool0;
MoveL Offs(p0,96.0377,22.1653, 0), v30, z5, tool0;
MoveL Offs(p0,96.7,23.8, 0), v30, z5, tool0;
MoveL Offs(p0,99.2,30.0, 0), v30, z5, tool0;
MoveL Offs(p0,111.0,30.0, 0), v30, z5, tool0;
MoveL Offs(p0,122.8,30.0, 0), v30, z5, tool0;
MoveL Offs(p0,125.2,23.5, 0), v30, z5, tool0;
MoveL Offs(p0,127.5,17.0, 0), v30, z5, tool0;
MoveL Offs(p0,131.7,17.0, 0), v30, z5, tool0;
MoveL Offs(p0,136.0,17.0, 0), v30, z5, tool0;
MoveL Offs(p0,133.9,22.3, 0), v30, z5, tool0;
MoveL Offs(p0,133.9,22.3, 0), v30, z5, tool0;
MoveL Offs(p0,133.4687,23.392000000000003, 0), v30, z5, tool0;
MoveL Offs(p0,132.84960000000007,24.95200000000001, 0), v30, z5, tool0;
MoveL Offs(p0,132.0649,26.926, 0), v30, z5, tool0;
MoveL Offs(p0,131.1368,29.26, 0), v30, z5, tool0;
MoveL Offs(p0,130.0875,31.9, 0), v30, z5, tool0;
MoveL Offs(p0,128.93919999999997,34.792, 0), v30, z5, tool0;
MoveL Offs(p0,127.7141,37.882000000000005, 0), v30, z5, tool0;
MoveL Offs(p0,126.43440000000001,41.11600000000001, 0), v30, z5, tool0;
MoveL Offs(p0,125.1223,44.440000000000005, 0), v30, z5, tool0;
MoveL Offs(p0,123.8,47.8, 0), v30, z5, tool0;
MoveL Offs(p0,115.9,68.0, 0), v30, z5, tool0;
MoveL Offs(p0,111.2,68.0, 0), v30, z5, tool0;
MoveL Offs(p0,106.5,67.9, 0), v30, z5, tool0;
MoveL Offs(p0,97.0,43.8, 0), v30, z5, tool0;
MoveL Offs(p0,97.0,43.8, 0), v30, z5, tool0;
MoveJ Offs(p0,120.3,37.3, 10), v30, z1, tool0;
MoveL Offs(p0,120.3,37.3, 0), v30, z5, tool0;
MoveL Offs(p0,120.40200000000002,37.02060000000001, 0), v30, z5, tool0;
MoveL Offs(p0,120.33600000000004,36.78080000000001, 0), v30, z5, tool0;
MoveL Offs(p0,120.08399999999999,36.578199999999995, 0), v30, z5, tool0;
MoveL Offs(p0,119.628,36.4104, 0), v30, z5, tool0;
MoveL Offs(p0,118.95,36.275, 0), v30, z5, tool0;
MoveL Offs(p0,118.032,36.169599999999996, 0), v30, z5, tool0;
MoveL Offs(p0,116.856,36.0918, 0), v30, z5, tool0;
MoveL Offs(p0,115.40400000000002,36.03920000000001, 0), v30, z5, tool0;
MoveL Offs(p0,113.65799999999999,36.00940000000001, 0), v30, z5, tool0;
MoveL Offs(p0,111.6,36.0, 0), v30, z5, tool0;
MoveL Offs(p0,111.6,36.0, 0), v30, z5, tool0;
MoveL Offs(p0,109.97040000000001,36.01180000000001, 0), v30, z5, tool0;
MoveL Offs(p0,108.45120000000004,36.046400000000006, 0), v30, z5, tool0;
MoveL Offs(p0,107.05679999999998,36.102599999999995, 0), v30, z5, tool0;
MoveL Offs(p0,105.80160000000001,36.1792, 0), v30, z5, tool0;
MoveL Offs(p0,104.7,36.275, 0), v30, z5, tool0;
MoveL Offs(p0,103.7664,36.3888, 0), v30, z5, tool0;
MoveL Offs(p0,103.01520000000001,36.5194, 0), v30, z5, tool0;
MoveL Offs(p0,102.46080000000002,36.665600000000005, 0), v30, z5, tool0;
MoveL Offs(p0,102.1176,36.8262, 0), v30, z5, tool0;
MoveL Offs(p0,102.0,37.0, 0), v30, z5, tool0;
MoveL Offs(p0,102.0,37.0, 0), v30, z5, tool0;
MoveL Offs(p0,102.0497,37.278, 0), v30, z5, tool0;
MoveL Offs(p0,102.19360000000003,37.79600000000001, 0), v30, z5, tool0;
MoveL Offs(p0,102.42389999999997,38.53, 0), v30, z5, tool0;
MoveL Offs(p0,102.73280000000003,39.456, 0), v30, z5, tool0;
MoveL Offs(p0,103.1125,40.55, 0), v30, z5, tool0;
MoveL Offs(p0,103.55519999999999,41.788, 0), v30, z5, tool0;
MoveL Offs(p0,104.0531,43.146, 0), v30, z5, tool0;
MoveL Offs(p0,104.59840000000001,44.6, 0), v30, z5, tool0;
MoveL Offs(p0,105.1833,46.126000000000005, 0), v30, z5, tool0;
MoveL Offs(p0,105.8,47.7, 0), v30, z5, tool0;
MoveL Offs(p0,105.8,47.7, 0), v30, z5, tool0;
MoveL Offs(p0,106.45260000000003,49.31290000000001, 0), v30, z5, tool0;
MoveL Offs(p0,107.08480000000004,50.89520000000001, 0), v30, z5, tool0;
MoveL Offs(p0,107.68820000000001,52.42229999999999, 0), v30, z5, tool0;
MoveL Offs(p0,108.25439999999999,53.869600000000005, 0), v30, z5, tool0;
MoveL Offs(p0,108.775,55.2125, 0), v30, z5, tool0;
MoveL Offs(p0,109.24159999999999,56.4264, 0), v30, z5, tool0;
MoveL Offs(p0,109.64580000000001,57.4867, 0), v30, z5, tool0;
MoveL Offs(p0,109.97920000000002,58.36880000000001, 0), v30, z5, tool0;
MoveL Offs(p0,110.2334,59.0481, 0), v30, z5, tool0;
MoveL Offs(p0,110.4,59.5, 0), v30, z5, tool0;
MoveL Offs(p0,110.4,59.5, 0), v30, z5, tool0;
MoveL Offs(p0,110.59940000000003,59.83610000000001, 0), v30, z5, tool0;
MoveL Offs(p0,110.84320000000002,59.93280000000001, 0), v30, z5, tool0;
MoveL Offs(p0,111.13980000000001,59.7727, 0), v30, z5, tool0;
MoveL Offs(p0,111.4976,59.3384, 0), v30, z5, tool0;
MoveL Offs(p0,111.925,58.6125, 0), v30, z5, tool0;
MoveL Offs(p0,112.4304,57.577600000000004, 0), v30, z5, tool0;
MoveL Offs(p0,113.0222,56.21629999999999, 0), v30, z5, tool0;
MoveL Offs(p0,113.70880000000002,54.51120000000001, 0), v30, z5, tool0;
MoveL Offs(p0,114.49859999999998,52.444900000000004, 0), v30, z5, tool0;
MoveL Offs(p0,115.4,50.0, 0), v30, z5, tool0;
MoveL Offs(p0,115.4,50.0, 0), v30, z5, tool0;
MoveL Offs(p0,116.0853,48.1297, 0), v30, z5, tool0;
MoveL Offs(p0,116.75440000000003,46.31760000000001, 0), v30, z5, tool0;
MoveL Offs(p0,117.3971,44.5919, 0), v30, z5, tool0;
MoveL Offs(p0,118.00320000000002,42.9808, 0), v30, z5, tool0;
MoveL Offs(p0,118.5625,41.5125, 0), v30, z5, tool0;
MoveL Offs(p0,119.06479999999999,40.215199999999996, 0), v30, z5, tool0;
MoveL Offs(p0,119.4999,39.1171, 0), v30, z5, tool0;
MoveL Offs(p0,119.8576,38.24640000000001, 0), v30, z5, tool0;
MoveL Offs(p0,120.1277,37.631299999999996, 0), v30, z5, tool0;
MoveL Offs(p0,120.3,37.3, 0), v30, z5, tool0;
MoveL Offs(p0,120.3,37.3, 0), v30, z5, tool0;
MoveJ Offs(p0,141.0,42.4, 10), v30, z1, tool0;
MoveL Offs(p0,141.0,16.8, 0), v30, z5, tool0;
MoveL Offs(p0,152.3,17.1, 0), v30, z5, tool0;
MoveL Offs(p0,152.3,17.1, 0), v30, z5, tool0;
MoveL Offs(p0,154.82300000000004,17.196900000000003, 0), v30, z5, tool0;
MoveL Offs(p0,157.01600000000002,17.311200000000007, 0), v30, z5, tool0;
MoveL Offs(p0,158.91499999999996,17.448299999999996, 0), v30, z5, tool0;
MoveL Offs(p0,160.55600000000004,17.613599999999998, 0), v30, z5, tool0;
MoveL Offs(p0,161.975,17.8125, 0), v30, z5, tool0;
MoveL Offs(p0,163.208,18.050400000000003, 0), v30, z5, tool0;
MoveL Offs(p0,164.291,18.3327, 0), v30, z5, tool0;
MoveL Offs(p0,165.26000000000002,18.664800000000003, 0), v30, z5, tool0;
MoveL Offs(p0,166.151,19.052100000000003, 0), v30, z5, tool0;
MoveL Offs(p0,167.0,19.5, 0), v30, z5, tool0;
MoveL Offs(p0,167.0,19.5, 0), v30, z5, tool0;
MoveL Offs(p0,169.0473,20.962400000000006, 0), v30, z5, tool0;
MoveL Offs(p0,170.74240000000003,22.727200000000003, 0), v30, z5, tool0;
MoveL Offs(p0,172.0751,24.730799999999995, 0), v30, z5, tool0;
MoveL Offs(p0,173.03520000000003,26.9096, 0), v30, z5, tool0;
MoveL Offs(p0,173.6125,29.2, 0), v30, z5, tool0;
MoveL Offs(p0,173.7968,31.538400000000003, 0), v30, z5, tool0;
MoveL Offs(p0,173.5779,33.8612, 0), v30, z5, tool0;
MoveL Offs(p0,172.9456,36.1048, 0), v30, z5, tool0;
MoveL Offs(p0,171.8897,38.205600000000004, 0), v30, z5, tool0;
MoveL Offs(p0,170.4,40.1, 0), v30, z5, tool0;
MoveL Offs(p0,170.4,40.1, 0), v30, z5, tool0;
MoveL Offs(p0,169.93959999999998,40.57000000000001, 0), v30, z5, tool0;
MoveL Offs(p0,169.46480000000005,41.016000000000005, 0), v30, z5, tool0;
MoveL Offs(p0,168.98520000000002,41.431999999999995, 0), v30, z5, tool0;
MoveL Offs(p0,168.5104,41.812, 0), v30, z5, tool0;
MoveL Offs(p0,168.05,42.15, 0), v30, z5, tool0;
MoveL Offs(p0,167.6136,42.44, 0), v30, z5, tool0;
MoveL Offs(p0,167.2108,42.676, 0), v30, z5, tool0;
MoveL Offs(p0,166.8512,42.852000000000004, 0), v30, z5, tool0;
MoveL Offs(p0,166.54440000000002,42.962, 0), v30, z5, tool0;
MoveL Offs(p0,166.3,43.0, 0), v30, z5, tool0;
MoveL Offs(p0,166.3,43.0, 0), v30, z5, tool0;
MoveL Offs(p0,165.7956,43.051, 0), v30, z5, tool0;
MoveL Offs(p0,165.42080000000004,43.192000000000014, 0), v30, z5, tool0;
MoveL Offs(p0,165.1732,43.404999999999994, 0), v30, z5, tool0;
MoveL Offs(p0,165.05040000000002,43.672, 0), v30, z5, tool0;
MoveL Offs(p0,165.05,43.975, 0), v30, z5, tool0;
MoveL Offs(p0,165.1696,44.29600000000001, 0), v30, z5, tool0;
MoveL Offs(p0,165.40679999999998,44.617000000000004, 0), v30, z5, tool0;
MoveL Offs(p0,165.75920000000002,44.92, 0), v30, z5, tool0;
MoveL Offs(p0,166.2244,45.187000000000005, 0), v30, z5, tool0;
MoveL Offs(p0,166.8,45.4, 0), v30, z5, tool0;
MoveL Offs(p0,166.8,45.4, 0), v30, z5, tool0;
MoveL Offs(p0,168.12650000000002,46.083600000000004, 0), v30, z5, tool0;
MoveL Offs(p0,169.27600000000004,47.18480000000001, 0), v30, z5, tool0;
MoveL Offs(p0,170.2335,48.6292, 0), v30, z5, tool0;
MoveL Offs(p0,170.984,50.34240000000001, 0), v30, z5, tool0;
MoveL Offs(p0,171.5125,52.25, 0), v30, z5, tool0;
MoveL Offs(p0,171.804,54.27760000000001, 0), v30, z5, tool0;
MoveL Offs(p0,171.8435,56.35080000000001, 0), v30, z5, tool0;
MoveL Offs(p0,171.61600000000004,58.3952, 0), v30, z5, tool0;
MoveL Offs(p0,171.1065,60.336400000000005, 0), v30, z5, tool0;
MoveL Offs(p0,170.3,62.1, 0), v30, z5, tool0;
MoveL Offs(p0,170.3,62.1, 0), v30, z5, tool0;
MoveL Offs(p0,169.4383,63.3101, 0), v30, z5, tool0;
MoveL Offs(p0,168.39840000000004,64.36480000000002, 0), v30, z5, tool0;
MoveL Offs(p0,167.1581,65.2707, 0), v30, z5, tool0;
MoveL Offs(p0,165.6952,66.0344, 0), v30, z5, tool0;
MoveL Offs(p0,163.9875,66.6625, 0), v30, z5, tool0;
MoveL Offs(p0,162.0128,67.16159999999999, 0), v30, z5, tool0;
MoveL Offs(p0,159.7489,67.5383, 0), v30, z5, tool0;
MoveL Offs(p0,157.17360000000002,67.79920000000001, 0), v30, z5, tool0;
MoveL Offs(p0,154.2647,67.9509, 0), v30, z5, tool0;
MoveL Offs(p0,151.0,68.0, 0), v30, z5, tool0;
MoveL Offs(p0,141.0,68.0, 0), v30, z5, tool0;
MoveL Offs(p0,141.0,42.4, 0), v30, z5, tool0;
MoveL Offs(p0,141.0,42.4, 0), v30, z5, tool0;
MoveJ Offs(p0,162.1,60.1, 10), v30, z1, tool0;
MoveL Offs(p0,162.1,60.1, 0), v30, z5, tool0;
MoveL Offs(p0,162.57750000000001,59.70020000000001, 0), v30, z5, tool0;
MoveL Offs(p0,162.99200000000005,59.27760000000002, 0), v30, z5, tool0;
MoveL Offs(p0,163.3465,58.8274, 0), v30, z5, tool0;
MoveL Offs(p0,163.644,58.3448, 0), v30, z5, tool0;
MoveL Offs(p0,163.8875,57.825, 0), v30, z5, tool0;
MoveL Offs(p0,164.08,57.2632, 0), v30, z5, tool0;
MoveL Offs(p0,164.22449999999998,56.6546, 0), v30, z5, tool0;
MoveL Offs(p0,164.324,55.994400000000006, 0), v30, z5, tool0;
MoveL Offs(p0,164.38150000000002,55.2778, 0), v30, z5, tool0;
MoveL Offs(p0,164.4,54.5, 0), v30, z5, tool0;
MoveL Offs(p0,164.4,54.5, 0), v30, z5, tool0;
MoveL Offs(p0,164.30900000000003,53.00210000000002, 0), v30, z5, tool0;
MoveL Offs(p0,164.03200000000004,51.68480000000002, 0), v30, z5, tool0;
MoveL Offs(p0,163.563,50.542699999999996, 0), v30, z5, tool0;
MoveL Offs(p0,162.89600000000002,49.5704, 0), v30, z5, tool0;
MoveL Offs(p0,162.025,48.7625, 0), v30, z5, tool0;
MoveL Offs(p0,160.944,48.113600000000005, 0), v30, z5, tool0;
MoveL Offs(p0,159.647,47.6183, 0), v30, z5, tool0;
MoveL Offs(p0,158.12800000000001,47.2712, 0), v30, z5, tool0;
MoveL Offs(p0,156.38100000000003,47.066900000000004, 0), v30, z5, tool0;
MoveL Offs(p0,154.4,47.0, 0), v30, z5, tool0;
MoveL Offs(p0,149.0,47.0, 0), v30, z5, tool0;
MoveL Offs(p0,149.0,54.5, 0), v30, z5, tool0;
MoveL Offs(p0,149.0,62.0, 0), v30, z5, tool0;
MoveL Offs(p0,154.4,62.0, 0), v30, z5, tool0;
MoveL Offs(p0,154.4,62.0, 0), v30, z5, tool0;
MoveL Offs(p0,155.49580000000006,61.98190000000001, 0), v30, z5, tool0;
MoveL Offs(p0,156.50640000000004,61.92720000000001, 0), v30, z5, tool0;
MoveL Offs(p0,157.4366,61.8353, 0), v30, z5, tool0;
MoveL Offs(p0,158.29120000000003,61.705600000000004, 0), v30, z5, tool0;
MoveL Offs(p0,159.075,61.5375, 0), v30, z5, tool0;
MoveL Offs(p0,159.7928,61.3304, 0), v30, z5, tool0;
MoveL Offs(p0,160.4494,61.0837, 0), v30, z5, tool0;
MoveL Offs(p0,161.0496,60.796800000000005, 0), v30, z5, tool0;
MoveL Offs(p0,161.5982,60.469100000000005, 0), v30, z5, tool0;
MoveL Offs(p0,162.1,60.1, 0), v30, z5, tool0;
MoveL Offs(p0,162.1,60.1, 0), v30, z5, tool0;
MoveJ Offs(p0,162.7,38.5, 10), v30, z1, tool0;
MoveL Offs(p0,162.7,38.5, 0), v30, z5, tool0;
MoveL Offs(p0,163.8582,37.506800000000005, 0), v30, z5, tool0;
MoveL Offs(p0,164.75360000000006,36.302400000000006, 0), v30, z5, tool0;
MoveL Offs(p0,165.3874,34.9396, 0), v30, z5, tool0;
MoveL Offs(p0,165.76080000000002,33.4712, 0), v30, z5, tool0;
MoveL Offs(p0,165.875,31.95, 0), v30, z5, tool0;
MoveL Offs(p0,165.7312,30.428800000000003, 0), v30, z5, tool0;
MoveL Offs(p0,165.3306,28.9604, 0), v30, z5, tool0;
MoveL Offs(p0,164.67440000000002,27.5976, 0), v30, z5, tool0;
MoveL Offs(p0,163.7638,26.3932, 0), v30, z5, tool0;
MoveL Offs(p0,162.6,25.4, 0), v30, z5, tool0;
MoveL Offs(p0,162.6,25.4, 0), v30, z5, tool0;
MoveL Offs(p0,162.1168,25.154900000000005, 0), v30, z5, tool0;
MoveL Offs(p0,161.51840000000004,24.903200000000005, 0), v30, z5, tool0;
MoveL Offs(p0,160.8216,24.6503, 0), v30, z5, tool0;
MoveL Offs(p0,160.0432,24.4016, 0), v30, z5, tool0;
MoveL Offs(p0,159.2,24.1625, 0), v30, z5, tool0;
MoveL Offs(p0,158.3088,23.9384, 0), v30, z5, tool0;
MoveL Offs(p0,157.3864,23.734700000000004, 0), v30, z5, tool0;
MoveL Offs(p0,156.4496,23.556800000000003, 0), v30, z5, tool0;
MoveL Offs(p0,155.5152,23.4101, 0), v30, z5, tool0;
MoveL Offs(p0,154.6,23.3, 0), v30, z5, tool0;
MoveL Offs(p0,149.0,22.7, 0), v30, z5, tool0;
MoveL Offs(p0,149.0,32.0, 0), v30, z5, tool0;
MoveL Offs(p0,149.0,41.3, 0), v30, z5, tool0;
MoveL Offs(p0,154.7,40.6, 0), v30, z5, tool0;
MoveL Offs(p0,154.7,40.6, 0), v30, z5, tool0;
MoveL Offs(p0,155.66920000000002,40.46560000000001, 0), v30, z5, tool0;
MoveL Offs(p0,156.64560000000006,40.304800000000014, 0), v30, z5, tool0;
MoveL Offs(p0,157.61240000000004,40.1212, 0), v30, z5, tool0;
MoveL Offs(p0,158.5528,39.918400000000005, 0), v30, z5, tool0;
MoveL Offs(p0,159.45,39.7, 0), v30, z5, tool0;
MoveL Offs(p0,160.2872,39.4696, 0), v30, z5, tool0;
MoveL Offs(p0,161.04760000000002,39.2308, 0), v30, z5, tool0;
MoveL Offs(p0,161.7144,38.9872, 0), v30, z5, tool0;
MoveL Offs(p0,162.2708,38.742399999999996, 0), v30, z5, tool0;
MoveL Offs(p0,162.7,38.5, 0), v30, z5, tool0;
MoveL Offs(p0,162.7,38.5, 0), v30, z5, tool0;
MoveJ Offs(p0,196.9,66.6, 10), v30, z1, tool0;
MoveL Offs(p0,196.9,66.6, 0), v30, z5, tool0;
MoveL Offs(p0,194.00050000000005,65.3663, 0), v30, z5, tool0;
MoveL Offs(p0,191.36800000000005,63.83440000000002, 0), v30, z5, tool0;
MoveL Offs(p0,189.0115,62.01809999999999, 0), v30, z5, tool0;
MoveL Offs(p0,186.94,59.931200000000004, 0), v30, z5, tool0;
MoveL Offs(p0,185.1625,57.5875, 0), v30, z5, tool0;
MoveL Offs(p0,183.688,55.00079999999999, 0), v30, z5, tool0;
MoveL Offs(p0,182.5255,52.18489999999999, 0), v30, z5, tool0;
MoveL Offs(p0,181.68400000000003,49.153600000000004, 0), v30, z5, tool0;
MoveL Offs(p0,181.1725,45.9207, 0), v30, z5, tool0;
MoveL Offs(p0,181.0,42.5, 0), v30, z5, tool0;
MoveL Offs(p0,181.0,42.5, 0), v30, z5, tool0;
MoveL Offs(p0,181.2998,37.898, 0), v30, z5, tool0;
MoveL Offs(p0,182.18640000000005,33.70400000000001, 0), v30, z5, tool0;
MoveL Offs(p0,183.6406,29.935999999999996, 0), v30, z5, tool0;
MoveL Offs(p0,185.6432,26.612000000000002, 0), v30, z5, tool0;
MoveL Offs(p0,188.175,23.75, 0), v30, z5, tool0;
MoveL Offs(p0,191.2168,21.368, 0), v30, z5, tool0;
MoveL Offs(p0,194.74939999999998,19.483999999999998, 0), v30, z5, tool0;
MoveL Offs(p0,198.7536,18.116000000000003, 0), v30, z5, tool0;
MoveL Offs(p0,203.21020000000001,17.282000000000004, 0), v30, z5, tool0;
MoveL Offs(p0,208.1,17.0, 0), v30, z5, tool0;
MoveL Offs(p0,208.1,17.0, 0), v30, z5, tool0;
MoveL Offs(p0,210.6688,17.0347, 0), v30, z5, tool0;
MoveL Offs(p0,212.87040000000007,17.145600000000005, 0), v30, z5, tool0;
MoveL Offs(p0,214.7276,17.342899999999997, 0), v30, z5, tool0;
MoveL Offs(p0,216.2632,17.6368, 0), v30, z5, tool0;
MoveL Offs(p0,217.5,18.0375, 0), v30, z5, tool0;
MoveL Offs(p0,218.4608,18.555200000000003, 0), v30, z5, tool0;
MoveL Offs(p0,219.16840000000002,19.2001, 0), v30, z5, tool0;
MoveL Offs(p0,219.6456,19.982400000000002, 0), v30, z5, tool0;
MoveL Offs(p0,219.9152,20.912300000000002, 0), v30, z5, tool0;
MoveL Offs(p0,220.0,22.0, 0), v30, z5, tool0;
MoveL Offs(p0,220.0,22.0, 0), v30, z5, tool0;
MoveL Offs(p0,219.9967,22.9172, 0), v30, z5, tool0;
MoveL Offs(p0,219.9616000000001,23.637600000000006, 0), v30, z5, tool0;
MoveL Offs(p0,219.8569,24.1744, 0), v30, z5, tool0;
MoveL Offs(p0,219.64479999999998,24.540799999999997, 0), v30, z5, tool0;
MoveL Offs(p0,219.2875,24.75, 0), v30, z5, tool0;
MoveL Offs(p0,218.74719999999996,24.815199999999997, 0), v30, z5, tool0;
MoveL Offs(p0,217.9861,24.749599999999997, 0), v30, z5, tool0;
MoveL Offs(p0,216.96640000000002,24.5664, 0), v30, z5, tool0;
MoveL Offs(p0,215.65030000000002,24.2788, 0), v30, z5, tool0;
MoveL Offs(p0,214.0,23.9, 0), v30, z5, tool0;
MoveL Offs(p0,214.0,23.9, 0), v30, z5, tool0;
MoveL Offs(p0,209.8737,23.279300000000006, 0), v30, z5, tool0;
MoveL Offs(p0,205.98560000000006,23.314400000000006, 0), v30, z5, tool0;
MoveL Offs(p0,202.38189999999997,23.9711, 0), v30, z5, tool0;
MoveL Offs(p0,199.10880000000003,25.215200000000003, 0), v30, z5, tool0;
MoveL Offs(p0,196.2125,27.0125, 0), v30, z5, tool0;
MoveL Offs(p0,193.7392,29.3288, 0), v30, z5, tool0;
MoveL Offs(p0,191.7351,32.1299, 0), v30, z5, tool0;
MoveL Offs(p0,190.2464,35.381600000000006, 0), v30, z5, tool0;
MoveL Offs(p0,189.31930000000003,39.0497, 0), v30, z5, tool0;
MoveL Offs(p0,189.0,43.1, 0), v30, z5, tool0;
MoveL Offs(p0,189.0,43.1, 0), v30, z5, tool0;
MoveL Offs(p0,189.09550000000002,45.3523, 0), v30, z5, tool0;
MoveL Offs(p0,189.38000000000005,47.48640000000002, 0), v30, z5, tool0;
MoveL Offs(p0,189.85049999999998,49.49810000000001, 0), v30, z5, tool0;
MoveL Offs(p0,190.50400000000002,51.38320000000001, 0), v30, z5, tool0;
MoveL Offs(p0,191.3375,53.1375, 0), v30, z5, tool0;
MoveL Offs(p0,192.348,54.7568, 0), v30, z5, tool0;
MoveL Offs(p0,193.5325,56.236900000000006, 0), v30, z5, tool0;
MoveL Offs(p0,194.888,57.5736, 0), v30, z5, tool0;
MoveL Offs(p0,196.4115,58.76270000000001, 0), v30, z5, tool0;
MoveL Offs(p0,198.1,59.8, 0), v30, z5, tool0;
MoveL Offs(p0,198.1,59.8, 0), v30, z5, tool0;
MoveL Offs(p0,199.15630000000002,60.35000000000001, 0), v30, z5, tool0;
MoveL Offs(p0,200.13040000000007,60.80400000000001, 0), v30, z5, tool0;
MoveL Offs(p0,201.06009999999998,61.16799999999999, 0), v30, z5, tool0;
MoveL Offs(p0,201.98319999999998,61.448, 0), v30, z5, tool0;
MoveL Offs(p0,202.9375,61.65, 0), v30, z5, tool0;
MoveL Offs(p0,203.9608,61.779999999999994, 0), v30, z5, tool0;
MoveL Offs(p0,205.0909,61.84400000000001, 0), v30, z5, tool0;
MoveL Offs(p0,206.36560000000003,61.848, 0), v30, z5, tool0;
MoveL Offs(p0,207.8227,61.798, 0), v30, z5, tool0;
MoveL Offs(p0,209.5,61.7, 0), v30, z5, tool0;
MoveL Offs(p0,209.5,61.7, 0), v30, z5, tool0;
MoveL Offs(p0,210.66709999999998,61.631400000000006, 0), v30, z5, tool0;
MoveL Offs(p0,211.81680000000006,61.54720000000001, 0), v30, z5, tool0;
MoveL Offs(p0,212.9317,61.449799999999996, 0), v30, z5, tool0;
MoveL Offs(p0,213.99440000000004,61.34160000000001, 0), v30, z5, tool0;
MoveL Offs(p0,214.9875,61.225, 0), v30, z5, tool0;
MoveL Offs(p0,215.89360000000002,61.1024, 0), v30, z5, tool0;
MoveL Offs(p0,216.6953,60.97619999999999, 0), v30, z5, tool0;
MoveL Offs(p0,217.37520000000004,60.848800000000004, 0), v30, z5, tool0;
MoveL Offs(p0,217.91590000000002,60.7226, 0), v30, z5, tool0;
MoveL Offs(p0,218.3,60.6, 0), v30, z5, tool0;
MoveL Offs(p0,218.3,60.6, 0), v30, z5, tool0;
MoveL Offs(p0,218.6878,60.42450000000001, 0), v30, z5, tool0;
MoveL Offs(p0,219.01440000000008,60.32400000000001, 0), v30, z5, tool0;
MoveL Offs(p0,219.2846,60.30749999999999, 0), v30, z5, tool0;
MoveL Offs(p0,219.50320000000002,60.384, 0), v30, z5, tool0;
MoveL Offs(p0,219.675,60.5625, 0), v30, z5, tool0;
MoveL Offs(p0,219.80479999999997,60.852, 0), v30, z5, tool0;
MoveL Offs(p0,219.8974,61.2615, 0), v30, z5, tool0;
MoveL Offs(p0,219.9576,61.8, 0), v30, z5, tool0;
MoveL Offs(p0,219.99020000000002,62.4765, 0), v30, z5, tool0;
MoveL Offs(p0,220.0,63.3, 0), v30, z5, tool0;
MoveL Offs(p0,220.0,63.3, 0), v30, z5, tool0;
MoveL Offs(p0,219.9843,64.0817, 0), v30, z5, tool0;
MoveL Offs(p0,219.9344000000001,64.75360000000002, 0), v30, z5, tool0;
MoveL Offs(p0,219.84609999999998,65.32589999999999, 0), v30, z5, tool0;
MoveL Offs(p0,219.7152,65.80879999999999, 0), v30, z5, tool0;
MoveL Offs(p0,219.5375,66.2125, 0), v30, z5, tool0;
MoveL Offs(p0,219.30879999999996,66.5472, 0), v30, z5, tool0;
MoveL Offs(p0,219.02489999999997,66.8231, 0), v30, z5, tool0;
MoveL Offs(p0,218.68159999999997,67.05040000000001, 0), v30, z5, tool0;
MoveL Offs(p0,218.27470000000002,67.2393, 0), v30, z5, tool0;
MoveL Offs(p0,217.8,67.4, 0), v30, z5, tool0;
MoveL Offs(p0,217.8,67.4, 0), v30, z5, tool0;
MoveL Offs(p0,216.3427,67.65840000000001, 0), v30, z5, tool0;
MoveL Offs(p0,214.44560000000007,67.83520000000001, 0), v30, z5, tool0;
MoveL Offs(p0,212.22089999999997,67.93279999999999, 0), v30, z5, tool0;
MoveL Offs(p0,209.7808,67.95360000000001, 0), v30, z5, tool0;
MoveL Offs(p0,207.2375,67.9, 0), v30, z5, tool0;
MoveL Offs(p0,204.70319999999998,67.7744, 0), v30, z5, tool0;
MoveL Offs(p0,202.2901,67.57919999999999, 0), v30, z5, tool0;
MoveL Offs(p0,200.11040000000003,67.31680000000001, 0), v30, z5, tool0;
MoveL Offs(p0,198.27630000000002,66.98960000000001, 0), v30, z5, tool0;
MoveL Offs(p0,196.9,66.6, 0), v30, z5, tool0;
MoveL Offs(p0,196.9,66.6, 0), v30, z5, tool0;
