MODULE Module1
    !***********************************************************
    !
    ! Module:  Module1
    !
    ! Description:
    !   <Insert description here>
    !
    ! Author: ufabc
    !
    ! Version: 1.0
    !
    !***********************************************************
    
    
    !***********************************************************
    !
    ! Procedure main
    !
    !   This is the entry point of your program
    !
    !***********************************************************
    PROC main()
        !Add your code here
        CONST robtarget p0:=[[557.96,-192.62,509.20],[0.00299687,-0.165444,-0.986215,-0.000502744],[-1,0,0,0],[9E+09,9E+09,9E+09,9E+09,9E+09,9E+09]];	MoveJ Offs(p0,272.0,778.0, 10), v10, z1, tool0;
	MoveL Offs(p0,272.0,775.0, 0), v10, z5, tool0;
	MoveL Offs(p0,272.0,774.0, 0), v10, z5, tool0;
	MoveL Offs(p0,273.0,773.0, 0), v10, z5, tool0;
	MoveL Offs(p0,273.0,772.0, 0), v10, z5, tool0;
	MoveL Offs(p0,273.0,770.0, 0), v10, z5, tool0;
	MoveL Offs(p0,274.0,769.0, 0), v10, z5, tool0;
	MoveL Offs(p0,274.0,767.0, 0), v10, z5, tool0;
	MoveL Offs(p0,275.0,766.0, 0), v10, z5, tool0;
	MoveL Offs(p0,276.0,761.0, 0), v10, z5, tool0;
	MoveL Offs(p0,278.0,754.0, 0), v10, z5, tool0;
	MoveL Offs(p0,280.0,745.0, 0), v10, z5, tool0;
	MoveL Offs(p0,282.0,735.0, 0), v10, z5, tool0;
	MoveL Offs(p0,284.0,725.0, 0), v10, z5, tool0;
	MoveL Offs(p0,286.0,715.0, 0), v10, z5, tool0;
	MoveL Offs(p0,288.0,705.0, 0), v10, z5, tool0;
	MoveL Offs(p0,289.0,696.0, 0), v10, z5, tool0;
	MoveL Offs(p0,290.0,689.0, 0), v10, z5, tool0;
	MoveL Offs(p0,290.0,684.0, 0), v10, z5, tool0;
	MoveL Offs(p0,290.0,680.0, 0), v10, z5, tool0;
	MoveL Offs(p0,282.0,684.0, 0), v10, z5, tool0;
	MoveL Offs(p0,280.0,685.0, 0), v10, z5, tool0;
	MoveL Offs(p0,277.0,686.0, 0), v10, z5, tool0;
	MoveL Offs(p0,275.0,687.0, 0), v10, z5, tool0;
	MoveL Offs(p0,273.0,688.0, 0), v10, z5, tool0;
	MoveL Offs(p0,272.0,688.0, 0), v10, z5, tool0;
	MoveL Offs(p0,270.0,688.0, 0), v10, z5, tool0;
	MoveL Offs(p0,268.0,688.0, 0), v10, z5, tool0;
	MoveL Offs(p0,267.0,688.0, 0), v10, z5, tool0;
	MoveL Offs(p0,266.0,687.0, 0), v10, z5, tool0;
	MoveL Offs(p0,265.0,686.0, 0), v10, z5, tool0;
	MoveL Offs(p0,265.0,683.0, 0), v10, z5, tool0;
	MoveL Offs(p0,265.0,682.0, 0), v10, z5, tool0;
	MoveL Offs(p0,266.0,680.0, 0), v10, z5, tool0;
	MoveL Offs(p0,267.0,678.0, 0), v10, z5, tool0;
	MoveL Offs(p0,268.0,676.0, 0), v10, z5, tool0;
	MoveL Offs(p0,270.0,673.0, 0), v10, z5, tool0;
	MoveL Offs(p0,272.0,669.0, 0), v10, z5, tool0;
	MoveL Offs(p0,274.0,665.0, 0), v10, z5, tool0;
	MoveL Offs(p0,278.0,658.0, 0), v10, z5, tool0;
	MoveL Offs(p0,282.0,651.0, 0), v10, z5, tool0;
	MoveL Offs(p0,286.0,644.0, 0), v10, z5, tool0;
	MoveL Offs(p0,290.0,637.0, 0), v10, z5, tool0;
	MoveL Offs(p0,294.0,630.0, 0), v10, z5, tool0;
	MoveL Offs(p0,297.0,624.0, 0), v10, z5, tool0;
	MoveL Offs(p0,299.0,619.0, 0), v10, z5, tool0;
	MoveL Offs(p0,302.0,614.0, 0), v10, z5, tool0;
	MoveL Offs(p0,303.0,611.0, 0), v10, z5, tool0;
	MoveL Offs(p0,303.0,610.0, 0), v10, z5, tool0;
	MoveL Offs(p0,302.0,607.0, 0), v10, z5, tool0;
	MoveL Offs(p0,301.0,607.0, 0), v10, z5, tool0;
	MoveL Offs(p0,300.0,606.0, 0), v10, z5, tool0;
	MoveL Offs(p0,299.0,605.0, 0), v10, z5, tool0;
	MoveL Offs(p0,297.0,604.0, 0), v10, z5, tool0;
	MoveL Offs(p0,296.0,604.0, 0), v10, z5, tool0;
	MoveL Offs(p0,295.0,603.0, 0), v10, z5, tool0;
	MoveL Offs(p0,294.0,603.0, 0), v10, z5, tool0;
	MoveL Offs(p0,292.0,606.0, 0), v10, z5, tool0;
	MoveL Offs(p0,291.0,608.0, 0), v10, z5, tool0;
	MoveL Offs(p0,290.0,610.0, 0), v10, z5, tool0;
	MoveL Offs(p0,289.0,612.0, 0), v10, z5, tool0;
	MoveL Offs(p0,288.0,614.0, 0), v10, z5, tool0;
	MoveL Offs(p0,286.0,616.0, 0), v10, z5, tool0;
	MoveL Offs(p0,285.0,619.0, 0), v10, z5, tool0;
	MoveL Offs(p0,283.0,621.0, 0), v10, z5, tool0;
	MoveL Offs(p0,281.0,624.0, 0), v10, z5, tool0;
	MoveL Offs(p0,280.0,627.0, 0), v10, z5, tool0;
	MoveL Offs(p0,278.0,630.0, 0), v10, z5, tool0;
	MoveL Offs(p0,275.0,633.0, 0), v10, z5, tool0;
	MoveL Offs(p0,273.0,635.0, 0), v10, z5, tool0;
	MoveL Offs(p0,271.0,638.0, 0), v10, z5, tool0;
	MoveL Offs(p0,269.0,641.0, 0), v10, z5, tool0;
	MoveL Offs(p0,267.0,643.0, 0), v10, z5, tool0;
	MoveL Offs(p0,266.0,645.0, 0), v10, z5, tool0;
	MoveL Offs(p0,263.0,647.0, 0), v10, z5, tool0;
	MoveL Offs(p0,261.0,650.0, 0), v10, z5, tool0;
	MoveL Offs(p0,259.0,651.0, 0), v10, z5, tool0;
	MoveL Offs(p0,258.0,652.0, 0), v10, z5, tool0;
	MoveL Offs(p0,256.0,653.0, 0), v10, z5, tool0;
	MoveL Offs(p0,255.0,654.0, 0), v10, z5, tool0;
	MoveL Offs(p0,254.0,654.0, 0), v10, z5, tool0;
	MoveL Offs(p0,254.0,654.0, 0), v10, z5, tool0;
	MoveL Offs(p0,253.0,654.0, 0), v10, z5, tool0;
	MoveL Offs(p0,252.0,653.0, 0), v10, z5, tool0;
	MoveL Offs(p0,250.0,652.0, 0), v10, z5, tool0;
	MoveL Offs(p0,249.0,651.0, 0), v10, z5, tool0;
	MoveL Offs(p0,249.0,650.0, 0), v10, z5, tool0;
	MoveL Offs(p0,249.0,650.0, 0), v10, z5, tool0;
	MoveL Offs(p0,248.0,648.0, 0), v10, z5, tool0;
	MoveL Offs(p0,249.0,647.0, 0), v10, z5, tool0;
	MoveL Offs(p0,249.0,646.0, 0), v10, z5, tool0;
	MoveL Offs(p0,249.0,644.0, 0), v10, z5, tool0;
	MoveL Offs(p0,249.0,640.0, 0), v10, z5, tool0;
	MoveL Offs(p0,249.0,639.0, 0), v10, z5, tool0;
	MoveL Offs(p0,249.0,638.0, 0), v10, z5, tool0;
	MoveL Offs(p0,249.0,638.0, 0), v10, z5, tool0;
	MoveL Offs(p0,249.0,638.0, 0), v10, z5, tool0;
	MoveL Offs(p0,248.0,638.0, 0), v10, z5, tool0;
	MoveL Offs(p0,248.0,638.0, 0), v10, z5, tool0;
	MoveL Offs(p0,247.0,638.0, 0), v10, z5, tool0;
	MoveL Offs(p0,246.0,639.0, 0), v10, z5, tool0;
	MoveL Offs(p0,242.0,642.0, 0), v10, z5, tool0;
	MoveL Offs(p0,238.0,645.0, 0), v10, z5, tool0;
	MoveL Offs(p0,233.0,648.0, 0), v10, z5, tool0;
	MoveL Offs(p0,227.0,651.0, 0), v10, z5, tool0;
	MoveL Offs(p0,222.0,654.0, 0), v10, z5, tool0;
	MoveL Offs(p0,217.0,656.0, 0), v10, z5, tool0;
	MoveL Offs(p0,213.0,659.0, 0), v10, z5, tool0;
	MoveL Offs(p0,208.0,661.0, 0), v10, z5, tool0;
	MoveL Offs(p0,205.0,662.0, 0), v10, z5, tool0;
	MoveL Offs(p0,202.0,663.0, 0), v10, z5, tool0;
	MoveL Offs(p0,199.0,664.0, 0), v10, z5, tool0;
	MoveL Offs(p0,198.0,664.0, 0), v10, z5, tool0;
	MoveL Offs(p0,197.0,665.0, 0), v10, z5, tool0;
	MoveL Offs(p0,196.0,665.0, 0), v10, z5, tool0;
	MoveL Offs(p0,195.0,665.0, 0), v10, z5, tool0;
	MoveL Offs(p0,194.0,664.0, 0), v10, z5, tool0;
	MoveL Offs(p0,193.0,664.0, 0), v10, z5, tool0;
	MoveL Offs(p0,193.0,663.0, 0), v10, z5, tool0;
	MoveL Offs(p0,192.0,663.0, 0), v10, z5, tool0;
	MoveL Offs(p0,191.0,660.0, 0), v10, z5, tool0;
	MoveL Offs(p0,191.0,659.0, 0), v10, z5, tool0;
	MoveL Offs(p0,193.0,657.0, 0), v10, z5, tool0;
	MoveL Offs(p0,195.0,654.0, 0), v10, z5, tool0;
	MoveL Offs(p0,198.0,650.0, 0), v10, z5, tool0;
	MoveL Offs(p0,203.0,644.0, 0), v10, z5, tool0;
	MoveL Offs(p0,209.0,637.0, 0), v10, z5, tool0;
	MoveL Offs(p0,218.0,628.0, 0), v10, z5, tool0;
	MoveL Offs(p0,236.0,608.0, 0), v10, z5, tool0;
	MoveL Offs(p0,230.0,607.0, 0), v10, z5, tool0;
	MoveL Offs(p0,228.0,606.0, 0), v10, z5, tool0;
	MoveL Offs(p0,226.0,605.0, 0), v10, z5, tool0;
	MoveL Offs(p0,225.0,605.0, 0), v10, z5, tool0;
	MoveL Offs(p0,224.0,603.0, 0), v10, z5, tool0;
	MoveL Offs(p0,223.0,602.0, 0), v10, z5, tool0;
	MoveL Offs(p0,224.0,601.0, 0), v10, z5, tool0;
	MoveL Offs(p0,224.0,599.0, 0), v10, z5, tool0;
	MoveL Offs(p0,225.0,598.0, 0), v10, z5, tool0;
	MoveL Offs(p0,227.0,596.0, 0), v10, z5, tool0;
	MoveL Offs(p0,229.0,595.0, 0), v10, z5, tool0;
	MoveL Offs(p0,231.0,593.0, 0), v10, z5, tool0;
	MoveL Offs(p0,233.0,592.0, 0), v10, z5, tool0;
	MoveL Offs(p0,234.0,591.0, 0), v10, z5, tool0;
	MoveL Offs(p0,236.0,589.0, 0), v10, z5, tool0;
	MoveL Offs(p0,239.0,588.0, 0), v10, z5, tool0;
	MoveL Offs(p0,241.0,586.0, 0), v10, z5, tool0;
	MoveL Offs(p0,243.0,585.0, 0), v10, z5, tool0;
	MoveL Offs(p0,245.0,583.0, 0), v10, z5, tool0;
	MoveL Offs(p0,248.0,581.0, 0), v10, z5, tool0;
	MoveL Offs(p0,261.0,572.0, 0), v10, z5, tool0;
	MoveL Offs(p0,256.0,560.0, 0), v10, z5, tool0;
	MoveL Offs(p0,254.0,556.0, 0), v10, z5, tool0;
	MoveL Offs(p0,252.0,552.0, 0), v10, z5, tool0;
	MoveL Offs(p0,251.0,548.0, 0), v10, z5, tool0;
	MoveL Offs(p0,249.0,544.0, 0), v10, z5, tool0;
	MoveL Offs(p0,248.0,539.0, 0), v10, z5, tool0;
	MoveL Offs(p0,247.0,535.0, 0), v10, z5, tool0;
	MoveL Offs(p0,246.0,530.0, 0), v10, z5, tool0;
	MoveL Offs(p0,246.0,526.0, 0), v10, z5, tool0;
	MoveL Offs(p0,245.0,521.0, 0), v10, z5, tool0;
	MoveL Offs(p0,245.0,517.0, 0), v10, z5, tool0;
	MoveL Offs(p0,245.0,515.0, 0), v10, z5, tool0;
	MoveL Offs(p0,245.0,514.0, 0), v10, z5, tool0;
	MoveL Offs(p0,245.0,512.0, 0), v10, z5, tool0;
	MoveL Offs(p0,245.0,511.0, 0), v10, z5, tool0;
	MoveL Offs(p0,244.0,510.0, 0), v10, z5, tool0;
	MoveL Offs(p0,244.0,509.0, 0), v10, z5, tool0;
	MoveL Offs(p0,243.0,509.0, 0), v10, z5, tool0;
	MoveL Offs(p0,243.0,508.0, 0), v10, z5, tool0;
	MoveL Offs(p0,242.0,507.0, 0), v10, z5, tool0;
	MoveL Offs(p0,241.0,507.0, 0), v10, z5, tool0;
	MoveL Offs(p0,238.0,505.0, 0), v10, z5, tool0;
	MoveL Offs(p0,238.0,505.0, 0), v10, z5, tool0;
	MoveL Offs(p0,237.0,505.0, 0), v10, z5, tool0;
	MoveL Offs(p0,237.0,504.0, 0), v10, z5, tool0;
	MoveL Offs(p0,237.0,504.0, 0), v10, z5, tool0;
	MoveL Offs(p0,237.0,503.0, 0), v10, z5, tool0;
	MoveL Offs(p0,236.0,503.0, 0), v10, z5, tool0;
	MoveL Offs(p0,236.0,501.0, 0), v10, z5, tool0;
	MoveL Offs(p0,236.0,500.0, 0), v10, z5, tool0;
	MoveL Offs(p0,236.0,499.0, 0), v10, z5, tool0;
	MoveL Offs(p0,236.0,498.0, 0), v10, z5, tool0;
	MoveL Offs(p0,236.0,497.0, 0), v10, z5, tool0;
	MoveL Offs(p0,236.0,496.0, 0), v10, z5, tool0;
	MoveL Offs(p0,236.0,495.0, 0), v10, z5, tool0;
	MoveL Offs(p0,235.0,492.0, 0), v10, z5, tool0;
	MoveL Offs(p0,235.0,491.0, 0), v10, z5, tool0;
	MoveL Offs(p0,234.0,489.0, 0), v10, z5, tool0;
	MoveL Offs(p0,234.0,487.0, 0), v10, z5, tool0;
	MoveL Offs(p0,233.0,484.0, 0), v10, z5, tool0;
	MoveL Offs(p0,232.0,482.0, 0), v10, z5, tool0;
	MoveL Offs(p0,232.0,479.0, 0), v10, z5, tool0;
	MoveL Offs(p0,231.0,477.0, 0), v10, z5, tool0;
	MoveL Offs(p0,230.0,474.0, 0), v10, z5, tool0;
	MoveL Offs(p0,228.0,470.0, 0), v10, z5, tool0;
	MoveL Offs(p0,227.0,467.0, 0), v10, z5, tool0;
	MoveL Offs(p0,226.0,464.0, 0), v10, z5, tool0;
	MoveL Offs(p0,226.0,461.0, 0), v10, z5, tool0;
	MoveL Offs(p0,225.0,458.0, 0), v10, z5, tool0;
	MoveL Offs(p0,225.0,454.0, 0), v10, z5, tool0;
	MoveL Offs(p0,224.0,450.0, 0), v10, z5, tool0;
	MoveL Offs(p0,224.0,446.0, 0), v10, z5, tool0;
	MoveL Offs(p0,224.0,441.0, 0), v10, z5, tool0;
	MoveL Offs(p0,224.0,434.0, 0), v10, z5, tool0;
	MoveL Offs(p0,224.0,427.0, 0), v10, z5, tool0;
	MoveL Offs(p0,224.0,421.0, 0), v10, z5, tool0;
	MoveL Offs(p0,224.0,416.0, 0), v10, z5, tool0;
	MoveL Offs(p0,224.0,411.0, 0), v10, z5, tool0;
	MoveL Offs(p0,224.0,406.0, 0), v10, z5, tool0;
	MoveL Offs(p0,225.0,401.0, 0), v10, z5, tool0;
	MoveL Offs(p0,226.0,397.0, 0), v10, z5, tool0;
	MoveL Offs(p0,227.0,392.0, 0), v10, z5, tool0;
	MoveL Offs(p0,228.0,387.0, 0), v10, z5, tool0;
	MoveL Offs(p0,229.0,382.0, 0), v10, z5, tool0;
	MoveL Offs(p0,229.0,380.0, 0), v10, z5, tool0;
	MoveL Offs(p0,227.0,379.0, 0), v10, z5, tool0;
	MoveL Offs(p0,226.0,378.0, 0), v10, z5, tool0;
	MoveL Offs(p0,223.0,377.0, 0), v10, z5, tool0;
	MoveL Offs(p0,220.0,375.0, 0), v10, z5, tool0;
	MoveL Offs(p0,215.0,373.0, 0), v10, z5, tool0;
	MoveL Offs(p0,210.0,371.0, 0), v10, z5, tool0;
	MoveL Offs(p0,203.0,368.0, 0), v10, z5, tool0;
	MoveL Offs(p0,192.0,364.0, 0), v10, z5, tool0;
	MoveL Offs(p0,182.0,360.0, 0), v10, z5, tool0;
	MoveL Offs(p0,173.0,356.0, 0), v10, z5, tool0;
	MoveL Offs(p0,165.0,353.0, 0), v10, z5, tool0;
	MoveL Offs(p0,158.0,350.0, 0), v10, z5, tool0;
	MoveL Offs(p0,152.0,347.0, 0), v10, z5, tool0;
	MoveL Offs(p0,147.0,345.0, 0), v10, z5, tool0;
	MoveL Offs(p0,143.0,342.0, 0), v10, z5, tool0;
	MoveL Offs(p0,140.0,340.0, 0), v10, z5, tool0;
	MoveL Offs(p0,138.0,339.0, 0), v10, z5, tool0;
	MoveL Offs(p0,135.0,335.0, 0), v10, z5, tool0;
	MoveL Offs(p0,134.0,333.0, 0), v10, z5, tool0;
	MoveL Offs(p0,133.0,331.0, 0), v10, z5, tool0;
	MoveL Offs(p0,133.0,329.0, 0), v10, z5, tool0;
	MoveL Offs(p0,134.0,327.0, 0), v10, z5, tool0;
	MoveL Offs(p0,134.0,325.0, 0), v10, z5, tool0;
	MoveL Offs(p0,135.0,323.0, 0), v10, z5, tool0;
	MoveL Offs(p0,137.0,321.0, 0), v10, z5, tool0;
	MoveL Offs(p0,138.0,319.0, 0), v10, z5, tool0;
	MoveL Offs(p0,142.0,317.0, 0), v10, z5, tool0;
	MoveL Offs(p0,144.0,316.0, 0), v10, z5, tool0;
	MoveL Offs(p0,145.0,315.0, 0), v10, z5, tool0;
	MoveL Offs(p0,147.0,315.0, 0), v10, z5, tool0;
	MoveL Offs(p0,148.0,315.0, 0), v10, z5, tool0;
	MoveL Offs(p0,150.0,316.0, 0), v10, z5, tool0;
	MoveL Offs(p0,151.0,316.0, 0), v10, z5, tool0;
	MoveL Offs(p0,153.0,317.0, 0), v10, z5, tool0;
	MoveL Offs(p0,154.0,318.0, 0), v10, z5, tool0;
	MoveL Offs(p0,158.0,320.0, 0), v10, z5, tool0;
	MoveL Offs(p0,161.0,321.0, 0), v10, z5, tool0;
	MoveL Offs(p0,166.0,322.0, 0), v10, z5, tool0;
	MoveL Offs(p0,171.0,321.0, 0), v10, z5, tool0;
	MoveL Offs(p0,177.0,321.0, 0), v10, z5, tool0;
	MoveL Offs(p0,182.0,320.0, 0), v10, z5, tool0;
	MoveL Offs(p0,188.0,318.0, 0), v10, z5, tool0;
	MoveL Offs(p0,194.0,315.0, 0), v10, z5, tool0;
	MoveL Offs(p0,200.0,313.0, 0), v10, z5, tool0;
	MoveL Offs(p0,206.0,309.0, 0), v10, z5, tool0;
	MoveL Offs(p0,209.0,307.0, 0), v10, z5, tool0;
	MoveL Offs(p0,211.0,305.0, 0), v10, z5, tool0;
	MoveL Offs(p0,214.0,303.0, 0), v10, z5, tool0;
	MoveL Offs(p0,217.0,300.0, 0), v10, z5, tool0;
	MoveL Offs(p0,220.0,297.0, 0), v10, z5, tool0;
	MoveL Offs(p0,222.0,295.0, 0), v10, z5, tool0;
	MoveL Offs(p0,225.0,292.0, 0), v10, z5, tool0;
	MoveL Offs(p0,227.0,288.0, 0), v10, z5, tool0;
	MoveL Offs(p0,230.0,285.0, 0), v10, z5, tool0;
	MoveL Offs(p0,232.0,282.0, 0), v10, z5, tool0;
	MoveL Offs(p0,234.0,278.0, 0), v10, z5, tool0;
	MoveL Offs(p0,237.0,275.0, 0), v10, z5, tool0;
	MoveL Offs(p0,240.0,272.0, 0), v10, z5, tool0;
	MoveL Offs(p0,243.0,270.0, 0), v10, z5, tool0;
	MoveL Offs(p0,246.0,269.0, 0), v10, z5, tool0;
	MoveL Offs(p0,249.0,268.0, 0), v10, z5, tool0;
	MoveL Offs(p0,252.0,268.0, 0), v10, z5, tool0;
	MoveL Offs(p0,255.0,269.0, 0), v10, z5, tool0;
	MoveL Offs(p0,258.0,270.0, 0), v10, z5, tool0;
	MoveL Offs(p0,260.0,272.0, 0), v10, z5, tool0;
	MoveL Offs(p0,265.0,275.0, 0), v10, z5, tool0;
	MoveL Offs(p0,269.0,267.0, 0), v10, z5, tool0;
	MoveL Offs(p0,271.0,264.0, 0), v10, z5, tool0;
	MoveL Offs(p0,271.0,263.0, 0), v10, z5, tool0;
	MoveL Offs(p0,272.0,261.0, 0), v10, z5, tool0;
	MoveL Offs(p0,273.0,260.0, 0), v10, z5, tool0;
	MoveL Offs(p0,274.0,258.0, 0), v10, z5, tool0;
	MoveL Offs(p0,275.0,257.0, 0), v10, z5, tool0;
	MoveL Offs(p0,276.0,256.0, 0), v10, z5, tool0;
	MoveL Offs(p0,276.0,254.0, 0), v10, z5, tool0;
	MoveL Offs(p0,277.0,253.0, 0), v10, z5, tool0;
	MoveL Offs(p0,279.0,251.0, 0), v10, z5, tool0;
	MoveL Offs(p0,280.0,250.0, 0), v10, z5, tool0;
	MoveL Offs(p0,280.0,249.0, 0), v10, z5, tool0;
	MoveL Offs(p0,280.0,248.0, 0), v10, z5, tool0;
	MoveL Offs(p0,280.0,247.0, 0), v10, z5, tool0;
	MoveL Offs(p0,280.0,246.0, 0), v10, z5, tool0;
	MoveL Offs(p0,280.0,245.0, 0), v10, z5, tool0;
	MoveL Offs(p0,279.0,244.0, 0), v10, z5, tool0;
	MoveL Offs(p0,279.0,242.0, 0), v10, z5, tool0;
	MoveL Offs(p0,278.0,239.0, 0), v10, z5, tool0;
	MoveL Offs(p0,277.0,236.0, 0), v10, z5, tool0;
	MoveL Offs(p0,276.0,233.0, 0), v10, z5, tool0;
	MoveL Offs(p0,276.0,229.0, 0), v10, z5, tool0;
	MoveL Offs(p0,276.0,226.0, 0), v10, z5, tool0;
	MoveL Offs(p0,276.0,222.0, 0), v10, z5, tool0;
	MoveL Offs(p0,276.0,218.0, 0), v10, z5, tool0;
	MoveL Offs(p0,276.0,214.0, 0), v10, z5, tool0;
	MoveL Offs(p0,276.0,210.0, 0), v10, z5, tool0;
	MoveL Offs(p0,277.0,206.0, 0), v10, z5, tool0;
	MoveL Offs(p0,279.0,195.0, 0), v10, z5, tool0;
	MoveL Offs(p0,273.0,189.0, 0), v10, z5, tool0;
	MoveL Offs(p0,271.0,187.0, 0), v10, z5, tool0;
	MoveL Offs(p0,269.0,184.0, 0), v10, z5, tool0;
	MoveL Offs(p0,267.0,181.0, 0), v10, z5, tool0;
	MoveL Offs(p0,265.0,178.0, 0), v10, z5, tool0;
	MoveL Offs(p0,263.0,174.0, 0), v10, z5, tool0;
	MoveL Offs(p0,261.0,171.0, 0), v10, z5, tool0;
	MoveL Offs(p0,259.0,168.0, 0), v10, z5, tool0;
	MoveL Offs(p0,258.0,165.0, 0), v10, z5, tool0;
	MoveL Offs(p0,257.0,162.0, 0), v10, z5, tool0;
	MoveL Offs(p0,257.0,161.0, 0), v10, z5, tool0;
	MoveL Offs(p0,255.0,159.0, 0), v10, z5, tool0;
	MoveL Offs(p0,254.0,158.0, 0), v10, z5, tool0;
	MoveL Offs(p0,253.0,158.0, 0), v10, z5, tool0;
	MoveL Offs(p0,252.0,157.0, 0), v10, z5, tool0;
	MoveL Offs(p0,251.0,157.0, 0), v10, z5, tool0;
	MoveL Offs(p0,250.0,157.0, 0), v10, z5, tool0;
	MoveL Offs(p0,247.0,156.0, 0), v10, z5, tool0;
	MoveL Offs(p0,243.0,155.0, 0), v10, z5, tool0;
	MoveL Offs(p0,240.0,153.0, 0), v10, z5, tool0;
	MoveL Offs(p0,236.0,152.0, 0), v10, z5, tool0;
	MoveL Offs(p0,233.0,150.0, 0), v10, z5, tool0;
	MoveL Offs(p0,230.0,148.0, 0), v10, z5, tool0;
	MoveL Offs(p0,227.0,146.0, 0), v10, z5, tool0;
	MoveL Offs(p0,224.0,145.0, 0), v10, z5, tool0;
	MoveL Offs(p0,221.0,143.0, 0), v10, z5, tool0;
	MoveL Offs(p0,219.0,141.0, 0), v10, z5, tool0;
	MoveL Offs(p0,216.0,138.0, 0), v10, z5, tool0;
	MoveL Offs(p0,215.0,138.0, 0), v10, z5, tool0;
	MoveL Offs(p0,214.0,137.0, 0), v10, z5, tool0;
	MoveL Offs(p0,212.0,137.0, 0), v10, z5, tool0;
	MoveL Offs(p0,211.0,136.0, 0), v10, z5, tool0;
	MoveL Offs(p0,210.0,136.0, 0), v10, z5, tool0;
	MoveL Offs(p0,208.0,136.0, 0), v10, z5, tool0;
	MoveL Offs(p0,206.0,137.0, 0), v10, z5, tool0;
	MoveL Offs(p0,204.0,137.0, 0), v10, z5, tool0;
	MoveL Offs(p0,200.0,138.0, 0), v10, z5, tool0;
	MoveL Offs(p0,199.0,138.0, 0), v10, z5, tool0;
	MoveL Offs(p0,197.0,138.0, 0), v10, z5, tool0;
	MoveL Offs(p0,195.0,138.0, 0), v10, z5, tool0;
	MoveL Offs(p0,193.0,138.0, 0), v10, z5, tool0;
	MoveL Offs(p0,191.0,138.0, 0), v10, z5, tool0;
	MoveL Offs(p0,189.0,138.0, 0), v10, z5, tool0;
	MoveL Offs(p0,188.0,137.0, 0), v10, z5, tool0;
	MoveL Offs(p0,186.0,137.0, 0), v10, z5, tool0;
	MoveL Offs(p0,184.0,137.0, 0), v10, z5, tool0;
	MoveL Offs(p0,182.0,136.0, 0), v10, z5, tool0;
	MoveL Offs(p0,180.0,136.0, 0), v10, z5, tool0;
	MoveL Offs(p0,179.0,136.0, 0), v10, z5, tool0;
	MoveL Offs(p0,178.0,136.0, 0), v10, z5, tool0;
	MoveL Offs(p0,177.0,137.0, 0), v10, z5, tool0;
	MoveL Offs(p0,176.0,137.0, 0), v10, z5, tool0;
	MoveL Offs(p0,175.0,138.0, 0), v10, z5, tool0;
	MoveL Offs(p0,174.0,139.0, 0), v10, z5, tool0;
	MoveL Offs(p0,172.0,140.0, 0), v10, z5, tool0;
	MoveL Offs(p0,169.0,142.0, 0), v10, z5, tool0;
	MoveL Offs(p0,167.0,143.0, 0), v10, z5, tool0;
	MoveL Offs(p0,164.0,144.0, 0), v10, z5, tool0;
	MoveL Offs(p0,161.0,145.0, 0), v10, z5, tool0;
	MoveL Offs(p0,159.0,146.0, 0), v10, z5, tool0;
	MoveL Offs(p0,156.0,147.0, 0), v10, z5, tool0;
	MoveL Offs(p0,153.0,148.0, 0), v10, z5, tool0;
	MoveL Offs(p0,150.0,148.0, 0), v10, z5, tool0;
	MoveL Offs(p0,146.0,149.0, 0), v10, z5, tool0;
	MoveL Offs(p0,144.0,150.0, 0), v10, z5, tool0;
	MoveL Offs(p0,143.0,150.0, 0), v10, z5, tool0;
	MoveL Offs(p0,142.0,151.0, 0), v10, z5, tool0;
	MoveL Offs(p0,141.0,151.0, 0), v10, z5, tool0;
	MoveL Offs(p0,140.0,152.0, 0), v10, z5, tool0;
	MoveL Offs(p0,139.0,153.0, 0), v10, z5, tool0;
	MoveL Offs(p0,138.0,154.0, 0), v10, z5, tool0;
	MoveL Offs(p0,137.0,156.0, 0), v10, z5, tool0;
	MoveL Offs(p0,136.0,157.0, 0), v10, z5, tool0;
	MoveL Offs(p0,135.0,160.0, 0), v10, z5, tool0;
	MoveL Offs(p0,134.0,161.0, 0), v10, z5, tool0;
	MoveL Offs(p0,133.0,162.0, 0), v10, z5, tool0;
	MoveL Offs(p0,132.0,163.0, 0), v10, z5, tool0;
	MoveL Offs(p0,132.0,164.0, 0), v10, z5, tool0;
	MoveL Offs(p0,131.0,165.0, 0), v10, z5, tool0;
	MoveL Offs(p0,130.0,165.0, 0), v10, z5, tool0;
	MoveL Offs(p0,130.0,166.0, 0), v10, z5, tool0;
	MoveL Offs(p0,130.0,166.0, 0), v10, z5, tool0;
	MoveL Offs(p0,128.0,169.0, 0), v10, z5, tool0;
	MoveL Offs(p0,128.0,170.0, 0), v10, z5, tool0;
	MoveL Offs(p0,129.0,172.0, 0), v10, z5, tool0;
	MoveL Offs(p0,129.0,174.0, 0), v10, z5, tool0;
	MoveL Offs(p0,130.0,176.0, 0), v10, z5, tool0;
	MoveL Offs(p0,130.0,179.0, 0), v10, z5, tool0;
	MoveL Offs(p0,131.0,182.0, 0), v10, z5, tool0;
	MoveL Offs(p0,132.0,187.0, 0), v10, z5, tool0;
	MoveL Offs(p0,133.0,191.0, 0), v10, z5, tool0;
	MoveL Offs(p0,134.0,195.0, 0), v10, z5, tool0;
	MoveL Offs(p0,135.0,199.0, 0), v10, z5, tool0;
	MoveL Offs(p0,135.0,202.0, 0), v10, z5, tool0;
	MoveL Offs(p0,134.0,205.0, 0), v10, z5, tool0;
	MoveL Offs(p0,134.0,208.0, 0), v10, z5, tool0;
	MoveL Offs(p0,133.0,210.0, 0), v10, z5, tool0;
	MoveL Offs(p0,132.0,211.0, 0), v10, z5, tool0;
	MoveL Offs(p0,131.0,212.0, 0), v10, z5, tool0;
	MoveL Offs(p0,129.0,213.0, 0), v10, z5, tool0;
	MoveL Offs(p0,128.0,214.0, 0), v10, z5, tool0;
	MoveL Offs(p0,128.0,214.0, 0), v10, z5, tool0;
	MoveL Offs(p0,128.0,214.0, 0), v10, z5, tool0;
	MoveL Offs(p0,127.0,214.0, 0), v10, z5, tool0;
	MoveL Offs(p0,127.0,214.0, 0), v10, z5, tool0;
	MoveL Offs(p0,127.0,214.0, 0), v10, z5, tool0;
	MoveL Offs(p0,127.0,217.0, 0), v10, z5, tool0;
	MoveL Offs(p0,128.0,218.0, 0), v10, z5, tool0;
	MoveL Offs(p0,128.0,219.0, 0), v10, z5, tool0;
	MoveL Offs(p0,128.0,220.0, 0), v10, z5, tool0;
	MoveL Offs(p0,128.0,221.0, 0), v10, z5, tool0;
	MoveL Offs(p0,128.0,222.0, 0), v10, z5, tool0;
	MoveL Offs(p0,129.0,226.0, 0), v10, z5, tool0;
	MoveL Offs(p0,130.0,229.0, 0), v10, z5, tool0;
	MoveL Offs(p0,130.0,231.0, 0), v10, z5, tool0;
	MoveL Offs(p0,130.0,234.0, 0), v10, z5, tool0;
	MoveL Offs(p0,131.0,237.0, 0), v10, z5, tool0;
	MoveL Offs(p0,131.0,240.0, 0), v10, z5, tool0;
	MoveL Offs(p0,132.0,244.0, 0), v10, z5, tool0;
	MoveL Offs(p0,132.0,247.0, 0), v10, z5, tool0;
	MoveL Offs(p0,132.0,250.0, 0), v10, z5, tool0;
	MoveL Offs(p0,133.0,255.0, 0), v10, z5, tool0;
	MoveL Offs(p0,133.0,259.0, 0), v10, z5, tool0;
	MoveL Offs(p0,134.0,262.0, 0), v10, z5, tool0;
	MoveL Offs(p0,134.0,264.0, 0), v10, z5, tool0;
	MoveL Offs(p0,134.0,267.0, 0), v10, z5, tool0;
	MoveL Offs(p0,134.0,268.0, 0), v10, z5, tool0;
	MoveL Offs(p0,134.0,269.0, 0), v10, z5, tool0;
	MoveL Offs(p0,133.0,270.0, 0), v10, z5, tool0;
	MoveL Offs(p0,133.0,271.0, 0), v10, z5, tool0;
	MoveL Offs(p0,132.0,272.0, 0), v10, z5, tool0;
	MoveL Offs(p0,129.0,274.0, 0), v10, z5, tool0;
	MoveL Offs(p0,128.0,275.0, 0), v10, z5, tool0;
	MoveL Offs(p0,127.0,275.0, 0), v10, z5, tool0;
	MoveL Offs(p0,125.0,274.0, 0), v10, z5, tool0;
	MoveL Offs(p0,124.0,273.0, 0), v10, z5, tool0;
	MoveL Offs(p0,123.0,271.0, 0), v10, z5, tool0;
	MoveL Offs(p0,121.0,269.0, 0), v10, z5, tool0;
	MoveL Offs(p0,120.0,267.0, 0), v10, z5, tool0;
	MoveL Offs(p0,118.0,264.0, 0), v10, z5, tool0;
	MoveL Offs(p0,114.0,253.0, 0), v10, z5, tool0;
	MoveL Offs(p0,110.0,262.0, 0), v10, z5, tool0;
	MoveL Offs(p0,109.0,265.0, 0), v10, z5, tool0;
	MoveL Offs(p0,108.0,266.0, 0), v10, z5, tool0;
	MoveL Offs(p0,107.0,268.0, 0), v10, z5, tool0;
	MoveL Offs(p0,107.0,269.0, 0), v10, z5, tool0;
	MoveL Offs(p0,106.0,270.0, 0), v10, z5, tool0;
	MoveL Offs(p0,105.0,271.0, 0), v10, z5, tool0;
	MoveL Offs(p0,105.0,271.0, 0), v10, z5, tool0;
	MoveL Offs(p0,105.0,272.0, 0), v10, z5, tool0;
	MoveL Offs(p0,104.0,272.0, 0), v10, z5, tool0;
	MoveL Offs(p0,102.0,271.0, 0), v10, z5, tool0;
	MoveL Offs(p0,101.0,271.0, 0), v10, z5, tool0;
	MoveL Offs(p0,100.0,270.0, 0), v10, z5, tool0;
	MoveL Offs(p0,99.0,269.0, 0), v10, z5, tool0;
	MoveL Offs(p0,99.0,268.0, 0), v10, z5, tool0;
	MoveL Offs(p0,98.0,266.0, 0), v10, z5, tool0;
	MoveL Offs(p0,98.0,265.0, 0), v10, z5, tool0;
	MoveL Offs(p0,97.0,263.0, 0), v10, z5, tool0;
	MoveL Offs(p0,97.0,260.0, 0), v10, z5, tool0;
	MoveL Offs(p0,97.0,256.0, 0), v10, z5, tool0;
	MoveL Offs(p0,97.0,251.0, 0), v10, z5, tool0;
	MoveL Offs(p0,97.0,247.0, 0), v10, z5, tool0;
	MoveL Offs(p0,97.0,244.0, 0), v10, z5, tool0;
	MoveL Offs(p0,97.0,240.0, 0), v10, z5, tool0;
	MoveL Offs(p0,96.0,238.0, 0), v10, z5, tool0;
	MoveL Offs(p0,96.0,236.0, 0), v10, z5, tool0;
	MoveL Offs(p0,96.0,235.0, 0), v10, z5, tool0;
	MoveL Offs(p0,96.0,234.0, 0), v10, z5, tool0;
	MoveL Offs(p0,96.0,235.0, 0), v10, z5, tool0;
	MoveL Offs(p0,93.0,237.0, 0), v10, z5, tool0;
	MoveL Offs(p0,92.0,237.0, 0), v10, z5, tool0;
	MoveL Offs(p0,91.0,236.0, 0), v10, z5, tool0;
	MoveL Offs(p0,90.0,236.0, 0), v10, z5, tool0;
	MoveL Offs(p0,89.0,236.0, 0), v10, z5, tool0;
	MoveL Offs(p0,88.0,235.0, 0), v10, z5, tool0;
	MoveL Offs(p0,88.0,234.0, 0), v10, z5, tool0;
	MoveL Offs(p0,87.0,232.0, 0), v10, z5, tool0;
	MoveL Offs(p0,87.0,231.0, 0), v10, z5, tool0;
	MoveL Offs(p0,87.0,230.0, 0), v10, z5, tool0;
	MoveL Offs(p0,87.0,229.0, 0), v10, z5, tool0;
	MoveL Offs(p0,87.0,228.0, 0), v10, z5, tool0;
	MoveL Offs(p0,87.0,228.0, 0), v10, z5, tool0;
	MoveL Offs(p0,87.0,227.0, 0), v10, z5, tool0;
	MoveL Offs(p0,87.0,225.0, 0), v10, z5, tool0;
	MoveL Offs(p0,86.0,224.0, 0), v10, z5, tool0;
	MoveL Offs(p0,86.0,223.0, 0), v10, z5, tool0;
	MoveL Offs(p0,86.0,223.0, 0), v10, z5, tool0;
	MoveL Offs(p0,86.0,222.0, 0), v10, z5, tool0;
	MoveL Offs(p0,86.0,221.0, 0), v10, z5, tool0;
	MoveL Offs(p0,86.0,221.0, 0), v10, z5, tool0;
	MoveL Offs(p0,85.0,220.0, 0), v10, z5, tool0;
	MoveL Offs(p0,84.0,223.0, 0), v10, z5, tool0;
	MoveL Offs(p0,84.0,225.0, 0), v10, z5, tool0;
	MoveL Offs(p0,84.0,227.0, 0), v10, z5, tool0;
	MoveL Offs(p0,84.0,229.0, 0), v10, z5, tool0;
	MoveL Offs(p0,84.0,231.0, 0), v10, z5, tool0;
	MoveL Offs(p0,84.0,233.0, 0), v10, z5, tool0;
	MoveL Offs(p0,84.0,236.0, 0), v10, z5, tool0;
	MoveL Offs(p0,84.0,239.0, 0), v10, z5, tool0;
	MoveL Offs(p0,84.0,241.0, 0), v10, z5, tool0;
	MoveL Offs(p0,84.0,244.0, 0), v10, z5, tool0;
	MoveL Offs(p0,83.0,246.0, 0), v10, z5, tool0;
	MoveL Offs(p0,83.0,248.0, 0), v10, z5, tool0;
	MoveL Offs(p0,82.0,250.0, 0), v10, z5, tool0;
	MoveL Offs(p0,82.0,252.0, 0), v10, z5, tool0;
	MoveL Offs(p0,81.0,253.0, 0), v10, z5, tool0;
	MoveL Offs(p0,81.0,255.0, 0), v10, z5, tool0;
	MoveL Offs(p0,80.0,258.0, 0), v10, z5, tool0;
	MoveL Offs(p0,79.0,260.0, 0), v10, z5, tool0;
	MoveL Offs(p0,79.0,262.0, 0), v10, z5, tool0;
	MoveL Offs(p0,78.0,265.0, 0), v10, z5, tool0;
	MoveL Offs(p0,78.0,267.0, 0), v10, z5, tool0;
	MoveL Offs(p0,78.0,269.0, 0), v10, z5, tool0;
	MoveL Offs(p0,79.0,271.0, 0), v10, z5, tool0;
	MoveL Offs(p0,79.0,273.0, 0), v10, z5, tool0;
	MoveL Offs(p0,80.0,276.0, 0), v10, z5, tool0;
	MoveL Offs(p0,81.0,278.0, 0), v10, z5, tool0;
	MoveL Offs(p0,82.0,281.0, 0), v10, z5, tool0;
	MoveL Offs(p0,82.0,283.0, 0), v10, z5, tool0;
	MoveL Offs(p0,83.0,285.0, 0), v10, z5, tool0;
	MoveL Offs(p0,83.0,287.0, 0), v10, z5, tool0;
	MoveL Offs(p0,83.0,289.0, 0), v10, z5, tool0;
	MoveL Offs(p0,84.0,291.0, 0), v10, z5, tool0;
	MoveL Offs(p0,84.0,293.0, 0), v10, z5, tool0;
	MoveL Offs(p0,84.0,295.0, 0), v10, z5, tool0;
	MoveL Offs(p0,84.0,296.0, 0), v10, z5, tool0;
	MoveL Offs(p0,85.0,299.0, 0), v10, z5, tool0;
	MoveL Offs(p0,85.0,301.0, 0), v10, z5, tool0;
	MoveL Offs(p0,85.0,303.0, 0), v10, z5, tool0;
	MoveL Offs(p0,86.0,304.0, 0), v10, z5, tool0;
	MoveL Offs(p0,86.0,306.0, 0), v10, z5, tool0;
	MoveL Offs(p0,87.0,307.0, 0), v10, z5, tool0;
	MoveL Offs(p0,88.0,308.0, 0), v10, z5, tool0;
	MoveL Offs(p0,89.0,310.0, 0), v10, z5, tool0;
	MoveL Offs(p0,90.0,311.0, 0), v10, z5, tool0;
	MoveL Offs(p0,91.0,312.0, 0), v10, z5, tool0;
	MoveL Offs(p0,93.0,315.0, 0), v10, z5, tool0;
	MoveL Offs(p0,96.0,318.0, 0), v10, z5, tool0;
	MoveL Offs(p0,97.0,322.0, 0), v10, z5, tool0;
	MoveL Offs(p0,99.0,325.0, 0), v10, z5, tool0;
	MoveL Offs(p0,101.0,329.0, 0), v10, z5, tool0;
	MoveL Offs(p0,102.0,333.0, 0), v10, z5, tool0;
	MoveL Offs(p0,103.0,338.0, 0), v10, z5, tool0;
	MoveL Offs(p0,104.0,342.0, 0), v10, z5, tool0;
	MoveL Offs(p0,104.0,347.0, 0), v10, z5, tool0;
	MoveL Offs(p0,104.0,352.0, 0), v10, z5, tool0;
	MoveL Offs(p0,104.0,355.0, 0), v10, z5, tool0;
	MoveL Offs(p0,105.0,358.0, 0), v10, z5, tool0;
	MoveL Offs(p0,105.0,361.0, 0), v10, z5, tool0;
	MoveL Offs(p0,105.0,363.0, 0), v10, z5, tool0;
	MoveL Offs(p0,105.0,365.0, 0), v10, z5, tool0;
	MoveL Offs(p0,106.0,366.0, 0), v10, z5, tool0;
	MoveL Offs(p0,106.0,368.0, 0), v10, z5, tool0;
	MoveL Offs(p0,107.0,369.0, 0), v10, z5, tool0;
	MoveL Offs(p0,107.0,370.0, 0), v10, z5, tool0;
	MoveL Offs(p0,108.0,370.0, 0), v10, z5, tool0;
	MoveL Offs(p0,110.0,373.0, 0), v10, z5, tool0;
	MoveL Offs(p0,113.0,377.0, 0), v10, z5, tool0;
	MoveL Offs(p0,116.0,380.0, 0), v10, z5, tool0;
	MoveL Offs(p0,118.0,384.0, 0), v10, z5, tool0;
	MoveL Offs(p0,121.0,388.0, 0), v10, z5, tool0;
	MoveL Offs(p0,124.0,392.0, 0), v10, z5, tool0;
	MoveL Offs(p0,126.0,396.0, 0), v10, z5, tool0;
	MoveL Offs(p0,128.0,399.0, 0), v10, z5, tool0;
	MoveL Offs(p0,130.0,403.0, 0), v10, z5, tool0;
	MoveL Offs(p0,132.0,406.0, 0), v10, z5, tool0;
	MoveL Offs(p0,135.0,413.0, 0), v10, z5, tool0;
	MoveL Offs(p0,137.0,420.0, 0), v10, z5, tool0;
	MoveL Offs(p0,140.0,428.0, 0), v10, z5, tool0;
	MoveL Offs(p0,142.0,436.0, 0), v10, z5, tool0;
	MoveL Offs(p0,144.0,444.0, 0), v10, z5, tool0;
	MoveL Offs(p0,146.0,452.0, 0), v10, z5, tool0;
	MoveL Offs(p0,147.0,459.0, 0), v10, z5, tool0;
	MoveL Offs(p0,148.0,467.0, 0), v10, z5, tool0;
	MoveL Offs(p0,148.0,474.0, 0), v10, z5, tool0;
	MoveL Offs(p0,148.0,480.0, 0), v10, z5, tool0;
	MoveL Offs(p0,148.0,483.0, 0), v10, z5, tool0;
	MoveL Offs(p0,148.0,485.0, 0), v10, z5, tool0;
	MoveL Offs(p0,148.0,487.0, 0), v10, z5, tool0;
	MoveL Offs(p0,147.0,488.0, 0), v10, z5, tool0;
	MoveL Offs(p0,147.0,489.0, 0), v10, z5, tool0;
	MoveL Offs(p0,147.0,490.0, 0), v10, z5, tool0;
	MoveL Offs(p0,146.0,491.0, 0), v10, z5, tool0;
	MoveL Offs(p0,145.0,491.0, 0), v10, z5, tool0;
	MoveL Offs(p0,145.0,491.0, 0), v10, z5, tool0;
	MoveL Offs(p0,144.0,491.0, 0), v10, z5, tool0;
	MoveL Offs(p0,141.0,491.0, 0), v10, z5, tool0;
	MoveL Offs(p0,141.0,491.0, 0), v10, z5, tool0;
	MoveL Offs(p0,141.0,490.0, 0), v10, z5, tool0;
	MoveL Offs(p0,140.0,490.0, 0), v10, z5, tool0;
	MoveL Offs(p0,140.0,488.0, 0), v10, z5, tool0;
	MoveL Offs(p0,140.0,487.0, 0), v10, z5, tool0;
	MoveL Offs(p0,140.0,485.0, 0), v10, z5, tool0;
	MoveL Offs(p0,140.0,483.0, 0), v10, z5, tool0;
	MoveL Offs(p0,140.0,480.0, 0), v10, z5, tool0;
	MoveL Offs(p0,140.0,477.0, 0), v10, z5, tool0;
	MoveL Offs(p0,139.0,475.0, 0), v10, z5, tool0;
	MoveL Offs(p0,139.0,474.0, 0), v10, z5, tool0;
	MoveL Offs(p0,138.0,473.0, 0), v10, z5, tool0;
	MoveL Offs(p0,138.0,473.0, 0), v10, z5, tool0;
	MoveL Offs(p0,137.0,473.0, 0), v10, z5, tool0;
	MoveL Offs(p0,136.0,474.0, 0), v10, z5, tool0;
	MoveL Offs(p0,135.0,475.0, 0), v10, z5, tool0;
	MoveL Offs(p0,134.0,477.0, 0), v10, z5, tool0;
	MoveL Offs(p0,133.0,479.0, 0), v10, z5, tool0;
	MoveL Offs(p0,132.0,480.0, 0), v10, z5, tool0;
	MoveL Offs(p0,131.0,481.0, 0), v10, z5, tool0;
	MoveL Offs(p0,130.0,481.0, 0), v10, z5, tool0;
	MoveL Offs(p0,130.0,482.0, 0), v10, z5, tool0;
	MoveL Offs(p0,129.0,481.0, 0), v10, z5, tool0;
	MoveL Offs(p0,128.0,481.0, 0), v10, z5, tool0;
	MoveL Offs(p0,128.0,480.0, 0), v10, z5, tool0;
	MoveL Offs(p0,127.0,479.0, 0), v10, z5, tool0;
	MoveL Offs(p0,125.0,478.0, 0), v10, z5, tool0;
	MoveL Offs(p0,124.0,478.0, 0), v10, z5, tool0;
	MoveL Offs(p0,124.0,478.0, 0), v10, z5, tool0;
	MoveL Offs(p0,123.0,478.0, 0), v10, z5, tool0;
	MoveL Offs(p0,122.0,479.0, 0), v10, z5, tool0;
	MoveL Offs(p0,121.0,479.0, 0), v10, z5, tool0;
	MoveL Offs(p0,120.0,480.0, 0), v10, z5, tool0;
	MoveL Offs(p0,116.0,484.0, 0), v10, z5, tool0;
	MoveL Offs(p0,114.0,480.0, 0), v10, z5, tool0;
	MoveL Offs(p0,112.0,478.0, 0), v10, z5, tool0;
	MoveL Offs(p0,112.0,478.0, 0), v10, z5, tool0;
	MoveL Offs(p0,111.0,477.0, 0), v10, z5, tool0;
	MoveL Offs(p0,111.0,477.0, 0), v10, z5, tool0;
	MoveL Offs(p0,111.0,477.0, 0), v10, z5, tool0;
	MoveL Offs(p0,110.0,477.0, 0), v10, z5, tool0;
	MoveL Offs(p0,110.0,477.0, 0), v10, z5, tool0;
	MoveL Offs(p0,108.0,480.0, 0), v10, z5, tool0;
	MoveL Offs(p0,108.0,481.0, 0), v10, z5, tool0;
	MoveL Offs(p0,107.0,482.0, 0), v10, z5, tool0;
	MoveL Offs(p0,106.0,483.0, 0), v10, z5, tool0;
	MoveL Offs(p0,106.0,485.0, 0), v10, z5, tool0;
	MoveL Offs(p0,105.0,486.0, 0), v10, z5, tool0;
	MoveL Offs(p0,104.0,490.0, 0), v10, z5, tool0;
	MoveL Offs(p0,102.0,493.0, 0), v10, z5, tool0;
	MoveL Offs(p0,101.0,496.0, 0), v10, z5, tool0;
	MoveL Offs(p0,100.0,499.0, 0), v10, z5, tool0;
	MoveL Offs(p0,98.0,501.0, 0), v10, z5, tool0;
	MoveL Offs(p0,97.0,503.0, 0), v10, z5, tool0;
	MoveL Offs(p0,95.0,505.0, 0), v10, z5, tool0;
	MoveL Offs(p0,94.0,506.0, 0), v10, z5, tool0;
	MoveL Offs(p0,93.0,507.0, 0), v10, z5, tool0;
	MoveL Offs(p0,92.0,508.0, 0), v10, z5, tool0;
	MoveL Offs(p0,89.0,509.0, 0), v10, z5, tool0;
	MoveL Offs(p0,88.0,509.0, 0), v10, z5, tool0;
	MoveL Offs(p0,88.0,510.0, 0), v10, z5, tool0;
	MoveL Offs(p0,87.0,510.0, 0), v10, z5, tool0;
	MoveL Offs(p0,86.0,511.0, 0), v10, z5, tool0;
	MoveL Offs(p0,85.0,512.0, 0), v10, z5, tool0;
	MoveL Offs(p0,84.0,513.0, 0), v10, z5, tool0;
	MoveL Offs(p0,81.0,516.0, 0), v10, z5, tool0;
	MoveL Offs(p0,80.0,517.0, 0), v10, z5, tool0;
	MoveL Offs(p0,78.0,518.0, 0), v10, z5, tool0;
	MoveL Offs(p0,77.0,518.0, 0), v10, z5, tool0;
	MoveL Offs(p0,76.0,518.0, 0), v10, z5, tool0;
	MoveL Offs(p0,75.0,518.0, 0), v10, z5, tool0;
	MoveL Offs(p0,74.0,518.0, 0), v10, z5, tool0;
	MoveL Offs(p0,74.0,517.0, 0), v10, z5, tool0;
	MoveL Offs(p0,73.0,515.0, 0), v10, z5, tool0;
	MoveL Offs(p0,74.0,513.0, 0), v10, z5, tool0;
	MoveL Offs(p0,74.0,512.0, 0), v10, z5, tool0;
	MoveL Offs(p0,74.0,511.0, 0), v10, z5, tool0;
	MoveL Offs(p0,74.0,510.0, 0), v10, z5, tool0;
	MoveL Offs(p0,74.0,509.0, 0), v10, z5, tool0;
	MoveL Offs(p0,75.0,508.0, 0), v10, z5, tool0;
	MoveL Offs(p0,75.0,507.0, 0), v10, z5, tool0;
	MoveL Offs(p0,76.0,505.0, 0), v10, z5, tool0;
	MoveL Offs(p0,76.0,504.0, 0), v10, z5, tool0;
	MoveL Offs(p0,76.0,503.0, 0), v10, z5, tool0;
	MoveL Offs(p0,76.0,503.0, 0), v10, z5, tool0;
	MoveL Offs(p0,76.0,503.0, 0), v10, z5, tool0;
	MoveL Offs(p0,75.0,502.0, 0), v10, z5, tool0;
	MoveL Offs(p0,75.0,503.0, 0), v10, z5, tool0;
	MoveL Offs(p0,75.0,503.0, 0), v10, z5, tool0;
	MoveL Offs(p0,74.0,503.0, 0), v10, z5, tool0;
	MoveL Offs(p0,72.0,505.0, 0), v10, z5, tool0;
	MoveL Offs(p0,71.0,505.0, 0), v10, z5, tool0;
	MoveL Offs(p0,70.0,504.0, 0), v10, z5, tool0;
	MoveL Offs(p0,70.0,504.0, 0), v10, z5, tool0;
	MoveL Offs(p0,70.0,503.0, 0), v10, z5, tool0;
	MoveL Offs(p0,70.0,501.0, 0), v10, z5, tool0;
	MoveL Offs(p0,70.0,500.0, 0), v10, z5, tool0;
	MoveL Offs(p0,70.0,498.0, 0), v10, z5, tool0;
	MoveL Offs(p0,71.0,495.0, 0), v10, z5, tool0;
	MoveL Offs(p0,72.0,492.0, 0), v10, z5, tool0;
	MoveL Offs(p0,72.0,491.0, 0), v10, z5, tool0;
	MoveL Offs(p0,73.0,490.0, 0), v10, z5, tool0;
	MoveL Offs(p0,73.0,489.0, 0), v10, z5, tool0;
	MoveL Offs(p0,73.0,487.0, 0), v10, z5, tool0;
	MoveL Offs(p0,73.0,486.0, 0), v10, z5, tool0;
	MoveL Offs(p0,73.0,485.0, 0), v10, z5, tool0;
	MoveL Offs(p0,73.0,485.0, 0), v10, z5, tool0;
	MoveL Offs(p0,73.0,484.0, 0), v10, z5, tool0;
	MoveL Offs(p0,71.0,483.0, 0), v10, z5, tool0;
	MoveL Offs(p0,70.0,484.0, 0), v10, z5, tool0;
	MoveL Offs(p0,70.0,485.0, 0), v10, z5, tool0;
	MoveL Offs(p0,69.0,486.0, 0), v10, z5, tool0;
	MoveL Offs(p0,68.0,488.0, 0), v10, z5, tool0;
	MoveL Offs(p0,67.0,490.0, 0), v10, z5, tool0;
	MoveL Offs(p0,67.0,491.0, 0), v10, z5, tool0;
	MoveL Offs(p0,66.0,492.0, 0), v10, z5, tool0;
	MoveL Offs(p0,65.0,492.0, 0), v10, z5, tool0;
	MoveL Offs(p0,64.0,492.0, 0), v10, z5, tool0;
	MoveL Offs(p0,63.0,492.0, 0), v10, z5, tool0;
	MoveL Offs(p0,62.0,491.0, 0), v10, z5, tool0;
	MoveL Offs(p0,61.0,490.0, 0), v10, z5, tool0;
	MoveL Offs(p0,60.0,488.0, 0), v10, z5, tool0;
	MoveL Offs(p0,57.0,483.0, 0), v10, z5, tool0;
	MoveL Offs(p0,54.0,488.0, 0), v10, z5, tool0;
	MoveL Offs(p0,53.0,490.0, 0), v10, z5, tool0;
	MoveL Offs(p0,52.0,491.0, 0), v10, z5, tool0;
	MoveL Offs(p0,52.0,492.0, 0), v10, z5, tool0;
	MoveL Offs(p0,52.0,492.0, 0), v10, z5, tool0;
	MoveL Offs(p0,51.0,493.0, 0), v10, z5, tool0;
	MoveL Offs(p0,51.0,493.0, 0), v10, z5, tool0;
	MoveL Offs(p0,51.0,493.0, 0), v10, z5, tool0;
	MoveL Offs(p0,50.0,493.0, 0), v10, z5, tool0;
	MoveL Offs(p0,48.0,491.0, 0), v10, z5, tool0;
	MoveL Offs(p0,48.0,490.0, 0), v10, z5, tool0;
	MoveL Offs(p0,47.0,489.0, 0), v10, z5, tool0;
	MoveL Offs(p0,47.0,488.0, 0), v10, z5, tool0;
	MoveL Offs(p0,46.0,487.0, 0), v10, z5, tool0;
	MoveL Offs(p0,45.0,484.0, 0), v10, z5, tool0;
	MoveL Offs(p0,44.0,483.0, 0), v10, z5, tool0;
	MoveL Offs(p0,44.0,483.0, 0), v10, z5, tool0;
	MoveL Offs(p0,43.0,482.0, 0), v10, z5, tool0;
	MoveL Offs(p0,43.0,482.0, 0), v10, z5, tool0;
	MoveL Offs(p0,42.0,482.0, 0), v10, z5, tool0;
	MoveL Offs(p0,42.0,483.0, 0), v10, z5, tool0;
	MoveL Offs(p0,41.0,483.0, 0), v10, z5, tool0;
	MoveL Offs(p0,41.0,484.0, 0), v10, z5, tool0;
	MoveL Offs(p0,39.0,486.0, 0), v10, z5, tool0;
	MoveL Offs(p0,39.0,487.0, 0), v10, z5, tool0;
	MoveL Offs(p0,39.0,487.0, 0), v10, z5, tool0;
	MoveL Offs(p0,38.0,488.0, 0), v10, z5, tool0;
	MoveL Offs(p0,38.0,488.0, 0), v10, z5, tool0;
	MoveL Offs(p0,38.0,489.0, 0), v10, z5, tool0;
	MoveL Offs(p0,38.0,489.0, 0), v10, z5, tool0;
	MoveL Offs(p0,36.0,489.0, 0), v10, z5, tool0;
	MoveL Offs(p0,35.0,489.0, 0), v10, z5, tool0;
	MoveL Offs(p0,35.0,489.0, 0), v10, z5, tool0;
	MoveL Offs(p0,32.0,488.0, 0), v10, z5, tool0;
	MoveL Offs(p0,32.0,488.0, 0), v10, z5, tool0;
	MoveL Offs(p0,32.0,488.0, 0), v10, z5, tool0;
	MoveL Offs(p0,31.0,489.0, 0), v10, z5, tool0;
	MoveL Offs(p0,31.0,490.0, 0), v10, z5, tool0;
	MoveL Offs(p0,31.0,491.0, 0), v10, z5, tool0;
	MoveL Offs(p0,30.0,493.0, 0), v10, z5, tool0;
	MoveL Offs(p0,30.0,494.0, 0), v10, z5, tool0;
	MoveL Offs(p0,29.0,494.0, 0), v10, z5, tool0;
	MoveL Offs(p0,29.0,494.0, 0), v10, z5, tool0;
	MoveL Offs(p0,28.0,495.0, 0), v10, z5, tool0;
	MoveL Offs(p0,28.0,495.0, 0), v10, z5, tool0;
	MoveL Offs(p0,27.0,495.0, 0), v10, z5, tool0;
	MoveL Offs(p0,26.0,495.0, 0), v10, z5, tool0;
	MoveL Offs(p0,24.0,495.0, 0), v10, z5, tool0;
	MoveL Offs(p0,24.0,494.0, 0), v10, z5, tool0;
	MoveL Offs(p0,23.0,493.0, 0), v10, z5, tool0;
	MoveL Offs(p0,23.0,492.0, 0), v10, z5, tool0;
	MoveL Offs(p0,23.0,490.0, 0), v10, z5, tool0;
	MoveL Offs(p0,23.0,488.0, 0), v10, z5, tool0;
	MoveL Offs(p0,24.0,486.0, 0), v10, z5, tool0;
	MoveL Offs(p0,24.0,482.0, 0), v10, z5, tool0;
	MoveL Offs(p0,25.0,475.0, 0), v10, z5, tool0;
	MoveL Offs(p0,26.0,467.0, 0), v10, z5, tool0;
	MoveL Offs(p0,28.0,459.0, 0), v10, z5, tool0;
	MoveL Offs(p0,30.0,451.0, 0), v10, z5, tool0;
	MoveL Offs(p0,32.0,443.0, 0), v10, z5, tool0;
	MoveL Offs(p0,35.0,435.0, 0), v10, z5, tool0;
	MoveL Offs(p0,39.0,427.0, 0), v10, z5, tool0;
	MoveL Offs(p0,42.0,419.0, 0), v10, z5, tool0;
	MoveL Offs(p0,46.0,412.0, 0), v10, z5, tool0;
	MoveL Offs(p0,50.0,404.0, 0), v10, z5, tool0;
	MoveL Offs(p0,54.0,399.0, 0), v10, z5, tool0;
	MoveL Offs(p0,56.0,395.0, 0), v10, z5, tool0;
	MoveL Offs(p0,58.0,392.0, 0), v10, z5, tool0;
	MoveL Offs(p0,60.0,389.0, 0), v10, z5, tool0;
	MoveL Offs(p0,60.0,387.0, 0), v10, z5, tool0;
	MoveL Offs(p0,60.0,386.0, 0), v10, z5, tool0;
	MoveL Offs(p0,60.0,385.0, 0), v10, z5, tool0;
	MoveL Offs(p0,59.0,384.0, 0), v10, z5, tool0;
	MoveL Offs(p0,58.0,384.0, 0), v10, z5, tool0;
	MoveL Offs(p0,56.0,383.0, 0), v10, z5, tool0;
	MoveL Offs(p0,53.0,381.0, 0), v10, z5, tool0;
	MoveL Offs(p0,49.0,378.0, 0), v10, z5, tool0;
	MoveL Offs(p0,46.0,375.0, 0), v10, z5, tool0;
	MoveL Offs(p0,43.0,371.0, 0), v10, z5, tool0;
	MoveL Offs(p0,40.0,367.0, 0), v10, z5, tool0;
	MoveL Offs(p0,37.0,362.0, 0), v10, z5, tool0;
	MoveL Offs(p0,35.0,357.0, 0), v10, z5, tool0;
	MoveL Offs(p0,33.0,351.0, 0), v10, z5, tool0;
	MoveL Offs(p0,32.0,345.0, 0), v10, z5, tool0;
	MoveL Offs(p0,31.0,339.0, 0), v10, z5, tool0;
	MoveL Offs(p0,31.0,337.0, 0), v10, z5, tool0;
	MoveL Offs(p0,30.0,335.0, 0), v10, z5, tool0;
	MoveL Offs(p0,30.0,333.0, 0), v10, z5, tool0;
	MoveL Offs(p0,29.0,332.0, 0), v10, z5, tool0;
	MoveL Offs(p0,29.0,331.0, 0), v10, z5, tool0;
	MoveL Offs(p0,28.0,330.0, 0), v10, z5, tool0;
	MoveL Offs(p0,28.0,329.0, 0), v10, z5, tool0;
	MoveL Offs(p0,27.0,328.0, 0), v10, z5, tool0;
	MoveL Offs(p0,26.0,327.0, 0), v10, z5, tool0;
	MoveL Offs(p0,26.0,326.0, 0), v10, z5, tool0;
	MoveL Offs(p0,23.0,323.0, 0), v10, z5, tool0;
	MoveL Offs(p0,22.0,322.0, 0), v10, z5, tool0;
	MoveL Offs(p0,21.0,320.0, 0), v10, z5, tool0;
	MoveL Offs(p0,20.0,319.0, 0), v10, z5, tool0;
	MoveL Offs(p0,19.0,317.0, 0), v10, z5, tool0;
	MoveL Offs(p0,18.0,315.0, 0), v10, z5, tool0;
	MoveL Offs(p0,17.0,313.0, 0), v10, z5, tool0;
	MoveL Offs(p0,16.0,310.0, 0), v10, z5, tool0;
	MoveL Offs(p0,14.0,307.0, 0), v10, z5, tool0;
	MoveL Offs(p0,13.0,304.0, 0), v10, z5, tool0;
	MoveL Offs(p0,11.0,302.0, 0), v10, z5, tool0;
	MoveL Offs(p0,11.0,299.0, 0), v10, z5, tool0;
	MoveL Offs(p0,10.0,297.0, 0), v10, z5, tool0;
	MoveL Offs(p0,10.0,294.0, 0), v10, z5, tool0;
	MoveL Offs(p0,9.0,292.0, 0), v10, z5, tool0;
	MoveL Offs(p0,9.0,288.0, 0), v10, z5, tool0;
	MoveL Offs(p0,9.0,284.0, 0), v10, z5, tool0;
	MoveL Offs(p0,9.0,279.0, 0), v10, z5, tool0;
	MoveL Offs(p0,9.0,275.0, 0), v10, z5, tool0;
	MoveL Offs(p0,9.0,271.0, 0), v10, z5, tool0;
	MoveL Offs(p0,8.0,268.0, 0), v10, z5, tool0;
	MoveL Offs(p0,8.0,265.0, 0), v10, z5, tool0;
	MoveL Offs(p0,8.0,263.0, 0), v10, z5, tool0;
	MoveL Offs(p0,7.0,261.0, 0), v10, z5, tool0;
	MoveL Offs(p0,7.0,258.0, 0), v10, z5, tool0;
	MoveL Offs(p0,6.0,256.0, 0), v10, z5, tool0;
	MoveL Offs(p0,6.0,255.0, 0), v10, z5, tool0;
	MoveL Offs(p0,5.0,252.0, 0), v10, z5, tool0;
	MoveL Offs(p0,3.0,248.0, 0), v10, z5, tool0;
	MoveL Offs(p0,2.0,243.0, 0), v10, z5, tool0;
	MoveL Offs(p0,1.0,238.0, 0), v10, z5, tool0;
	MoveL Offs(p0,0.0,232.0, 0), v10, z5, tool0;
	MoveL Offs(p0,0.0,225.0, 0), v10, z5, tool0;
	MoveL Offs(p0,0.0,219.0, 0), v10, z5, tool0;
	MoveL Offs(p0,0.0,212.0, 0), v10, z5, tool0;
	MoveL Offs(p0,1.0,206.0, 0), v10, z5, tool0;
	MoveL Offs(p0,2.0,200.0, 0), v10, z5, tool0;
	MoveL Offs(p0,3.0,195.0, 0), v10, z5, tool0;
	MoveL Offs(p0,4.0,191.0, 0), v10, z5, tool0;
	MoveL Offs(p0,5.0,189.0, 0), v10, z5, tool0;
	MoveL Offs(p0,5.0,187.0, 0), v10, z5, tool0;
	MoveL Offs(p0,6.0,185.0, 0), v10, z5, tool0;
	MoveL Offs(p0,6.0,183.0, 0), v10, z5, tool0;
	MoveL Offs(p0,6.0,181.0, 0), v10, z5, tool0;
	MoveL Offs(p0,6.0,179.0, 0), v10, z5, tool0;
	MoveL Offs(p0,7.0,177.0, 0), v10, z5, tool0;
	MoveL Offs(p0,7.0,176.0, 0), v10, z5, tool0;
	MoveL Offs(p0,7.0,173.0, 0), v10, z5, tool0;
	MoveL Offs(p0,7.0,169.0, 0), v10, z5, tool0;
	MoveL Offs(p0,8.0,165.0, 0), v10, z5, tool0;
	MoveL Offs(p0,9.0,161.0, 0), v10, z5, tool0;
	MoveL Offs(p0,11.0,156.0, 0), v10, z5, tool0;
	MoveL Offs(p0,12.0,152.0, 0), v10, z5, tool0;
	MoveL Offs(p0,14.0,147.0, 0), v10, z5, tool0;
	MoveL Offs(p0,15.0,143.0, 0), v10, z5, tool0;
	MoveL Offs(p0,17.0,140.0, 0), v10, z5, tool0;
	MoveL Offs(p0,19.0,137.0, 0), v10, z5, tool0;
	MoveL Offs(p0,20.0,134.0, 0), v10, z5, tool0;
	MoveL Offs(p0,21.0,133.0, 0), v10, z5, tool0;
	MoveL Offs(p0,22.0,132.0, 0), v10, z5, tool0;
	MoveL Offs(p0,23.0,130.0, 0), v10, z5, tool0;
	MoveL Offs(p0,24.0,129.0, 0), v10, z5, tool0;
	MoveL Offs(p0,25.0,127.0, 0), v10, z5, tool0;
	MoveL Offs(p0,26.0,126.0, 0), v10, z5, tool0;
	MoveL Offs(p0,28.0,124.0, 0), v10, z5, tool0;
	MoveL Offs(p0,29.0,123.0, 0), v10, z5, tool0;
	MoveL Offs(p0,31.0,120.0, 0), v10, z5, tool0;
	MoveL Offs(p0,32.0,119.0, 0), v10, z5, tool0;
	MoveL Offs(p0,32.0,117.0, 0), v10, z5, tool0;
	MoveL Offs(p0,33.0,116.0, 0), v10, z5, tool0;
	MoveL Offs(p0,34.0,115.0, 0), v10, z5, tool0;
	MoveL Offs(p0,34.0,114.0, 0), v10, z5, tool0;
	MoveL Offs(p0,35.0,113.0, 0), v10, z5, tool0;
	MoveL Offs(p0,35.0,112.0, 0), v10, z5, tool0;
	MoveL Offs(p0,35.0,112.0, 0), v10, z5, tool0;
	MoveL Offs(p0,36.0,109.0, 0), v10, z5, tool0;
	MoveL Offs(p0,36.0,108.0, 0), v10, z5, tool0;
	MoveL Offs(p0,36.0,107.0, 0), v10, z5, tool0;
	MoveL Offs(p0,37.0,105.0, 0), v10, z5, tool0;
	MoveL Offs(p0,38.0,104.0, 0), v10, z5, tool0;
	MoveL Offs(p0,38.0,102.0, 0), v10, z5, tool0;
	MoveL Offs(p0,39.0,100.0, 0), v10, z5, tool0;
	MoveL Offs(p0,40.0,99.0, 0), v10, z5, tool0;
	MoveL Offs(p0,42.0,95.0, 0), v10, z5, tool0;
	MoveL Offs(p0,45.0,91.0, 0), v10, z5, tool0;
	MoveL Offs(p0,47.0,87.0, 0), v10, z5, tool0;
	MoveL Offs(p0,51.0,83.0, 0), v10, z5, tool0;
	MoveL Offs(p0,54.0,79.0, 0), v10, z5, tool0;
	MoveL Offs(p0,58.0,75.0, 0), v10, z5, tool0;
	MoveL Offs(p0,62.0,72.0, 0), v10, z5, tool0;
	MoveL Offs(p0,65.0,69.0, 0), v10, z5, tool0;
	MoveL Offs(p0,69.0,67.0, 0), v10, z5, tool0;
	MoveL Offs(p0,73.0,64.0, 0), v10, z5, tool0;
	MoveL Offs(p0,75.0,63.0, 0), v10, z5, tool0;
	MoveL Offs(p0,77.0,62.0, 0), v10, z5, tool0;
	MoveL Offs(p0,78.0,61.0, 0), v10, z5, tool0;
	MoveL Offs(p0,79.0,60.0, 0), v10, z5, tool0;
	MoveL Offs(p0,80.0,59.0, 0), v10, z5, tool0;
	MoveL Offs(p0,81.0,58.0, 0), v10, z5, tool0;
	MoveL Offs(p0,82.0,58.0, 0), v10, z5, tool0;
	MoveL Offs(p0,83.0,57.0, 0), v10, z5, tool0;
	MoveL Offs(p0,83.0,56.0, 0), v10, z5, tool0;
	MoveL Offs(p0,86.0,51.0, 0), v10, z5, tool0;
	MoveL Offs(p0,90.0,46.0, 0), v10, z5, tool0;
	MoveL Offs(p0,95.0,41.0, 0), v10, z5, tool0;
	MoveL Offs(p0,101.0,36.0, 0), v10, z5, tool0;
	MoveL Offs(p0,107.0,32.0, 0), v10, z5, tool0;
	MoveL Offs(p0,114.0,28.0, 0), v10, z5, tool0;
	MoveL Offs(p0,121.0,24.0, 0), v10, z5, tool0;
	MoveL Offs(p0,129.0,21.0, 0), v10, z5, tool0;
	MoveL Offs(p0,136.0,19.0, 0), v10, z5, tool0;
	MoveL Offs(p0,143.0,18.0, 0), v10, z5, tool0;
	MoveL Offs(p0,146.0,17.0, 0), v10, z5, tool0;
	MoveL Offs(p0,148.0,16.0, 0), v10, z5, tool0;
	MoveL Offs(p0,150.0,16.0, 0), v10, z5, tool0;
	MoveL Offs(p0,152.0,15.0, 0), v10, z5, tool0;
	MoveL Offs(p0,154.0,14.0, 0), v10, z5, tool0;
	MoveL Offs(p0,156.0,13.0, 0), v10, z5, tool0;
	MoveL Offs(p0,158.0,13.0, 0), v10, z5, tool0;
	MoveL Offs(p0,161.0,12.0, 0), v10, z5, tool0;
	MoveL Offs(p0,162.0,11.0, 0), v10, z5, tool0;
	MoveL Offs(p0,168.0,8.0, 0), v10, z5, tool0;
	MoveL Offs(p0,173.0,6.0, 0), v10, z5, tool0;
	MoveL Offs(p0,178.0,4.0, 0), v10, z5, tool0;
	MoveL Offs(p0,182.0,3.0, 0), v10, z5, tool0;
	MoveL Offs(p0,187.0,2.0, 0), v10, z5, tool0;
	MoveL Offs(p0,192.0,1.0, 0), v10, z5, tool0;
	MoveL Offs(p0,197.0,1.0, 0), v10, z5, tool0;
	MoveL Offs(p0,203.0,0.0, 0), v10, z5, tool0;
	MoveL Offs(p0,209.0,0.0, 0), v10, z5, tool0;
	MoveL Offs(p0,215.0,0.0, 0), v10, z5, tool0;
	MoveL Offs(p0,218.0,1.0, 0), v10, z5, tool0;
	MoveL Offs(p0,222.0,1.0, 0), v10, z5, tool0;
	MoveL Offs(p0,225.0,1.0, 0), v10, z5, tool0;
	MoveL Offs(p0,228.0,2.0, 0), v10, z5, tool0;
	MoveL Offs(p0,231.0,2.0, 0), v10, z5, tool0;
	MoveL Offs(p0,234.0,2.0, 0), v10, z5, tool0;
	MoveL Offs(p0,236.0,3.0, 0), v10, z5, tool0;
	MoveL Offs(p0,239.0,3.0, 0), v10, z5, tool0;
	MoveL Offs(p0,240.0,4.0, 0), v10, z5, tool0;
	MoveL Offs(p0,242.0,4.0, 0), v10, z5, tool0;
	MoveL Offs(p0,246.0,5.0, 0), v10, z5, tool0;
	MoveL Offs(p0,247.0,6.0, 0), v10, z5, tool0;
	MoveL Offs(p0,249.0,6.0, 0), v10, z5, tool0;
	MoveL Offs(p0,251.0,6.0, 0), v10, z5, tool0;
	MoveL Offs(p0,253.0,6.0, 0), v10, z5, tool0;
	MoveL Offs(p0,255.0,6.0, 0), v10, z5, tool0;
	MoveL Offs(p0,258.0,6.0, 0), v10, z5, tool0;
	MoveL Offs(p0,260.0,6.0, 0), v10, z5, tool0;
	MoveL Offs(p0,264.0,5.0, 0), v10, z5, tool0;
	MoveL Offs(p0,277.0,4.0, 0), v10, z5, tool0;
	MoveL Offs(p0,290.0,5.0, 0), v10, z5, tool0;
	MoveL Offs(p0,304.0,7.0, 0), v10, z5, tool0;
	MoveL Offs(p0,317.0,11.0, 0), v10, z5, tool0;
	MoveL Offs(p0,329.0,16.0, 0), v10, z5, tool0;
	MoveL Offs(p0,341.0,22.0, 0), v10, z5, tool0;
	MoveL Offs(p0,351.0,30.0, 0), v10, z5, tool0;
	MoveL Offs(p0,360.0,38.0, 0), v10, z5, tool0;
	MoveL Offs(p0,368.0,47.0, 0), v10, z5, tool0;
	MoveL Offs(p0,374.0,57.0, 0), v10, z5, tool0;
	MoveL Offs(p0,375.0,59.0, 0), v10, z5, tool0;
	MoveL Offs(p0,376.0,61.0, 0), v10, z5, tool0;
	MoveL Offs(p0,377.0,63.0, 0), v10, z5, tool0;
	MoveL Offs(p0,378.0,64.0, 0), v10, z5, tool0;
	MoveL Offs(p0,380.0,65.0, 0), v10, z5, tool0;
	MoveL Offs(p0,381.0,66.0, 0), v10, z5, tool0;
	MoveL Offs(p0,382.0,68.0, 0), v10, z5, tool0;
	MoveL Offs(p0,384.0,69.0, 0), v10, z5, tool0;
	MoveL Offs(p0,386.0,70.0, 0), v10, z5, tool0;
	MoveL Offs(p0,389.0,71.0, 0), v10, z5, tool0;
	MoveL Offs(p0,396.0,76.0, 0), v10, z5, tool0;
	MoveL Offs(p0,403.0,81.0, 0), v10, z5, tool0;
	MoveL Offs(p0,409.0,87.0, 0), v10, z5, tool0;
	MoveL Offs(p0,414.0,94.0, 0), v10, z5, tool0;
	MoveL Offs(p0,419.0,101.0, 0), v10, z5, tool0;
	MoveL Offs(p0,423.0,109.0, 0), v10, z5, tool0;
	MoveL Offs(p0,427.0,117.0, 0), v10, z5, tool0;
	MoveL Offs(p0,429.0,126.0, 0), v10, z5, tool0;
	MoveL Offs(p0,431.0,134.0, 0), v10, z5, tool0;
	MoveL Offs(p0,432.0,142.0, 0), v10, z5, tool0;
	MoveL Offs(p0,432.0,145.0, 0), v10, z5, tool0;
	MoveL Offs(p0,432.0,147.0, 0), v10, z5, tool0;
	MoveL Offs(p0,432.0,148.0, 0), v10, z5, tool0;
	MoveL Offs(p0,433.0,150.0, 0), v10, z5, tool0;
	MoveL Offs(p0,434.0,151.0, 0), v10, z5, tool0;
	MoveL Offs(p0,434.0,152.0, 0), v10, z5, tool0;
	MoveL Offs(p0,435.0,154.0, 0), v10, z5, tool0;
	MoveL Offs(p0,436.0,156.0, 0), v10, z5, tool0;
	MoveL Offs(p0,438.0,158.0, 0), v10, z5, tool0;
	MoveL Offs(p0,441.0,162.0, 0), v10, z5, tool0;
	MoveL Offs(p0,443.0,168.0, 0), v10, z5, tool0;
	MoveL Offs(p0,446.0,174.0, 0), v10, z5, tool0;
	MoveL Offs(p0,448.0,180.0, 0), v10, z5, tool0;
	MoveL Offs(p0,449.0,187.0, 0), v10, z5, tool0;
	MoveL Offs(p0,450.0,194.0, 0), v10, z5, tool0;
	MoveL Offs(p0,451.0,201.0, 0), v10, z5, tool0;
	MoveL Offs(p0,451.0,207.0, 0), v10, z5, tool0;
	MoveL Offs(p0,451.0,214.0, 0), v10, z5, tool0;
	MoveL Offs(p0,450.0,220.0, 0), v10, z5, tool0;
	MoveL Offs(p0,450.0,223.0, 0), v10, z5, tool0;
	MoveL Offs(p0,450.0,224.0, 0), v10, z5, tool0;
	MoveL Offs(p0,449.0,226.0, 0), v10, z5, tool0;
	MoveL Offs(p0,449.0,227.0, 0), v10, z5, tool0;
	MoveL Offs(p0,449.0,228.0, 0), v10, z5, tool0;
	MoveL Offs(p0,449.0,228.0, 0), v10, z5, tool0;
	MoveL Offs(p0,449.0,229.0, 0), v10, z5, tool0;
	MoveL Offs(p0,449.0,229.0, 0), v10, z5, tool0;
	MoveL Offs(p0,449.0,230.0, 0), v10, z5, tool0;
	MoveL Offs(p0,452.0,228.0, 0), v10, z5, tool0;
	MoveL Offs(p0,453.0,227.0, 0), v10, z5, tool0;
	MoveL Offs(p0,454.0,225.0, 0), v10, z5, tool0;
	MoveL Offs(p0,456.0,224.0, 0), v10, z5, tool0;
	MoveL Offs(p0,458.0,222.0, 0), v10, z5, tool0;
	MoveL Offs(p0,459.0,221.0, 0), v10, z5, tool0;
	MoveL Offs(p0,461.0,219.0, 0), v10, z5, tool0;
	MoveL Offs(p0,466.0,214.0, 0), v10, z5, tool0;
	MoveL Offs(p0,470.0,210.0, 0), v10, z5, tool0;
	MoveL Offs(p0,474.0,205.0, 0), v10, z5, tool0;
	MoveL Offs(p0,478.0,200.0, 0), v10, z5, tool0;
	MoveL Offs(p0,481.0,194.0, 0), v10, z5, tool0;
	MoveL Offs(p0,485.0,189.0, 0), v10, z5, tool0;
	MoveL Offs(p0,487.0,184.0, 0), v10, z5, tool0;
	MoveL Offs(p0,490.0,178.0, 0), v10, z5, tool0;
	MoveL Offs(p0,493.0,173.0, 0), v10, z5, tool0;
	MoveL Offs(p0,494.0,168.0, 0), v10, z5, tool0;
	MoveL Offs(p0,496.0,164.0, 0), v10, z5, tool0;
	MoveL Offs(p0,497.0,161.0, 0), v10, z5, tool0;
	MoveL Offs(p0,497.0,159.0, 0), v10, z5, tool0;
	MoveL Offs(p0,498.0,156.0, 0), v10, z5, tool0;
	MoveL Offs(p0,498.0,153.0, 0), v10, z5, tool0;
	MoveL Offs(p0,499.0,150.0, 0), v10, z5, tool0;
	MoveL Offs(p0,499.0,147.0, 0), v10, z5, tool0;
	MoveL Offs(p0,499.0,143.0, 0), v10, z5, tool0;
	MoveL Offs(p0,499.0,139.0, 0), v10, z5, tool0;
	MoveL Offs(p0,499.0,134.0, 0), v10, z5, tool0;
	MoveL Offs(p0,499.0,129.0, 0), v10, z5, tool0;
	MoveL Offs(p0,499.0,125.0, 0), v10, z5, tool0;
	MoveL Offs(p0,499.0,122.0, 0), v10, z5, tool0;
	MoveL Offs(p0,499.0,119.0, 0), v10, z5, tool0;
	MoveL Offs(p0,498.0,116.0, 0), v10, z5, tool0;
	MoveL Offs(p0,498.0,114.0, 0), v10, z5, tool0;
	MoveL Offs(p0,498.0,111.0, 0), v10, z5, tool0;
	MoveL Offs(p0,497.0,109.0, 0), v10, z5, tool0;
	MoveL Offs(p0,496.0,107.0, 0), v10, z5, tool0;
	MoveL Offs(p0,495.0,104.0, 0), v10, z5, tool0;
	MoveL Offs(p0,494.0,100.0, 0), v10, z5, tool0;
	MoveL Offs(p0,492.0,96.0, 0), v10, z5, tool0;
	MoveL Offs(p0,490.0,93.0, 0), v10, z5, tool0;
	MoveL Offs(p0,488.0,89.0, 0), v10, z5, tool0;
	MoveL Offs(p0,486.0,86.0, 0), v10, z5, tool0;
	MoveL Offs(p0,483.0,83.0, 0), v10, z5, tool0;
	MoveL Offs(p0,481.0,80.0, 0), v10, z5, tool0;
	MoveL Offs(p0,478.0,78.0, 0), v10, z5, tool0;
	MoveL Offs(p0,475.0,76.0, 0), v10, z5, tool0;
	MoveL Offs(p0,472.0,74.0, 0), v10, z5, tool0;
	MoveL Offs(p0,466.0,70.0, 0), v10, z5, tool0;
	MoveL Offs(p0,461.0,67.0, 0), v10, z5, tool0;
	MoveL Offs(p0,455.0,66.0, 0), v10, z5, tool0;
	MoveL Offs(p0,450.0,65.0, 0), v10, z5, tool0;
	MoveL Offs(p0,445.0,66.0, 0), v10, z5, tool0;
	MoveL Offs(p0,441.0,67.0, 0), v10, z5, tool0;
	MoveL Offs(p0,436.0,70.0, 0), v10, z5, tool0;
	MoveL Offs(p0,433.0,74.0, 0), v10, z5, tool0;
	MoveL Offs(p0,429.0,78.0, 0), v10, z5, tool0;
	MoveL Offs(p0,426.0,84.0, 0), v10, z5, tool0;
	MoveL Offs(p0,424.0,87.0, 0), v10, z5, tool0;
	MoveL Offs(p0,423.0,88.0, 0), v10, z5, tool0;
	MoveL Offs(p0,422.0,89.0, 0), v10, z5, tool0;
	MoveL Offs(p0,422.0,90.0, 0), v10, z5, tool0;
	MoveL Offs(p0,421.0,90.0, 0), v10, z5, tool0;
	MoveL Offs(p0,420.0,91.0, 0), v10, z5, tool0;
	MoveL Offs(p0,420.0,91.0, 0), v10, z5, tool0;
	MoveL Offs(p0,419.0,91.0, 0), v10, z5, tool0;
	MoveL Offs(p0,419.0,91.0, 0), v10, z5, tool0;
	MoveL Offs(p0,417.0,89.0, 0), v10, z5, tool0;
	MoveL Offs(p0,416.0,87.0, 0), v10, z5, tool0;
	MoveL Offs(p0,416.0,85.0, 0), v10, z5, tool0;
	MoveL Offs(p0,416.0,82.0, 0), v10, z5, tool0;
	MoveL Offs(p0,416.0,80.0, 0), v10, z5, tool0;
	MoveL Offs(p0,417.0,77.0, 0), v10, z5, tool0;
	MoveL Offs(p0,418.0,73.0, 0), v10, z5, tool0;
	MoveL Offs(p0,419.0,70.0, 0), v10, z5, tool0;
	MoveL Offs(p0,421.0,68.0, 0), v10, z5, tool0;
	MoveL Offs(p0,423.0,64.0, 0), v10, z5, tool0;
	MoveL Offs(p0,426.0,60.0, 0), v10, z5, tool0;
	MoveL Offs(p0,430.0,57.0, 0), v10, z5, tool0;
	MoveL Offs(p0,433.0,55.0, 0), v10, z5, tool0;
	MoveL Offs(p0,437.0,53.0, 0), v10, z5, tool0;
	MoveL Offs(p0,441.0,52.0, 0), v10, z5, tool0;
	MoveL Offs(p0,445.0,51.0, 0), v10, z5, tool0;
	MoveL Offs(p0,450.0,50.0, 0), v10, z5, tool0;
	MoveL Offs(p0,455.0,51.0, 0), v10, z5, tool0;
	MoveL Offs(p0,460.0,51.0, 0), v10, z5, tool0;
	MoveL Offs(p0,468.0,54.0, 0), v10, z5, tool0;
	MoveL Offs(p0,476.0,57.0, 0), v10, z5, tool0;
	MoveL Offs(p0,483.0,61.0, 0), v10, z5, tool0;
	MoveL Offs(p0,490.0,66.0, 0), v10, z5, tool0;
	MoveL Offs(p0,497.0,71.0, 0), v10, z5, tool0;
	MoveL Offs(p0,502.0,78.0, 0), v10, z5, tool0;
	MoveL Offs(p0,507.0,85.0, 0), v10, z5, tool0;
	MoveL Offs(p0,511.0,93.0, 0), v10, z5, tool0;
	MoveL Offs(p0,515.0,101.0, 0), v10, z5, tool0;
	MoveL Offs(p0,518.0,110.0, 0), v10, z5, tool0;
	MoveL Offs(p0,519.0,116.0, 0), v10, z5, tool0;
	MoveL Offs(p0,520.0,122.0, 0), v10, z5, tool0;
	MoveL Offs(p0,520.0,128.0, 0), v10, z5, tool0;
	MoveL Offs(p0,520.0,135.0, 0), v10, z5, tool0;
	MoveL Offs(p0,520.0,141.0, 0), v10, z5, tool0;
	MoveL Offs(p0,519.0,148.0, 0), v10, z5, tool0;
	MoveL Offs(p0,518.0,155.0, 0), v10, z5, tool0;
	MoveL Offs(p0,517.0,162.0, 0), v10, z5, tool0;
	MoveL Offs(p0,516.0,168.0, 0), v10, z5, tool0;
	MoveL Offs(p0,514.0,174.0, 0), v10, z5, tool0;
	MoveL Offs(p0,511.0,182.0, 0), v10, z5, tool0;
	MoveL Offs(p0,507.0,191.0, 0), v10, z5, tool0;
	MoveL Offs(p0,502.0,199.0, 0), v10, z5, tool0;
	MoveL Offs(p0,498.0,207.0, 0), v10, z5, tool0;
	MoveL Offs(p0,492.0,214.0, 0), v10, z5, tool0;
	MoveL Offs(p0,486.0,222.0, 0), v10, z5, tool0;
	MoveL Offs(p0,480.0,229.0, 0), v10, z5, tool0;
	MoveL Offs(p0,473.0,236.0, 0), v10, z5, tool0;
	MoveL Offs(p0,465.0,243.0, 0), v10, z5, tool0;
	MoveL Offs(p0,457.0,250.0, 0), v10, z5, tool0;
	MoveL Offs(p0,442.0,261.0, 0), v10, z5, tool0;
	MoveL Offs(p0,444.0,271.0, 0), v10, z5, tool0;
	MoveL Offs(p0,444.0,275.0, 0), v10, z5, tool0;
	MoveL Offs(p0,444.0,278.0, 0), v10, z5, tool0;
	MoveL Offs(p0,445.0,282.0, 0), v10, z5, tool0;
	MoveL Offs(p0,444.0,286.0, 0), v10, z5, tool0;
	MoveL Offs(p0,444.0,290.0, 0), v10, z5, tool0;
	MoveL Offs(p0,444.0,294.0, 0), v10, z5, tool0;
	MoveL Offs(p0,443.0,298.0, 0), v10, z5, tool0;
	MoveL Offs(p0,443.0,302.0, 0), v10, z5, tool0;
	MoveL Offs(p0,442.0,306.0, 0), v10, z5, tool0;
	MoveL Offs(p0,441.0,310.0, 0), v10, z5, tool0;
	MoveL Offs(p0,440.0,312.0, 0), v10, z5, tool0;
	MoveL Offs(p0,439.0,314.0, 0), v10, z5, tool0;
	MoveL Offs(p0,439.0,316.0, 0), v10, z5, tool0;
	MoveL Offs(p0,439.0,318.0, 0), v10, z5, tool0;
	MoveL Offs(p0,439.0,319.0, 0), v10, z5, tool0;
	MoveL Offs(p0,439.0,320.0, 0), v10, z5, tool0;
	MoveL Offs(p0,440.0,321.0, 0), v10, z5, tool0;
	MoveL Offs(p0,440.0,321.0, 0), v10, z5, tool0;
	MoveL Offs(p0,441.0,322.0, 0), v10, z5, tool0;
	MoveL Offs(p0,442.0,322.0, 0), v10, z5, tool0;
	MoveL Offs(p0,445.0,319.0, 0), v10, z5, tool0;
	MoveL Offs(p0,448.0,315.0, 0), v10, z5, tool0;
	MoveL Offs(p0,451.0,310.0, 0), v10, z5, tool0;
	MoveL Offs(p0,455.0,304.0, 0), v10, z5, tool0;
	MoveL Offs(p0,459.0,296.0, 0), v10, z5, tool0;
	MoveL Offs(p0,463.0,287.0, 0), v10, z5, tool0;
	MoveL Offs(p0,468.0,277.0, 0), v10, z5, tool0;
	MoveL Offs(p0,474.0,267.0, 0), v10, z5, tool0;
	MoveL Offs(p0,480.0,255.0, 0), v10, z5, tool0;
	MoveL Offs(p0,484.0,245.0, 0), v10, z5, tool0;
	MoveL Offs(p0,489.0,237.0, 0), v10, z5, tool0;
	MoveL Offs(p0,492.0,230.0, 0), v10, z5, tool0;
	MoveL Offs(p0,496.0,224.0, 0), v10, z5, tool0;
	MoveL Offs(p0,498.0,220.0, 0), v10, z5, tool0;
	MoveL Offs(p0,501.0,217.0, 0), v10, z5, tool0;
	MoveL Offs(p0,504.0,215.0, 0), v10, z5, tool0;
	MoveL Offs(p0,506.0,213.0, 0), v10, z5, tool0;
	MoveL Offs(p0,509.0,212.0, 0), v10, z5, tool0;
	MoveL Offs(p0,512.0,211.0, 0), v10, z5, tool0;
	MoveL Offs(p0,515.0,211.0, 0), v10, z5, tool0;
	MoveL Offs(p0,518.0,211.0, 0), v10, z5, tool0;
	MoveL Offs(p0,522.0,212.0, 0), v10, z5, tool0;
	MoveL Offs(p0,527.0,213.0, 0), v10, z5, tool0;
	MoveL Offs(p0,532.0,215.0, 0), v10, z5, tool0;
	MoveL Offs(p0,538.0,217.0, 0), v10, z5, tool0;
	MoveL Offs(p0,545.0,220.0, 0), v10, z5, tool0;
	MoveL Offs(p0,552.0,223.0, 0), v10, z5, tool0;
	MoveL Offs(p0,560.0,227.0, 0), v10, z5, tool0;
	MoveL Offs(p0,569.0,231.0, 0), v10, z5, tool0;
	MoveL Offs(p0,578.0,236.0, 0), v10, z5, tool0;
	MoveL Offs(p0,586.0,240.0, 0), v10, z5, tool0;
	MoveL Offs(p0,593.0,244.0, 0), v10, z5, tool0;
	MoveL Offs(p0,599.0,247.0, 0), v10, z5, tool0;
	MoveL Offs(p0,603.0,250.0, 0), v10, z5, tool0;
	MoveL Offs(p0,607.0,253.0, 0), v10, z5, tool0;
	MoveL Offs(p0,610.0,256.0, 0), v10, z5, tool0;
	MoveL Offs(p0,613.0,259.0, 0), v10, z5, tool0;
	MoveL Offs(p0,615.0,262.0, 0), v10, z5, tool0;
	MoveL Offs(p0,617.0,265.0, 0), v10, z5, tool0;
	MoveL Offs(p0,619.0,270.0, 0), v10, z5, tool0;
	MoveL Offs(p0,621.0,274.0, 0), v10, z5, tool0;
	MoveL Offs(p0,621.0,279.0, 0), v10, z5, tool0;
	MoveL Offs(p0,621.0,284.0, 0), v10, z5, tool0;
	MoveL Offs(p0,619.0,290.0, 0), v10, z5, tool0;
	MoveL Offs(p0,616.0,297.0, 0), v10, z5, tool0;
	MoveL Offs(p0,612.0,305.0, 0), v10, z5, tool0;
	MoveL Offs(p0,606.0,316.0, 0), v10, z5, tool0;
	MoveL Offs(p0,599.0,329.0, 0), v10, z5, tool0;
	MoveL Offs(p0,589.0,344.0, 0), v10, z5, tool0;
	MoveL Offs(p0,586.0,350.0, 0), v10, z5, tool0;
	MoveL Offs(p0,582.0,356.0, 0), v10, z5, tool0;
	MoveL Offs(p0,579.0,361.0, 0), v10, z5, tool0;
	MoveL Offs(p0,576.0,366.0, 0), v10, z5, tool0;
	MoveL Offs(p0,573.0,371.0, 0), v10, z5, tool0;
	MoveL Offs(p0,571.0,375.0, 0), v10, z5, tool0;
	MoveL Offs(p0,569.0,378.0, 0), v10, z5, tool0;
	MoveL Offs(p0,567.0,381.0, 0), v10, z5, tool0;
	MoveL Offs(p0,566.0,383.0, 0), v10, z5, tool0;
	MoveL Offs(p0,566.0,385.0, 0), v10, z5, tool0;
	MoveL Offs(p0,564.0,388.0, 0), v10, z5, tool0;
	MoveL Offs(p0,564.0,389.0, 0), v10, z5, tool0;
	MoveL Offs(p0,564.0,389.0, 0), v10, z5, tool0;
	MoveL Offs(p0,564.0,390.0, 0), v10, z5, tool0;
	MoveL Offs(p0,564.0,391.0, 0), v10, z5, tool0;
	MoveL Offs(p0,565.0,391.0, 0), v10, z5, tool0;
	MoveL Offs(p0,565.0,392.0, 0), v10, z5, tool0;
	MoveL Offs(p0,566.0,393.0, 0), v10, z5, tool0;
	MoveL Offs(p0,567.0,394.0, 0), v10, z5, tool0;
	MoveL Offs(p0,570.0,396.0, 0), v10, z5, tool0;
	MoveL Offs(p0,573.0,397.0, 0), v10, z5, tool0;
	MoveL Offs(p0,577.0,398.0, 0), v10, z5, tool0;
	MoveL Offs(p0,581.0,399.0, 0), v10, z5, tool0;
	MoveL Offs(p0,584.0,399.0, 0), v10, z5, tool0;
	MoveL Offs(p0,588.0,398.0, 0), v10, z5, tool0;
	MoveL Offs(p0,592.0,398.0, 0), v10, z5, tool0;
	MoveL Offs(p0,596.0,396.0, 0), v10, z5, tool0;
	MoveL Offs(p0,599.0,395.0, 0), v10, z5, tool0;
	MoveL Offs(p0,603.0,392.0, 0), v10, z5, tool0;
	MoveL Offs(p0,606.0,389.0, 0), v10, z5, tool0;
	MoveL Offs(p0,608.0,386.0, 0), v10, z5, tool0;
	MoveL Offs(p0,610.0,383.0, 0), v10, z5, tool0;
	MoveL Offs(p0,612.0,379.0, 0), v10, z5, tool0;
	MoveL Offs(p0,614.0,375.0, 0), v10, z5, tool0;
	MoveL Offs(p0,616.0,371.0, 0), v10, z5, tool0;
	MoveL Offs(p0,618.0,367.0, 0), v10, z5, tool0;
	MoveL Offs(p0,620.0,362.0, 0), v10, z5, tool0;
	MoveL Offs(p0,622.0,358.0, 0), v10, z5, tool0;
	MoveL Offs(p0,626.0,344.0, 0), v10, z5, tool0;
	MoveL Offs(p0,632.0,331.0, 0), v10, z5, tool0;
	MoveL Offs(p0,638.0,320.0, 0), v10, z5, tool0;
	MoveL Offs(p0,645.0,309.0, 0), v10, z5, tool0;
	MoveL Offs(p0,653.0,300.0, 0), v10, z5, tool0;
	MoveL Offs(p0,661.0,291.0, 0), v10, z5, tool0;
	MoveL Offs(p0,670.0,284.0, 0), v10, z5, tool0;
	MoveL Offs(p0,680.0,278.0, 0), v10, z5, tool0;
	MoveL Offs(p0,690.0,273.0, 0), v10, z5, tool0;
	MoveL Offs(p0,701.0,269.0, 0), v10, z5, tool0;
	MoveL Offs(p0,705.0,268.0, 0), v10, z5, tool0;
	MoveL Offs(p0,711.0,267.0, 0), v10, z5, tool0;
	MoveL Offs(p0,716.0,267.0, 0), v10, z5, tool0;
	MoveL Offs(p0,722.0,267.0, 0), v10, z5, tool0;
	MoveL Offs(p0,728.0,267.0, 0), v10, z5, tool0;
	MoveL Offs(p0,734.0,267.0, 0), v10, z5, tool0;
	MoveL Offs(p0,740.0,268.0, 0), v10, z5, tool0;
	MoveL Offs(p0,746.0,269.0, 0), v10, z5, tool0;
	MoveL Offs(p0,750.0,270.0, 0), v10, z5, tool0;
	MoveL Offs(p0,754.0,272.0, 0), v10, z5, tool0;
	MoveL Offs(p0,757.0,273.0, 0), v10, z5, tool0;
	MoveL Offs(p0,760.0,275.0, 0), v10, z5, tool0;
	MoveL Offs(p0,763.0,277.0, 0), v10, z5, tool0;
	MoveL Offs(p0,766.0,279.0, 0), v10, z5, tool0;
	MoveL Offs(p0,769.0,282.0, 0), v10, z5, tool0;
	MoveL Offs(p0,772.0,284.0, 0), v10, z5, tool0;
	MoveL Offs(p0,774.0,287.0, 0), v10, z5, tool0;
	MoveL Offs(p0,776.0,290.0, 0), v10, z5, tool0;
	MoveL Offs(p0,779.0,293.0, 0), v10, z5, tool0;
	MoveL Offs(p0,780.0,297.0, 0), v10, z5, tool0;
	MoveL Offs(p0,782.0,300.0, 0), v10, z5, tool0;
	MoveL Offs(p0,783.0,304.0, 0), v10, z5, tool0;
	MoveL Offs(p0,784.0,308.0, 0), v10, z5, tool0;
	MoveL Offs(p0,784.0,313.0, 0), v10, z5, tool0;
	MoveL Offs(p0,784.0,318.0, 0), v10, z5, tool0;
	MoveL Offs(p0,784.0,322.0, 0), v10, z5, tool0;
	MoveL Offs(p0,784.0,327.0, 0), v10, z5, tool0;
	MoveL Offs(p0,783.0,332.0, 0), v10, z5, tool0;
	MoveL Offs(p0,781.0,336.0, 0), v10, z5, tool0;
	MoveL Offs(p0,780.0,340.0, 0), v10, z5, tool0;
	MoveL Offs(p0,777.0,346.0, 0), v10, z5, tool0;
	MoveL Offs(p0,773.0,352.0, 0), v10, z5, tool0;
	MoveL Offs(p0,768.0,357.0, 0), v10, z5, tool0;
	MoveL Offs(p0,763.0,362.0, 0), v10, z5, tool0;
	MoveL Offs(p0,758.0,367.0, 0), v10, z5, tool0;
	MoveL Offs(p0,752.0,371.0, 0), v10, z5, tool0;
	MoveL Offs(p0,745.0,375.0, 0), v10, z5, tool0;
	MoveL Offs(p0,739.0,379.0, 0), v10, z5, tool0;
	MoveL Offs(p0,732.0,382.0, 0), v10, z5, tool0;
	MoveL Offs(p0,724.0,384.0, 0), v10, z5, tool0;
	MoveL Offs(p0,718.0,386.0, 0), v10, z5, tool0;
	MoveL Offs(p0,711.0,386.0, 0), v10, z5, tool0;
	MoveL Offs(p0,705.0,387.0, 0), v10, z5, tool0;
	MoveL Offs(p0,698.0,387.0, 0), v10, z5, tool0;
	MoveL Offs(p0,692.0,386.0, 0), v10, z5, tool0;
	MoveL Offs(p0,686.0,385.0, 0), v10, z5, tool0;
	MoveL Offs(p0,681.0,383.0, 0), v10, z5, tool0;
	MoveL Offs(p0,678.0,382.0, 0), v10, z5, tool0;
	MoveL Offs(p0,676.0,379.0, 0), v10, z5, tool0;
	MoveL Offs(p0,675.0,377.0, 0), v10, z5, tool0;
	MoveL Offs(p0,678.0,375.0, 0), v10, z5, tool0;
	MoveL Offs(p0,680.0,374.0, 0), v10, z5, tool0;
	MoveL Offs(p0,682.0,374.0, 0), v10, z5, tool0;
	MoveL Offs(p0,685.0,375.0, 0), v10, z5, tool0;
	MoveL Offs(p0,688.0,375.0, 0), v10, z5, tool0;
	MoveL Offs(p0,691.0,375.0, 0), v10, z5, tool0;
	MoveL Offs(p0,695.0,376.0, 0), v10, z5, tool0;
	MoveL Offs(p0,700.0,376.0, 0), v10, z5, tool0;
	MoveL Offs(p0,705.0,376.0, 0), v10, z5, tool0;
	MoveL Offs(p0,710.0,375.0, 0), v10, z5, tool0;
	MoveL Offs(p0,715.0,374.0, 0), v10, z5, tool0;
	MoveL Offs(p0,721.0,372.0, 0), v10, z5, tool0;
	MoveL Offs(p0,726.0,370.0, 0), v10, z5, tool0;
	MoveL Offs(p0,731.0,368.0, 0), v10, z5, tool0;
	MoveL Offs(p0,736.0,365.0, 0), v10, z5, tool0;
	MoveL Offs(p0,741.0,362.0, 0), v10, z5, tool0;
	MoveL Offs(p0,746.0,358.0, 0), v10, z5, tool0;
	MoveL Offs(p0,748.0,356.0, 0), v10, z5, tool0;
	MoveL Offs(p0,751.0,353.0, 0), v10, z5, tool0;
	MoveL Offs(p0,753.0,350.0, 0), v10, z5, tool0;
	MoveL Offs(p0,756.0,347.0, 0), v10, z5, tool0;
	MoveL Offs(p0,758.0,344.0, 0), v10, z5, tool0;
	MoveL Offs(p0,760.0,341.0, 0), v10, z5, tool0;
	MoveL Offs(p0,761.0,337.0, 0), v10, z5, tool0;
	MoveL Offs(p0,763.0,334.0, 0), v10, z5, tool0;
	MoveL Offs(p0,764.0,331.0, 0), v10, z5, tool0;
	MoveL Offs(p0,765.0,328.0, 0), v10, z5, tool0;
	MoveL Offs(p0,766.0,319.0, 0), v10, z5, tool0;
	MoveL Offs(p0,764.0,311.0, 0), v10, z5, tool0;
	MoveL Offs(p0,760.0,303.0, 0), v10, z5, tool0;
	MoveL Offs(p0,754.0,297.0, 0), v10, z5, tool0;
	MoveL Offs(p0,746.0,292.0, 0), v10, z5, tool0;
	MoveL Offs(p0,737.0,289.0, 0), v10, z5, tool0;
	MoveL Offs(p0,726.0,287.0, 0), v10, z5, tool0;
	MoveL Offs(p0,715.0,287.0, 0), v10, z5, tool0;
	MoveL Offs(p0,704.0,289.0, 0), v10, z5, tool0;
	MoveL Offs(p0,693.0,293.0, 0), v10, z5, tool0;
	MoveL Offs(p0,686.0,297.0, 0), v10, z5, tool0;
	MoveL Offs(p0,680.0,301.0, 0), v10, z5, tool0;
	MoveL Offs(p0,674.0,306.0, 0), v10, z5, tool0;
	MoveL Offs(p0,669.0,312.0, 0), v10, z5, tool0;
	MoveL Offs(p0,663.0,318.0, 0), v10, z5, tool0;
	MoveL Offs(p0,659.0,326.0, 0), v10, z5, tool0;
	MoveL Offs(p0,654.0,334.0, 0), v10, z5, tool0;
	MoveL Offs(p0,650.0,344.0, 0), v10, z5, tool0;
	MoveL Offs(p0,646.0,354.0, 0), v10, z5, tool0;
	MoveL Offs(p0,642.0,366.0, 0), v10, z5, tool0;
	MoveL Offs(p0,640.0,371.0, 0), v10, z5, tool0;
	MoveL Offs(p0,639.0,375.0, 0), v10, z5, tool0;
	MoveL Offs(p0,638.0,378.0, 0), v10, z5, tool0;
	MoveL Offs(p0,636.0,382.0, 0), v10, z5, tool0;
	MoveL Offs(p0,635.0,385.0, 0), v10, z5, tool0;
	MoveL Offs(p0,634.0,388.0, 0), v10, z5, tool0;
	MoveL Offs(p0,632.0,391.0, 0), v10, z5, tool0;
	MoveL Offs(p0,631.0,393.0, 0), v10, z5, tool0;
	MoveL Offs(p0,630.0,395.0, 0), v10, z5, tool0;
	MoveL Offs(p0,628.0,397.0, 0), v10, z5, tool0;
	MoveL Offs(p0,626.0,400.0, 0), v10, z5, tool0;
	MoveL Offs(p0,624.0,403.0, 0), v10, z5, tool0;
	MoveL Offs(p0,621.0,406.0, 0), v10, z5, tool0;
	MoveL Offs(p0,618.0,408.0, 0), v10, z5, tool0;
	MoveL Offs(p0,615.0,410.0, 0), v10, z5, tool0;
	MoveL Offs(p0,612.0,413.0, 0), v10, z5, tool0;
	MoveL Offs(p0,609.0,415.0, 0), v10, z5, tool0;
	MoveL Offs(p0,606.0,416.0, 0), v10, z5, tool0;
	MoveL Offs(p0,603.0,417.0, 0), v10, z5, tool0;
	MoveL Offs(p0,600.0,418.0, 0), v10, z5, tool0;
	MoveL Offs(p0,597.0,419.0, 0), v10, z5, tool0;
	MoveL Offs(p0,594.0,419.0, 0), v10, z5, tool0;
	MoveL Offs(p0,591.0,420.0, 0), v10, z5, tool0;
	MoveL Offs(p0,587.0,420.0, 0), v10, z5, tool0;
	MoveL Offs(p0,583.0,420.0, 0), v10, z5, tool0;
	MoveL Offs(p0,579.0,419.0, 0), v10, z5, tool0;
	MoveL Offs(p0,576.0,419.0, 0), v10, z5, tool0;
	MoveL Offs(p0,572.0,419.0, 0), v10, z5, tool0;
	MoveL Offs(p0,570.0,418.0, 0), v10, z5, tool0;
	MoveL Offs(p0,568.0,417.0, 0), v10, z5, tool0;
	MoveL Offs(p0,565.0,417.0, 0), v10, z5, tool0;
	MoveL Offs(p0,565.0,417.0, 0), v10, z5, tool0;
	MoveL Offs(p0,565.0,417.0, 0), v10, z5, tool0;
	MoveL Offs(p0,565.0,417.0, 0), v10, z5, tool0;
	MoveL Offs(p0,569.0,421.0, 0), v10, z5, tool0;
	MoveL Offs(p0,574.0,423.0, 0), v10, z5, tool0;
	MoveL Offs(p0,580.0,425.0, 0), v10, z5, tool0;
	MoveL Offs(p0,587.0,427.0, 0), v10, z5, tool0;
	MoveL Offs(p0,594.0,429.0, 0), v10, z5, tool0;
	MoveL Offs(p0,603.0,430.0, 0), v10, z5, tool0;
	MoveL Offs(p0,611.0,431.0, 0), v10, z5, tool0;
	MoveL Offs(p0,619.0,431.0, 0), v10, z5, tool0;
	MoveL Offs(p0,627.0,431.0, 0), v10, z5, tool0;
	MoveL Offs(p0,635.0,430.0, 0), v10, z5, tool0;
	MoveL Offs(p0,640.0,429.0, 0), v10, z5, tool0;
	MoveL Offs(p0,645.0,429.0, 0), v10, z5, tool0;
	MoveL Offs(p0,649.0,429.0, 0), v10, z5, tool0;
	MoveL Offs(p0,652.0,429.0, 0), v10, z5, tool0;
	MoveL Offs(p0,654.0,429.0, 0), v10, z5, tool0;
	MoveL Offs(p0,656.0,429.0, 0), v10, z5, tool0;
	MoveL Offs(p0,657.0,430.0, 0), v10, z5, tool0;
	MoveL Offs(p0,659.0,431.0, 0), v10, z5, tool0;
	MoveL Offs(p0,660.0,432.0, 0), v10, z5, tool0;
	MoveL Offs(p0,662.0,433.0, 0), v10, z5, tool0;
	MoveL Offs(p0,664.0,435.0, 0), v10, z5, tool0;
	MoveL Offs(p0,665.0,438.0, 0), v10, z5, tool0;
	MoveL Offs(p0,666.0,440.0, 0), v10, z5, tool0;
	MoveL Offs(p0,667.0,442.0, 0), v10, z5, tool0;
	MoveL Offs(p0,667.0,445.0, 0), v10, z5, tool0;
	MoveL Offs(p0,666.0,447.0, 0), v10, z5, tool0;
	MoveL Offs(p0,665.0,450.0, 0), v10, z5, tool0;
	MoveL Offs(p0,664.0,452.0, 0), v10, z5, tool0;
	MoveL Offs(p0,662.0,455.0, 0), v10, z5, tool0;
	MoveL Offs(p0,659.0,458.0, 0), v10, z5, tool0;
	MoveL Offs(p0,656.0,462.0, 0), v10, z5, tool0;
	MoveL Offs(p0,654.0,465.0, 0), v10, z5, tool0;
	MoveL Offs(p0,652.0,468.0, 0), v10, z5, tool0;
	MoveL Offs(p0,651.0,471.0, 0), v10, z5, tool0;
	MoveL Offs(p0,650.0,474.0, 0), v10, z5, tool0;
	MoveL Offs(p0,650.0,477.0, 0), v10, z5, tool0;
	MoveL Offs(p0,650.0,480.0, 0), v10, z5, tool0;
	MoveL Offs(p0,651.0,483.0, 0), v10, z5, tool0;
	MoveL Offs(p0,652.0,487.0, 0), v10, z5, tool0;
	MoveL Offs(p0,654.0,491.0, 0), v10, z5, tool0;
	MoveL Offs(p0,656.0,494.0, 0), v10, z5, tool0;
	MoveL Offs(p0,658.0,497.0, 0), v10, z5, tool0;
	MoveL Offs(p0,660.0,499.0, 0), v10, z5, tool0;
	MoveL Offs(p0,662.0,502.0, 0), v10, z5, tool0;
	MoveL Offs(p0,665.0,504.0, 0), v10, z5, tool0;
	MoveL Offs(p0,668.0,506.0, 0), v10, z5, tool0;
	MoveL Offs(p0,671.0,508.0, 0), v10, z5, tool0;
	MoveL Offs(p0,676.0,510.0, 0), v10, z5, tool0;
	MoveL Offs(p0,681.0,513.0, 0), v10, z5, tool0;
	MoveL Offs(p0,687.0,515.0, 0), v10, z5, tool0;
	MoveL Offs(p0,689.0,516.0, 0), v10, z5, tool0;
	MoveL Offs(p0,691.0,517.0, 0), v10, z5, tool0;
	MoveL Offs(p0,693.0,518.0, 0), v10, z5, tool0;
	MoveL Offs(p0,695.0,519.0, 0), v10, z5, tool0;
	MoveL Offs(p0,697.0,520.0, 0), v10, z5, tool0;
	MoveL Offs(p0,699.0,521.0, 0), v10, z5, tool0;
	MoveL Offs(p0,700.0,522.0, 0), v10, z5, tool0;
	MoveL Offs(p0,702.0,523.0, 0), v10, z5, tool0;
	MoveL Offs(p0,703.0,524.0, 0), v10, z5, tool0;
	MoveL Offs(p0,704.0,525.0, 0), v10, z5, tool0;
	MoveL Offs(p0,706.0,529.0, 0), v10, z5, tool0;
	MoveL Offs(p0,707.0,531.0, 0), v10, z5, tool0;
	MoveL Offs(p0,707.0,534.0, 0), v10, z5, tool0;
	MoveL Offs(p0,707.0,536.0, 0), v10, z5, tool0;
	MoveL Offs(p0,707.0,539.0, 0), v10, z5, tool0;
	MoveL Offs(p0,706.0,542.0, 0), v10, z5, tool0;
	MoveL Offs(p0,705.0,545.0, 0), v10, z5, tool0;
	MoveL Offs(p0,703.0,549.0, 0), v10, z5, tool0;
	MoveL Offs(p0,701.0,552.0, 0), v10, z5, tool0;
	MoveL Offs(p0,699.0,556.0, 0), v10, z5, tool0;
	MoveL Offs(p0,697.0,560.0, 0), v10, z5, tool0;
	MoveL Offs(p0,696.0,563.0, 0), v10, z5, tool0;
	MoveL Offs(p0,694.0,567.0, 0), v10, z5, tool0;
	MoveL Offs(p0,693.0,571.0, 0), v10, z5, tool0;
	MoveL Offs(p0,693.0,575.0, 0), v10, z5, tool0;
	MoveL Offs(p0,692.0,579.0, 0), v10, z5, tool0;
	MoveL Offs(p0,692.0,583.0, 0), v10, z5, tool0;
	MoveL Offs(p0,692.0,588.0, 0), v10, z5, tool0;
	MoveL Offs(p0,692.0,594.0, 0), v10, z5, tool0;
	MoveL Offs(p0,693.0,599.0, 0), v10, z5, tool0;
	MoveL Offs(p0,693.0,605.0, 0), v10, z5, tool0;
	MoveL Offs(p0,694.0,610.0, 0), v10, z5, tool0;
	MoveL Offs(p0,696.0,615.0, 0), v10, z5, tool0;
	MoveL Offs(p0,698.0,619.0, 0), v10, z5, tool0;
	MoveL Offs(p0,700.0,623.0, 0), v10, z5, tool0;
	MoveL Offs(p0,702.0,626.0, 0), v10, z5, tool0;
	MoveL Offs(p0,704.0,629.0, 0), v10, z5, tool0;
	MoveL Offs(p0,707.0,631.0, 0), v10, z5, tool0;
	MoveL Offs(p0,710.0,633.0, 0), v10, z5, tool0;
	MoveL Offs(p0,712.0,635.0, 0), v10, z5, tool0;
	MoveL Offs(p0,714.0,636.0, 0), v10, z5, tool0;
	MoveL Offs(p0,715.0,637.0, 0), v10, z5, tool0;
	MoveL Offs(p0,716.0,639.0, 0), v10, z5, tool0;
	MoveL Offs(p0,717.0,640.0, 0), v10, z5, tool0;
	MoveL Offs(p0,718.0,642.0, 0), v10, z5, tool0;
	MoveL Offs(p0,718.0,643.0, 0), v10, z5, tool0;
	MoveL Offs(p0,718.0,645.0, 0), v10, z5, tool0;
	MoveL Offs(p0,717.0,647.0, 0), v10, z5, tool0;
	MoveL Offs(p0,716.0,649.0, 0), v10, z5, tool0;
	MoveL Offs(p0,715.0,651.0, 0), v10, z5, tool0;
	MoveL Offs(p0,714.0,652.0, 0), v10, z5, tool0;
	MoveL Offs(p0,713.0,653.0, 0), v10, z5, tool0;
	MoveL Offs(p0,713.0,654.0, 0), v10, z5, tool0;
	MoveL Offs(p0,712.0,654.0, 0), v10, z5, tool0;
	MoveL Offs(p0,711.0,655.0, 0), v10, z5, tool0;
	MoveL Offs(p0,709.0,655.0, 0), v10, z5, tool0;
	MoveL Offs(p0,708.0,655.0, 0), v10, z5, tool0;
	MoveL Offs(p0,707.0,655.0, 0), v10, z5, tool0;
	MoveL Offs(p0,703.0,654.0, 0), v10, z5, tool0;
	MoveL Offs(p0,698.0,652.0, 0), v10, z5, tool0;
	MoveL Offs(p0,691.0,648.0, 0), v10, z5, tool0;
	MoveL Offs(p0,682.0,642.0, 0), v10, z5, tool0;
	MoveL Offs(p0,672.0,636.0, 0), v10, z5, tool0;
	MoveL Offs(p0,661.0,629.0, 0), v10, z5, tool0;
	MoveL Offs(p0,649.0,620.0, 0), v10, z5, tool0;
	MoveL Offs(p0,637.0,611.0, 0), v10, z5, tool0;
	MoveL Offs(p0,624.0,602.0, 0), v10, z5, tool0;
	MoveL Offs(p0,612.0,592.0, 0), v10, z5, tool0;
	MoveL Offs(p0,591.0,575.0, 0), v10, z5, tool0;
	MoveL Offs(p0,590.0,580.0, 0), v10, z5, tool0;
	MoveL Offs(p0,588.0,584.0, 0), v10, z5, tool0;
	MoveL Offs(p0,587.0,587.0, 0), v10, z5, tool0;
	MoveL Offs(p0,586.0,589.0, 0), v10, z5, tool0;
	MoveL Offs(p0,584.0,591.0, 0), v10, z5, tool0;
	MoveL Offs(p0,582.0,592.0, 0), v10, z5, tool0;
	MoveL Offs(p0,580.0,593.0, 0), v10, z5, tool0;
	MoveL Offs(p0,577.0,593.0, 0), v10, z5, tool0;
	MoveL Offs(p0,574.0,593.0, 0), v10, z5, tool0;
	MoveL Offs(p0,571.0,592.0, 0), v10, z5, tool0;
	MoveL Offs(p0,568.0,591.0, 0), v10, z5, tool0;
	MoveL Offs(p0,566.0,590.0, 0), v10, z5, tool0;
	MoveL Offs(p0,565.0,589.0, 0), v10, z5, tool0;
	MoveL Offs(p0,564.0,589.0, 0), v10, z5, tool0;
	MoveL Offs(p0,564.0,589.0, 0), v10, z5, tool0;
	MoveL Offs(p0,564.0,589.0, 0), v10, z5, tool0;
	MoveL Offs(p0,563.0,590.0, 0), v10, z5, tool0;
	MoveL Offs(p0,563.0,590.0, 0), v10, z5, tool0;
	MoveL Offs(p0,563.0,590.0, 0), v10, z5, tool0;
	MoveL Offs(p0,563.0,594.0, 0), v10, z5, tool0;
	MoveL Offs(p0,562.0,596.0, 0), v10, z5, tool0;
	MoveL Offs(p0,562.0,598.0, 0), v10, z5, tool0;
	MoveL Offs(p0,561.0,600.0, 0), v10, z5, tool0;
	MoveL Offs(p0,560.0,601.0, 0), v10, z5, tool0;
	MoveL Offs(p0,560.0,603.0, 0), v10, z5, tool0;
	MoveL Offs(p0,559.0,604.0, 0), v10, z5, tool0;
	MoveL Offs(p0,558.0,605.0, 0), v10, z5, tool0;
	MoveL Offs(p0,557.0,605.0, 0), v10, z5, tool0;
	MoveL Offs(p0,554.0,604.0, 0), v10, z5, tool0;
	MoveL Offs(p0,552.0,603.0, 0), v10, z5, tool0;
	MoveL Offs(p0,549.0,603.0, 0), v10, z5, tool0;
	MoveL Offs(p0,546.0,602.0, 0), v10, z5, tool0;
	MoveL Offs(p0,543.0,600.0, 0), v10, z5, tool0;
	MoveL Offs(p0,540.0,599.0, 0), v10, z5, tool0;
	MoveL Offs(p0,536.0,598.0, 0), v10, z5, tool0;
	MoveL Offs(p0,532.0,597.0, 0), v10, z5, tool0;
	MoveL Offs(p0,528.0,595.0, 0), v10, z5, tool0;
	MoveL Offs(p0,525.0,594.0, 0), v10, z5, tool0;
	MoveL Offs(p0,522.0,593.0, 0), v10, z5, tool0;
	MoveL Offs(p0,519.0,592.0, 0), v10, z5, tool0;
	MoveL Offs(p0,516.0,591.0, 0), v10, z5, tool0;
	MoveL Offs(p0,514.0,590.0, 0), v10, z5, tool0;
	MoveL Offs(p0,512.0,589.0, 0), v10, z5, tool0;
	MoveL Offs(p0,510.0,589.0, 0), v10, z5, tool0;
	MoveL Offs(p0,510.0,589.0, 0), v10, z5, tool0;
	MoveL Offs(p0,509.0,589.0, 0), v10, z5, tool0;
	MoveL Offs(p0,511.0,592.0, 0), v10, z5, tool0;
	MoveL Offs(p0,512.0,594.0, 0), v10, z5, tool0;
	MoveL Offs(p0,513.0,597.0, 0), v10, z5, tool0;
	MoveL Offs(p0,515.0,600.0, 0), v10, z5, tool0;
	MoveL Offs(p0,516.0,603.0, 0), v10, z5, tool0;
	MoveL Offs(p0,518.0,607.0, 0), v10, z5, tool0;
	MoveL Offs(p0,520.0,611.0, 0), v10, z5, tool0;
	MoveL Offs(p0,523.0,615.0, 0), v10, z5, tool0;
	MoveL Offs(p0,526.0,620.0, 0), v10, z5, tool0;
	MoveL Offs(p0,528.0,625.0, 0), v10, z5, tool0;
	MoveL Offs(p0,530.0,629.0, 0), v10, z5, tool0;
	MoveL Offs(p0,532.0,633.0, 0), v10, z5, tool0;
	MoveL Offs(p0,533.0,636.0, 0), v10, z5, tool0;
	MoveL Offs(p0,535.0,639.0, 0), v10, z5, tool0;
	MoveL Offs(p0,535.0,642.0, 0), v10, z5, tool0;
	MoveL Offs(p0,536.0,644.0, 0), v10, z5, tool0;
	MoveL Offs(p0,537.0,646.0, 0), v10, z5, tool0;
	MoveL Offs(p0,537.0,647.0, 0), v10, z5, tool0;
	MoveL Offs(p0,536.0,650.0, 0), v10, z5, tool0;
	MoveL Offs(p0,536.0,653.0, 0), v10, z5, tool0;
	MoveL Offs(p0,535.0,655.0, 0), v10, z5, tool0;
	MoveL Offs(p0,533.0,657.0, 0), v10, z5, tool0;
	MoveL Offs(p0,532.0,658.0, 0), v10, z5, tool0;
	MoveL Offs(p0,530.0,659.0, 0), v10, z5, tool0;
	MoveL Offs(p0,527.0,660.0, 0), v10, z5, tool0;
	MoveL Offs(p0,525.0,660.0, 0), v10, z5, tool0;
	MoveL Offs(p0,522.0,659.0, 0), v10, z5, tool0;
	MoveL Offs(p0,520.0,658.0, 0), v10, z5, tool0;
	MoveL Offs(p0,517.0,655.0, 0), v10, z5, tool0;
	MoveL Offs(p0,515.0,653.0, 0), v10, z5, tool0;
	MoveL Offs(p0,513.0,651.0, 0), v10, z5, tool0;
	MoveL Offs(p0,511.0,648.0, 0), v10, z5, tool0;
	MoveL Offs(p0,508.0,645.0, 0), v10, z5, tool0;
	MoveL Offs(p0,506.0,642.0, 0), v10, z5, tool0;
	MoveL Offs(p0,503.0,639.0, 0), v10, z5, tool0;
	MoveL Offs(p0,501.0,635.0, 0), v10, z5, tool0;
	MoveL Offs(p0,497.0,630.0, 0), v10, z5, tool0;
	MoveL Offs(p0,494.0,626.0, 0), v10, z5, tool0;
	MoveL Offs(p0,491.0,622.0, 0), v10, z5, tool0;
	MoveL Offs(p0,488.0,620.0, 0), v10, z5, tool0;
	MoveL Offs(p0,486.0,618.0, 0), v10, z5, tool0;
	MoveL Offs(p0,485.0,616.0, 0), v10, z5, tool0;
	MoveL Offs(p0,483.0,615.0, 0), v10, z5, tool0;
	MoveL Offs(p0,482.0,614.0, 0), v10, z5, tool0;
	MoveL Offs(p0,480.0,613.0, 0), v10, z5, tool0;
	MoveL Offs(p0,479.0,613.0, 0), v10, z5, tool0;
	MoveL Offs(p0,472.0,612.0, 0), v10, z5, tool0;
	MoveL Offs(p0,466.0,611.0, 0), v10, z5, tool0;
	MoveL Offs(p0,460.0,610.0, 0), v10, z5, tool0;
	MoveL Offs(p0,455.0,610.0, 0), v10, z5, tool0;
	MoveL Offs(p0,450.0,610.0, 0), v10, z5, tool0;
	MoveL Offs(p0,445.0,611.0, 0), v10, z5, tool0;
	MoveL Offs(p0,439.0,612.0, 0), v10, z5, tool0;
	MoveL Offs(p0,433.0,613.0, 0), v10, z5, tool0;
	MoveL Offs(p0,426.0,615.0, 0), v10, z5, tool0;
	MoveL Offs(p0,418.0,618.0, 0), v10, z5, tool0;
	MoveL Offs(p0,414.0,619.0, 0), v10, z5, tool0;
	MoveL Offs(p0,411.0,620.0, 0), v10, z5, tool0;
	MoveL Offs(p0,407.0,621.0, 0), v10, z5, tool0;
	MoveL Offs(p0,404.0,622.0, 0), v10, z5, tool0;
	MoveL Offs(p0,400.0,622.0, 0), v10, z5, tool0;
	MoveL Offs(p0,397.0,623.0, 0), v10, z5, tool0;
	MoveL Offs(p0,394.0,623.0, 0), v10, z5, tool0;
	MoveL Offs(p0,391.0,624.0, 0), v10, z5, tool0;
	MoveL Offs(p0,388.0,624.0, 0), v10, z5, tool0;
	MoveL Offs(p0,385.0,624.0, 0), v10, z5, tool0;
	MoveL Offs(p0,370.0,626.0, 0), v10, z5, tool0;
	MoveL Offs(p0,369.0,641.0, 0), v10, z5, tool0;
	MoveL Offs(p0,369.0,647.0, 0), v10, z5, tool0;
	MoveL Offs(p0,368.0,653.0, 0), v10, z5, tool0;
	MoveL Offs(p0,367.0,660.0, 0), v10, z5, tool0;
	MoveL Offs(p0,366.0,668.0, 0), v10, z5, tool0;
	MoveL Offs(p0,364.0,675.0, 0), v10, z5, tool0;
	MoveL Offs(p0,363.0,682.0, 0), v10, z5, tool0;
	MoveL Offs(p0,361.0,688.0, 0), v10, z5, tool0;
	MoveL Offs(p0,360.0,694.0, 0), v10, z5, tool0;
	MoveL Offs(p0,358.0,700.0, 0), v10, z5, tool0;
	MoveL Offs(p0,356.0,704.0, 0), v10, z5, tool0;
	MoveL Offs(p0,355.0,707.0, 0), v10, z5, tool0;
	MoveL Offs(p0,355.0,709.0, 0), v10, z5, tool0;
	MoveL Offs(p0,354.0,711.0, 0), v10, z5, tool0;
	MoveL Offs(p0,353.0,712.0, 0), v10, z5, tool0;
	MoveL Offs(p0,352.0,713.0, 0), v10, z5, tool0;
	MoveL Offs(p0,351.0,714.0, 0), v10, z5, tool0;
	MoveL Offs(p0,350.0,714.0, 0), v10, z5, tool0;
	MoveL Offs(p0,349.0,714.0, 0), v10, z5, tool0;
	MoveL Offs(p0,348.0,715.0, 0), v10, z5, tool0;
	MoveL Offs(p0,346.0,715.0, 0), v10, z5, tool0;
	MoveL Offs(p0,340.0,715.0, 0), v10, z5, tool0;
	MoveL Offs(p0,341.0,699.0, 0), v10, z5, tool0;
	MoveL Offs(p0,342.0,682.0, 0), v10, z5, tool0;
	MoveL Offs(p0,336.0,695.0, 0), v10, z5, tool0;
	MoveL Offs(p0,334.0,702.0, 0), v10, z5, tool0;
	MoveL Offs(p0,330.0,710.0, 0), v10, z5, tool0;
	MoveL Offs(p0,327.0,717.0, 0), v10, z5, tool0;
	MoveL Offs(p0,323.0,725.0, 0), v10, z5, tool0;
	MoveL Offs(p0,319.0,733.0, 0), v10, z5, tool0;
	MoveL Offs(p0,315.0,741.0, 0), v10, z5, tool0;
	MoveL Offs(p0,312.0,748.0, 0), v10, z5, tool0;
	MoveL Offs(p0,308.0,754.0, 0), v10, z5, tool0;
	MoveL Offs(p0,305.0,759.0, 0), v10, z5, tool0;
	MoveL Offs(p0,302.0,763.0, 0), v10, z5, tool0;
	MoveL Offs(p0,300.0,767.0, 0), v10, z5, tool0;
	MoveL Offs(p0,297.0,771.0, 0), v10, z5, tool0;
	MoveL Offs(p0,295.0,774.0, 0), v10, z5, tool0;
	MoveL Offs(p0,293.0,776.0, 0), v10, z5, tool0;
	MoveL Offs(p0,290.0,778.0, 0), v10, z5, tool0;
	MoveL Offs(p0,288.0,780.0, 0), v10, z5, tool0;
	MoveL Offs(p0,286.0,781.0, 0), v10, z5, tool0;
	MoveL Offs(p0,284.0,781.0, 0), v10, z5, tool0;
	MoveL Offs(p0,282.0,782.0, 0), v10, z5, tool0;
	MoveL Offs(p0,279.0,782.0, 0), v10, z5, tool0;
	MoveL Offs(p0,276.0,782.0, 0), v10, z5, tool0;
	MoveL Offs(p0,275.0,781.0, 0), v10, z5, tool0;
	MoveL Offs(p0,274.0,781.0, 0), v10, z5, tool0;
	MoveL Offs(p0,273.0,781.0, 0), v10, z5, tool0;
	MoveL Offs(p0,272.0,781.0, 0), v10, z5, tool0;
	MoveL Offs(p0,272.0,780.0, 0), v10, z5, tool0;
	MoveL Offs(p0,272.0,780.0, 0), v10, z5, tool0;
	MoveL Offs(p0,272.0,779.0, 0), v10, z5, tool0;
	MoveL Offs(p0,272.0,778.0, 0), v10, z5, tool0;
	MoveL Offs(p0,272.0,778.0, 0), v10, z5, tool0;
	MoveJ Offs(p0,286.0,776.0, 10), v10, z1, tool0;
	MoveL Offs(p0,290.0,772.0, 0), v10, z5, tool0;
	MoveL Offs(p0,293.0,769.0, 0), v10, z5, tool0;
	MoveL Offs(p0,295.0,765.0, 0), v10, z5, tool0;
	MoveL Offs(p0,298.0,761.0, 0), v10, z5, tool0;
	MoveL Offs(p0,301.0,757.0, 0), v10, z5, tool0;
	MoveL Offs(p0,304.0,752.0, 0), v10, z5, tool0;
	MoveL Offs(p0,307.0,748.0, 0), v10, z5, tool0;
	MoveL Offs(p0,310.0,743.0, 0), v10, z5, tool0;
	MoveL Offs(p0,312.0,738.0, 0), v10, z5, tool0;
	MoveL Offs(p0,317.0,728.0, 0), v10, z5, tool0;
	MoveL Offs(p0,321.0,719.0, 0), v10, z5, tool0;
	MoveL Offs(p0,325.0,709.0, 0), v10, z5, tool0;
	MoveL Offs(p0,329.0,700.0, 0), v10, z5, tool0;
	MoveL Offs(p0,332.0,691.0, 0), v10, z5, tool0;
	MoveL Offs(p0,335.0,683.0, 0), v10, z5, tool0;
	MoveL Offs(p0,337.0,676.0, 0), v10, z5, tool0;
	MoveL Offs(p0,338.0,670.0, 0), v10, z5, tool0;
	MoveL Offs(p0,339.0,666.0, 0), v10, z5, tool0;
	MoveL Offs(p0,339.0,663.0, 0), v10, z5, tool0;
	MoveL Offs(p0,339.0,661.0, 0), v10, z5, tool0;
	MoveL Offs(p0,339.0,661.0, 0), v10, z5, tool0;
	MoveL Offs(p0,339.0,661.0, 0), v10, z5, tool0;
	MoveL Offs(p0,339.0,660.0, 0), v10, z5, tool0;
	MoveL Offs(p0,340.0,660.0, 0), v10, z5, tool0;
	MoveL Offs(p0,340.0,660.0, 0), v10, z5, tool0;
	MoveL Offs(p0,341.0,660.0, 0), v10, z5, tool0;
	MoveL Offs(p0,343.0,661.0, 0), v10, z5, tool0;
	MoveL Offs(p0,343.0,662.0, 0), v10, z5, tool0;
	MoveL Offs(p0,344.0,664.0, 0), v10, z5, tool0;
	MoveL Offs(p0,344.0,666.0, 0), v10, z5, tool0;
	MoveL Offs(p0,345.0,669.0, 0), v10, z5, tool0;
	MoveL Offs(p0,345.0,673.0, 0), v10, z5, tool0;
	MoveL Offs(p0,345.0,678.0, 0), v10, z5, tool0;
	MoveL Offs(p0,345.0,683.0, 0), v10, z5, tool0;
	MoveL Offs(p0,345.0,690.0, 0), v10, z5, tool0;
	MoveL Offs(p0,345.0,695.0, 0), v10, z5, tool0;
	MoveL Offs(p0,344.0,700.0, 0), v10, z5, tool0;
	MoveL Offs(p0,344.0,703.0, 0), v10, z5, tool0;
	MoveL Offs(p0,344.0,706.0, 0), v10, z5, tool0;
	MoveL Offs(p0,345.0,708.0, 0), v10, z5, tool0;
	MoveL Offs(p0,345.0,710.0, 0), v10, z5, tool0;
	MoveL Offs(p0,345.0,711.0, 0), v10, z5, tool0;
	MoveL Offs(p0,346.0,711.0, 0), v10, z5, tool0;
	MoveL Offs(p0,346.0,712.0, 0), v10, z5, tool0;
	MoveL Offs(p0,347.0,712.0, 0), v10, z5, tool0;
	MoveL Offs(p0,349.0,711.0, 0), v10, z5, tool0;
	MoveL Offs(p0,350.0,709.0, 0), v10, z5, tool0;
	MoveL Offs(p0,351.0,707.0, 0), v10, z5, tool0;
	MoveL Offs(p0,352.0,704.0, 0), v10, z5, tool0;
	MoveL Offs(p0,354.0,701.0, 0), v10, z5, tool0;
	MoveL Offs(p0,355.0,697.0, 0), v10, z5, tool0;
	MoveL Offs(p0,356.0,693.0, 0), v10, z5, tool0;
	MoveL Offs(p0,357.0,688.0, 0), v10, z5, tool0;
	MoveL Offs(p0,358.0,682.0, 0), v10, z5, tool0;
	MoveL Offs(p0,359.0,676.0, 0), v10, z5, tool0;
	MoveL Offs(p0,360.0,670.0, 0), v10, z5, tool0;
	MoveL Offs(p0,361.0,663.0, 0), v10, z5, tool0;
	MoveL Offs(p0,362.0,656.0, 0), v10, z5, tool0;
	MoveL Offs(p0,363.0,649.0, 0), v10, z5, tool0;
	MoveL Offs(p0,364.0,642.0, 0), v10, z5, tool0;
	MoveL Offs(p0,364.0,637.0, 0), v10, z5, tool0;
	MoveL Offs(p0,365.0,632.0, 0), v10, z5, tool0;
	MoveL Offs(p0,365.0,629.0, 0), v10, z5, tool0;
	MoveL Offs(p0,365.0,627.0, 0), v10, z5, tool0;
	MoveL Offs(p0,362.0,629.0, 0), v10, z5, tool0;
	MoveL Offs(p0,360.0,631.0, 0), v10, z5, tool0;
	MoveL Offs(p0,358.0,633.0, 0), v10, z5, tool0;
	MoveL Offs(p0,356.0,636.0, 0), v10, z5, tool0;
	MoveL Offs(p0,353.0,639.0, 0), v10, z5, tool0;
	MoveL Offs(p0,350.0,643.0, 0), v10, z5, tool0;
	MoveL Offs(p0,347.0,647.0, 0), v10, z5, tool0;
	MoveL Offs(p0,344.0,651.0, 0), v10, z5, tool0;
	MoveL Offs(p0,337.0,660.0, 0), v10, z5, tool0;
	MoveL Offs(p0,331.0,667.0, 0), v10, z5, tool0;
	MoveL Offs(p0,326.0,673.0, 0), v10, z5, tool0;
	MoveL Offs(p0,323.0,677.0, 0), v10, z5, tool0;
	MoveL Offs(p0,320.0,681.0, 0), v10, z5, tool0;
	MoveL Offs(p0,317.0,683.0, 0), v10, z5, tool0;
	MoveL Offs(p0,316.0,685.0, 0), v10, z5, tool0;
	MoveL Offs(p0,314.0,686.0, 0), v10, z5, tool0;
	MoveL Offs(p0,313.0,687.0, 0), v10, z5, tool0;
	MoveL Offs(p0,312.0,687.0, 0), v10, z5, tool0;
	MoveL Offs(p0,310.0,686.0, 0), v10, z5, tool0;
	MoveL Offs(p0,309.0,686.0, 0), v10, z5, tool0;
	MoveL Offs(p0,308.0,685.0, 0), v10, z5, tool0;
	MoveL Offs(p0,306.0,684.0, 0), v10, z5, tool0;
	MoveL Offs(p0,305.0,683.0, 0), v10, z5, tool0;
	MoveL Offs(p0,305.0,682.0, 0), v10, z5, tool0;
	MoveL Offs(p0,304.0,681.0, 0), v10, z5, tool0;
	MoveL Offs(p0,303.0,680.0, 0), v10, z5, tool0;
	MoveL Offs(p0,303.0,679.0, 0), v10, z5, tool0;
	MoveL Offs(p0,304.0,676.0, 0), v10, z5, tool0;
	MoveL Offs(p0,305.0,674.0, 0), v10, z5, tool0;
	MoveL Offs(p0,306.0,670.0, 0), v10, z5, tool0;
	MoveL Offs(p0,308.0,666.0, 0), v10, z5, tool0;
	MoveL Offs(p0,311.0,660.0, 0), v10, z5, tool0;
	MoveL Offs(p0,314.0,654.0, 0), v10, z5, tool0;
	MoveL Offs(p0,318.0,645.0, 0), v10, z5, tool0;
	MoveL Offs(p0,323.0,636.0, 0), v10, z5, tool0;
	MoveL Offs(p0,328.0,625.0, 0), v10, z5, tool0;
	MoveL Offs(p0,333.0,615.0, 0), v10, z5, tool0;
	MoveL Offs(p0,337.0,606.0, 0), v10, z5, tool0;
	MoveL Offs(p0,340.0,599.0, 0), v10, z5, tool0;
	MoveL Offs(p0,343.0,593.0, 0), v10, z5, tool0;
	MoveL Offs(p0,345.0,588.0, 0), v10, z5, tool0;
	MoveL Offs(p0,347.0,584.0, 0), v10, z5, tool0;
	MoveL Offs(p0,348.0,582.0, 0), v10, z5, tool0;
	MoveL Offs(p0,349.0,580.0, 0), v10, z5, tool0;
	MoveL Offs(p0,349.0,579.0, 0), v10, z5, tool0;
	MoveL Offs(p0,349.0,578.0, 0), v10, z5, tool0;
	MoveL Offs(p0,346.0,580.0, 0), v10, z5, tool0;
	MoveL Offs(p0,346.0,581.0, 0), v10, z5, tool0;
	MoveL Offs(p0,345.0,581.0, 0), v10, z5, tool0;
	MoveL Offs(p0,343.0,582.0, 0), v10, z5, tool0;
	MoveL Offs(p0,342.0,583.0, 0), v10, z5, tool0;
	MoveL Offs(p0,341.0,584.0, 0), v10, z5, tool0;
	MoveL Offs(p0,337.0,587.0, 0), v10, z5, tool0;
	MoveL Offs(p0,335.0,588.0, 0), v10, z5, tool0;
	MoveL Offs(p0,333.0,589.0, 0), v10, z5, tool0;
	MoveL Offs(p0,330.0,591.0, 0), v10, z5, tool0;
	MoveL Offs(p0,328.0,592.0, 0), v10, z5, tool0;
	MoveL Offs(p0,325.0,593.0, 0), v10, z5, tool0;
	MoveL Offs(p0,323.0,594.0, 0), v10, z5, tool0;
	MoveL Offs(p0,320.0,595.0, 0), v10, z5, tool0;
	MoveL Offs(p0,318.0,596.0, 0), v10, z5, tool0;
	MoveL Offs(p0,315.0,599.0, 0), v10, z5, tool0;
	MoveL Offs(p0,314.0,600.0, 0), v10, z5, tool0;
	MoveL Offs(p0,313.0,601.0, 0), v10, z5, tool0;
	MoveL Offs(p0,312.0,603.0, 0), v10, z5, tool0;
	MoveL Offs(p0,312.0,605.0, 0), v10, z5, tool0;
	MoveL Offs(p0,311.0,607.0, 0), v10, z5, tool0;
	MoveL Offs(p0,310.0,609.0, 0), v10, z5, tool0;
	MoveL Offs(p0,307.0,614.0, 0), v10, z5, tool0;
	MoveL Offs(p0,305.0,619.0, 0), v10, z5, tool0;
	MoveL Offs(p0,303.0,623.0, 0), v10, z5, tool0;
	MoveL Offs(p0,300.0,628.0, 0), v10, z5, tool0;
	MoveL Offs(p0,298.0,633.0, 0), v10, z5, tool0;
	MoveL Offs(p0,295.0,638.0, 0), v10, z5, tool0;
	MoveL Offs(p0,292.0,644.0, 0), v10, z5, tool0;
	MoveL Offs(p0,289.0,649.0, 0), v10, z5, tool0;
	MoveL Offs(p0,285.0,656.0, 0), v10, z5, tool0;
	MoveL Offs(p0,281.0,663.0, 0), v10, z5, tool0;
	MoveL Offs(p0,279.0,666.0, 0), v10, z5, tool0;
	MoveL Offs(p0,277.0,669.0, 0), v10, z5, tool0;
	MoveL Offs(p0,275.0,672.0, 0), v10, z5, tool0;
	MoveL Offs(p0,273.0,675.0, 0), v10, z5, tool0;
	MoveL Offs(p0,272.0,678.0, 0), v10, z5, tool0;
	MoveL Offs(p0,271.0,680.0, 0), v10, z5, tool0;
	MoveL Offs(p0,270.0,682.0, 0), v10, z5, tool0;
	MoveL Offs(p0,269.0,683.0, 0), v10, z5, tool0;
	MoveL Offs(p0,269.0,684.0, 0), v10, z5, tool0;
	MoveL Offs(p0,269.0,684.0, 0), v10, z5, tool0;
	MoveL Offs(p0,271.0,685.0, 0), v10, z5, tool0;
	MoveL Offs(p0,272.0,684.0, 0), v10, z5, tool0;
	MoveL Offs(p0,274.0,684.0, 0), v10, z5, tool0;
	MoveL Offs(p0,275.0,683.0, 0), v10, z5, tool0;
	MoveL Offs(p0,277.0,682.0, 0), v10, z5, tool0;
	MoveL Offs(p0,279.0,681.0, 0), v10, z5, tool0;
	MoveL Offs(p0,281.0,680.0, 0), v10, z5, tool0;
	MoveL Offs(p0,283.0,678.0, 0), v10, z5, tool0;
	MoveL Offs(p0,286.0,676.0, 0), v10, z5, tool0;
	MoveL Offs(p0,287.0,675.0, 0), v10, z5, tool0;
	MoveL Offs(p0,288.0,674.0, 0), v10, z5, tool0;
	MoveL Offs(p0,288.0,674.0, 0), v10, z5, tool0;
	MoveL Offs(p0,289.0,673.0, 0), v10, z5, tool0;
	MoveL Offs(p0,289.0,672.0, 0), v10, z5, tool0;
	MoveL Offs(p0,289.0,671.0, 0), v10, z5, tool0;
	MoveL Offs(p0,289.0,671.0, 0), v10, z5, tool0;
	MoveL Offs(p0,289.0,670.0, 0), v10, z5, tool0;
	MoveL Offs(p0,289.0,668.0, 0), v10, z5, tool0;
	MoveL Offs(p0,289.0,667.0, 0), v10, z5, tool0;
	MoveL Offs(p0,289.0,667.0, 0), v10, z5, tool0;
	MoveL Offs(p0,290.0,667.0, 0), v10, z5, tool0;
	MoveL Offs(p0,290.0,667.0, 0), v10, z5, tool0;
	MoveL Offs(p0,291.0,667.0, 0), v10, z5, tool0;
	MoveL Offs(p0,291.0,667.0, 0), v10, z5, tool0;
	MoveL Offs(p0,294.0,667.0, 0), v10, z5, tool0;
	MoveL Offs(p0,294.0,668.0, 0), v10, z5, tool0;
	MoveL Offs(p0,294.0,668.0, 0), v10, z5, tool0;
	MoveL Offs(p0,295.0,669.0, 0), v10, z5, tool0;
	MoveL Offs(p0,295.0,669.0, 0), v10, z5, tool0;
	MoveL Offs(p0,295.0,670.0, 0), v10, z5, tool0;
	MoveL Offs(p0,296.0,671.0, 0), v10, z5, tool0;
	MoveL Offs(p0,296.0,676.0, 0), v10, z5, tool0;
	MoveL Offs(p0,296.0,683.0, 0), v10, z5, tool0;
	MoveL Offs(p0,295.0,693.0, 0), v10, z5, tool0;
	MoveL Offs(p0,293.0,704.0, 0), v10, z5, tool0;
	MoveL Offs(p0,291.0,717.0, 0), v10, z5, tool0;
	MoveL Offs(p0,288.0,729.0, 0), v10, z5, tool0;
	MoveL Offs(p0,286.0,741.0, 0), v10, z5, tool0;
	MoveL Offs(p0,283.0,752.0, 0), v10, z5, tool0;
	MoveL Offs(p0,281.0,761.0, 0), v10, z5, tool0;
	MoveL Offs(p0,278.0,768.0, 0), v10, z5, tool0;
	MoveL Offs(p0,277.0,770.0, 0), v10, z5, tool0;
	MoveL Offs(p0,277.0,772.0, 0), v10, z5, tool0;
	MoveL Offs(p0,276.0,773.0, 0), v10, z5, tool0;
	MoveL Offs(p0,276.0,774.0, 0), v10, z5, tool0;
	MoveL Offs(p0,276.0,775.0, 0), v10, z5, tool0;
	MoveL Offs(p0,275.0,775.0, 0), v10, z5, tool0;
	MoveL Offs(p0,275.0,776.0, 0), v10, z5, tool0;
	MoveL Offs(p0,275.0,776.0, 0), v10, z5, tool0;
	MoveL Offs(p0,275.0,777.0, 0), v10, z5, tool0;
	MoveL Offs(p0,278.0,778.0, 0), v10, z5, tool0;
	MoveL Offs(p0,279.0,778.0, 0), v10, z5, tool0;
	MoveL Offs(p0,281.0,778.0, 0), v10, z5, tool0;
	MoveL Offs(p0,282.0,778.0, 0), v10, z5, tool0;
	MoveL Offs(p0,284.0,777.0, 0), v10, z5, tool0;
	MoveL Offs(p0,285.0,777.0, 0), v10, z5, tool0;
	MoveL Offs(p0,286.0,776.0, 0), v10, z5, tool0;
	MoveL Offs(p0,286.0,776.0, 0), v10, z5, tool0;
	MoveJ Offs(p0,210.0,656.0, 10), v10, z1, tool0;
	MoveL Offs(p0,212.0,655.0, 0), v10, z5, tool0;
	MoveL Offs(p0,215.0,653.0, 0), v10, z5, tool0;
	MoveL Offs(p0,217.0,652.0, 0), v10, z5, tool0;
	MoveL Offs(p0,220.0,650.0, 0), v10, z5, tool0;
	MoveL Offs(p0,223.0,649.0, 0), v10, z5, tool0;
	MoveL Offs(p0,226.0,647.0, 0), v10, z5, tool0;
	MoveL Offs(p0,229.0,645.0, 0), v10, z5, tool0;
	MoveL Offs(p0,231.0,643.0, 0), v10, z5, tool0;
	MoveL Offs(p0,234.0,642.0, 0), v10, z5, tool0;
	MoveL Offs(p0,237.0,640.0, 0), v10, z5, tool0;
	MoveL Offs(p0,240.0,638.0, 0), v10, z5, tool0;
	MoveL Offs(p0,243.0,636.0, 0), v10, z5, tool0;
	MoveL Offs(p0,245.0,634.0, 0), v10, z5, tool0;
	MoveL Offs(p0,247.0,632.0, 0), v10, z5, tool0;
	MoveL Offs(p0,249.0,631.0, 0), v10, z5, tool0;
	MoveL Offs(p0,250.0,630.0, 0), v10, z5, tool0;
	MoveL Offs(p0,251.0,629.0, 0), v10, z5, tool0;
	MoveL Offs(p0,251.0,628.0, 0), v10, z5, tool0;
	MoveL Offs(p0,251.0,627.0, 0), v10, z5, tool0;
	MoveL Offs(p0,251.0,626.0, 0), v10, z5, tool0;
	MoveL Offs(p0,251.0,624.0, 0), v10, z5, tool0;
	MoveL Offs(p0,251.0,624.0, 0), v10, z5, tool0;
	MoveL Offs(p0,252.0,623.0, 0), v10, z5, tool0;
	MoveL Offs(p0,252.0,623.0, 0), v10, z5, tool0;
	MoveL Offs(p0,253.0,623.0, 0), v10, z5, tool0;
	MoveL Offs(p0,253.0,624.0, 0), v10, z5, tool0;
	MoveL Offs(p0,254.0,624.0, 0), v10, z5, tool0;
	MoveL Offs(p0,254.0,625.0, 0), v10, z5, tool0;
	MoveL Offs(p0,254.0,628.0, 0), v10, z5, tool0;
	MoveL Offs(p0,254.0,629.0, 0), v10, z5, tool0;
	MoveL Offs(p0,254.0,631.0, 0), v10, z5, tool0;
	MoveL Offs(p0,254.0,632.0, 0), v10, z5, tool0;
	MoveL Offs(p0,254.0,634.0, 0), v10, z5, tool0;
	MoveL Offs(p0,253.0,636.0, 0), v10, z5, tool0;
	MoveL Offs(p0,253.0,638.0, 0), v10, z5, tool0;
	MoveL Offs(p0,253.0,641.0, 0), v10, z5, tool0;
	MoveL Offs(p0,252.0,643.0, 0), v10, z5, tool0;
	MoveL Offs(p0,252.0,644.0, 0), v10, z5, tool0;
	MoveL Offs(p0,252.0,646.0, 0), v10, z5, tool0;
	MoveL Offs(p0,252.0,647.0, 0), v10, z5, tool0;
	MoveL Offs(p0,252.0,648.0, 0), v10, z5, tool0;
	MoveL Offs(p0,252.0,649.0, 0), v10, z5, tool0;
	MoveL Offs(p0,252.0,649.0, 0), v10, z5, tool0;
	MoveL Offs(p0,252.0,650.0, 0), v10, z5, tool0;
	MoveL Offs(p0,256.0,648.0, 0), v10, z5, tool0;
	MoveL Offs(p0,259.0,645.0, 0), v10, z5, tool0;
	MoveL Offs(p0,263.0,640.0, 0), v10, z5, tool0;
	MoveL Offs(p0,267.0,635.0, 0), v10, z5, tool0;
	MoveL Offs(p0,272.0,630.0, 0), v10, z5, tool0;
	MoveL Offs(p0,276.0,624.0, 0), v10, z5, tool0;
	MoveL Offs(p0,280.0,618.0, 0), v10, z5, tool0;
	MoveL Offs(p0,284.0,613.0, 0), v10, z5, tool0;
	MoveL Offs(p0,287.0,608.0, 0), v10, z5, tool0;
	MoveL Offs(p0,290.0,600.0, 0), v10, z5, tool0;
	MoveL Offs(p0,277.0,588.0, 0), v10, z5, tool0;
	MoveL Offs(p0,275.0,585.0, 0), v10, z5, tool0;
	MoveL Offs(p0,273.0,583.0, 0), v10, z5, tool0;
	MoveL Offs(p0,271.0,581.0, 0), v10, z5, tool0;
	MoveL Offs(p0,269.0,580.0, 0), v10, z5, tool0;
	MoveL Offs(p0,267.0,579.0, 0), v10, z5, tool0;
	MoveL Offs(p0,266.0,578.0, 0), v10, z5, tool0;
	MoveL Offs(p0,264.0,577.0, 0), v10, z5, tool0;
	MoveL Offs(p0,263.0,576.0, 0), v10, z5, tool0;
	MoveL Offs(p0,263.0,576.0, 0), v10, z5, tool0;
	MoveL Offs(p0,262.0,576.0, 0), v10, z5, tool0;
	MoveL Offs(p0,254.0,581.0, 0), v10, z5, tool0;
	MoveL Offs(p0,248.0,586.0, 0), v10, z5, tool0;
	MoveL Offs(p0,242.0,590.0, 0), v10, z5, tool0;
	MoveL Offs(p0,238.0,593.0, 0), v10, z5, tool0;
	MoveL Offs(p0,234.0,596.0, 0), v10, z5, tool0;
	MoveL Offs(p0,231.0,598.0, 0), v10, z5, tool0;
	MoveL Offs(p0,229.0,599.0, 0), v10, z5, tool0;
	MoveL Offs(p0,228.0,601.0, 0), v10, z5, tool0;
	MoveL Offs(p0,227.0,601.0, 0), v10, z5, tool0;
	MoveL Offs(p0,227.0,602.0, 0), v10, z5, tool0;
	MoveL Offs(p0,229.0,603.0, 0), v10, z5, tool0;
	MoveL Offs(p0,230.0,603.0, 0), v10, z5, tool0;
	MoveL Offs(p0,231.0,603.0, 0), v10, z5, tool0;
	MoveL Offs(p0,232.0,603.0, 0), v10, z5, tool0;
	MoveL Offs(p0,233.0,603.0, 0), v10, z5, tool0;
	MoveL Offs(p0,237.0,603.0, 0), v10, z5, tool0;
	MoveL Offs(p0,238.0,603.0, 0), v10, z5, tool0;
	MoveL Offs(p0,239.0,602.0, 0), v10, z5, tool0;
	MoveL Offs(p0,240.0,602.0, 0), v10, z5, tool0;
	MoveL Offs(p0,240.0,602.0, 0), v10, z5, tool0;
	MoveL Offs(p0,240.0,601.0, 0), v10, z5, tool0;
	MoveL Offs(p0,240.0,601.0, 0), v10, z5, tool0;
	MoveL Offs(p0,239.0,600.0, 0), v10, z5, tool0;
	MoveL Offs(p0,238.0,600.0, 0), v10, z5, tool0;
	MoveL Offs(p0,241.0,599.0, 0), v10, z5, tool0;
	MoveL Offs(p0,242.0,599.0, 0), v10, z5, tool0;
	MoveL Offs(p0,242.0,600.0, 0), v10, z5, tool0;
	MoveL Offs(p0,242.0,600.0, 0), v10, z5, tool0;
	MoveL Offs(p0,243.0,601.0, 0), v10, z5, tool0;
	MoveL Offs(p0,243.0,602.0, 0), v10, z5, tool0;
	MoveL Offs(p0,242.0,603.0, 0), v10, z5, tool0;
	MoveL Offs(p0,242.0,604.0, 0), v10, z5, tool0;
	MoveL Offs(p0,241.0,606.0, 0), v10, z5, tool0;
	MoveL Offs(p0,239.0,609.0, 0), v10, z5, tool0;
	MoveL Offs(p0,237.0,612.0, 0), v10, z5, tool0;
	MoveL Offs(p0,234.0,616.0, 0), v10, z5, tool0;
	MoveL Offs(p0,230.0,620.0, 0), v10, z5, tool0;
	MoveL Offs(p0,226.0,624.0, 0), v10, z5, tool0;
	MoveL Offs(p0,222.0,629.0, 0), v10, z5, tool0;
	MoveL Offs(p0,217.0,635.0, 0), v10, z5, tool0;
	MoveL Offs(p0,211.0,641.0, 0), v10, z5, tool0;
	MoveL Offs(p0,205.0,647.0, 0), v10, z5, tool0;
	MoveL Offs(p0,203.0,650.0, 0), v10, z5, tool0;
	MoveL Offs(p0,201.0,652.0, 0), v10, z5, tool0;
	MoveL Offs(p0,199.0,655.0, 0), v10, z5, tool0;
	MoveL Offs(p0,198.0,656.0, 0), v10, z5, tool0;
	MoveL Offs(p0,197.0,658.0, 0), v10, z5, tool0;
	MoveL Offs(p0,196.0,659.0, 0), v10, z5, tool0;
	MoveL Offs(p0,196.0,660.0, 0), v10, z5, tool0;
	MoveL Offs(p0,196.0,661.0, 0), v10, z5, tool0;
	MoveL Offs(p0,197.0,662.0, 0), v10, z5, tool0;
	MoveL Offs(p0,198.0,662.0, 0), v10, z5, tool0;
	MoveL Offs(p0,201.0,661.0, 0), v10, z5, tool0;
	MoveL Offs(p0,202.0,660.0, 0), v10, z5, tool0;
	MoveL Offs(p0,204.0,659.0, 0), v10, z5, tool0;
	MoveL Offs(p0,205.0,658.0, 0), v10, z5, tool0;
	MoveL Offs(p0,207.0,658.0, 0), v10, z5, tool0;
	MoveL Offs(p0,209.0,657.0, 0), v10, z5, tool0;
	MoveL Offs(p0,210.0,656.0, 0), v10, z5, tool0;
	MoveL Offs(p0,210.0,656.0, 0), v10, z5, tool0;
	MoveJ Offs(p0,709.0,650.0, 10), v10, z1, tool0;
	MoveL Offs(p0,711.0,648.0, 0), v10, z5, tool0;
	MoveL Offs(p0,712.0,647.0, 0), v10, z5, tool0;
	MoveL Offs(p0,712.0,646.0, 0), v10, z5, tool0;
	MoveL Offs(p0,712.0,645.0, 0), v10, z5, tool0;
	MoveL Offs(p0,712.0,644.0, 0), v10, z5, tool0;
	MoveL Offs(p0,712.0,644.0, 0), v10, z5, tool0;
	MoveL Offs(p0,712.0,643.0, 0), v10, z5, tool0;
	MoveL Offs(p0,712.0,642.0, 0), v10, z5, tool0;
	MoveL Offs(p0,710.0,640.0, 0), v10, z5, tool0;
	MoveL Offs(p0,709.0,639.0, 0), v10, z5, tool0;
	MoveL Offs(p0,707.0,638.0, 0), v10, z5, tool0;
	MoveL Offs(p0,705.0,637.0, 0), v10, z5, tool0;
	MoveL Offs(p0,704.0,636.0, 0), v10, z5, tool0;
	MoveL Offs(p0,702.0,635.0, 0), v10, z5, tool0;
	MoveL Offs(p0,700.0,633.0, 0), v10, z5, tool0;
	MoveL Offs(p0,698.0,632.0, 0), v10, z5, tool0;
	MoveL Offs(p0,684.0,623.0, 0), v10, z5, tool0;
	MoveL Offs(p0,669.0,613.0, 0), v10, z5, tool0;
	MoveL Offs(p0,653.0,600.0, 0), v10, z5, tool0;
	MoveL Offs(p0,636.0,586.0, 0), v10, z5, tool0;
	MoveL Offs(p0,619.0,572.0, 0), v10, z5, tool0;
	MoveL Offs(p0,603.0,557.0, 0), v10, z5, tool0;
