MODULE Module1
    !***********************************************************
    !
    ! Module:  Module1
    !
    ! Description:
    !   <Insert description here>
    !
    ! Author: ufabc
    !
    ! Version: 1.0
    !
    !***********************************************************
    
    
    !***********************************************************
    !
    ! Procedure main
    !
    !   This is the entry point of your program
    !
    !***********************************************************
    PROC main()
        !Add your code here
        CONST robtarget p0:=[[557.96,-192.62,509.20],[0.00299687,-0.165444,-0.986215,-0.000502744],[-1,0,0,0],[9E+09,9E+09,9E+09,9E+09,9E+09,9E+09]];	MoveJ Offs(p0,271.6666666666667,778.0, 10), v100, z1, tool0;
	MoveL Offs(p0,272.0356666666667,775.2985, 0), v100, z5, tool0;
	MoveL Offs(p0,272.30133333333333,774.1253333333334, 0), v100, z5, tool0;
	MoveL Offs(p0,272.625,772.8541666666666, 0), v100, z5, tool0;
	MoveL Offs(p0,272.9986666666667,771.5079999999999, 0), v100, z5, tool0;
	MoveL Offs(p0,273.41433333333333,770.1098333333333, 0), v100, z5, tool0;
	MoveL Offs(p0,273.86400000000003,768.6826666666667, 0), v100, z5, tool0;
	MoveL Offs(p0,274.3396666666667,767.2495, 0), v100, z5, tool0;
	MoveL Offs(p0,274.8333333333333,765.8333333333334, 0), v100, z5, tool0;
	MoveL Offs(p0,276.428,760.7561666666667, 0), v100, z5, tool0;
	MoveL Offs(p0,278.25066666666675,753.6560000000003, 0), v100, z5, tool0;
	MoveL Offs(p0,280.20933333333335,745.0298333333332, 0), v100, z5, tool0;
	MoveL Offs(p0,282.21200000000005,735.3746666666667, 0), v100, z5, tool0;
	MoveL Offs(p0,284.1666666666667,725.1875, 0), v100, z5, tool0;
	MoveL Offs(p0,285.98133333333334,714.9653333333332, 0), v100, z5, tool0;
	MoveL Offs(p0,287.564,705.2051666666666, 0), v100, z5, tool0;
	MoveL Offs(p0,288.8226666666667,696.4040000000001, 0), v100, z5, tool0;
	MoveL Offs(p0,289.66533333333336,689.0588333333334, 0), v100, z5, tool0;
	MoveL Offs(p0,290.0,683.6666666666666, 0), v100, z5, tool0;
	MoveL Offs(p0,290.0,679.6666666666666, 0), v100, z5, tool0;
	MoveL Offs(p0,282.3333333333333,684.0, 0), v100, z5, tool0;
	MoveL Offs(p0,279.82300000000004,685.3248333333332, 0), v100, z5, tool0;
	MoveL Offs(p0,277.49066666666675,686.3986666666668, 0), v100, z5, tool0;
	MoveL Offs(p0,275.3343333333333,687.2205, 0), v100, z5, tool0;
	MoveL Offs(p0,273.35200000000003,687.7893333333333, 0), v100, z5, tool0;
	MoveL Offs(p0,271.5416666666667,688.1041666666666, 0), v100, z5, tool0;
	MoveL Offs(p0,269.9013333333333,688.1639999999999, 0), v100, z5, tool0;
	MoveL Offs(p0,268.429,687.9678333333333, 0), v100, z5, tool0;
	MoveL Offs(p0,267.1226666666667,687.5146666666668, 0), v100, z5, tool0;
	MoveL Offs(p0,265.98033333333336,686.8035, 0), v100, z5, tool0;
	MoveL Offs(p0,265.0,685.8333333333334, 0), v100, z5, tool0;
	MoveL Offs(p0,264.544,683.3598333333334, 0), v100, z5, tool0;
	MoveL Offs(p0,264.9146666666667,682.028, 0), v100, z5, tool0;
	MoveL Offs(p0,265.5833333333333,680.3541666666666, 0), v100, z5, tool0;
	MoveL Offs(p0,266.57199999999995,678.2853333333334, 0), v100, z5, tool0;
	MoveL Offs(p0,267.9026666666667,675.7685, 0), v100, z5, tool0;
	MoveL Offs(p0,269.5973333333334,672.7506666666667, 0), v100, z5, tool0;
	MoveL Offs(p0,271.67800000000005,669.1788333333334, 0), v100, z5, tool0;
	MoveL Offs(p0,274.1666666666667,665.0, 0), v100, z5, tool0;
	MoveL Offs(p0,278.1423333333334,658.2665000000001, 0), v100, z5, tool0;
	MoveL Offs(p0,282.19200000000006,651.2120000000001, 0), v100, z5, tool0;
	MoveL Offs(p0,286.1996666666667,644.0555, 0), v100, z5, tool0;
	MoveL Offs(p0,290.0493333333333,637.0160000000001, 0), v100, z5, tool0;
	MoveL Offs(p0,293.625,630.3125, 0), v100, z5, tool0;
	MoveL Offs(p0,296.81066666666663,624.1639999999999, 0), v100, z5, tool0;
	MoveL Offs(p0,299.49033333333335,618.7895, 0), v100, z5, tool0;
	MoveL Offs(p0,301.548,614.408, 0), v100, z5, tool0;
	MoveL Offs(p0,302.8676666666667,611.2385, 0), v100, z5, tool0;
	MoveL Offs(p0,303.3333333333333,609.5, 0), v100, z5, tool0;
	MoveL Offs(p0,301.8933333333333,607.3594999999999, 0), v100, z5, tool0;
	MoveL Offs(p0,300.93333333333334,606.5373333333333, 0), v100, z5, tool0;
	MoveL Offs(p0,299.8333333333333,605.7291666666666, 0), v100, z5, tool0;
	MoveL Offs(p0,298.6533333333333,604.976, 0), v100, z5, tool0;
	MoveL Offs(p0,297.4533333333333,604.3188333333334, 0), v100, z5, tool0;
	MoveL Offs(p0,296.29333333333335,603.7986666666667, 0), v100, z5, tool0;
	MoveL Offs(p0,295.23333333333335,603.4565000000001, 0), v100, z5, tool0;
	MoveL Offs(p0,294.3333333333333,603.3333333333334, 0), v100, z5, tool0;
	MoveL Offs(p0,292.3573333333334,606.2826666666668, 0), v100, z5, tool0;
	MoveL Offs(p0,291.3958333333333,607.8125, 0), v100, z5, tool0;
	MoveL Offs(p0,290.28933333333333,609.5973333333333, 0), v100, z5, tool0;
	MoveL Offs(p0,289.0588333333333,611.6061666666666, 0), v100, z5, tool0;
	MoveL Offs(p0,287.72533333333337,613.8080000000001, 0), v100, z5, tool0;
	MoveL Offs(p0,286.3098333333333,616.1718333333333, 0), v100, z5, tool0;
	MoveL Offs(p0,284.8333333333333,618.6666666666666, 0), v100, z5, tool0;
	MoveL Offs(p0,283.2301666666667,621.2621666666668, 0), v100, z5, tool0;
	MoveL Offs(p0,281.44800000000004,624.0106666666669, 0), v100, z5, tool0;
	MoveL Offs(p0,279.5278333333333,626.8551666666666, 0), v100, z5, tool0;
	MoveL Offs(p0,277.5106666666667,629.7386666666667, 0), v100, z5, tool0;
	MoveL Offs(p0,275.4375,632.6041666666666, 0), v100, z5, tool0;
	MoveL Offs(p0,273.34933333333333,635.3946666666666, 0), v100, z5, tool0;
	MoveL Offs(p0,271.2871666666667,638.0531666666667, 0), v100, z5, tool0;
	MoveL Offs(p0,269.29200000000003,640.5226666666667, 0), v100, z5, tool0;
	MoveL Offs(p0,267.40483333333333,642.7461666666667, 0), v100, z5, tool0;
	MoveL Offs(p0,265.6666666666667,644.6666666666666, 0), v100, z5, tool0;
	MoveL Offs(p0,263.1011666666667,647.3483333333335, 0), v100, z5, tool0;
	MoveL Offs(p0,260.96266666666673,649.5200000000002, 0), v100, z5, tool0;
	MoveL Offs(p0,259.18816666666663,651.2216666666667, 0), v100, z5, tool0;
	MoveL Offs(p0,257.7146666666667,652.4933333333335, 0), v100, z5, tool0;
	MoveL Offs(p0,256.4791666666667,653.375, 0), v100, z5, tool0;
	MoveL Offs(p0,255.41866666666667,653.9066666666666, 0), v100, z5, tool0;
	MoveL Offs(p0,254.47016666666664,654.1283333333333, 0), v100, z5, tool0;
	MoveL Offs(p0,253.57066666666665,654.08, 0), v100, z5, tool0;
	MoveL Offs(p0,252.6571666666667,653.8016666666666, 0), v100, z5, tool0;
	MoveL Offs(p0,251.66666666666666,653.3333333333334, 0), v100, z5, tool0;
	MoveL Offs(p0,249.5006666666666,651.7793333333333, 0), v100, z5, tool0;
	MoveL Offs(p0,249.06133333333332,651.152, 0), v100, z5, tool0;
	MoveL Offs(p0,248.75,650.4166666666666, 0), v100, z5, tool0;
	MoveL Offs(p0,248.5586666666667,649.5413333333333, 0), v100, z5, tool0;
	MoveL Offs(p0,248.47933333333333,648.494, 0), v100, z5, tool0;
	MoveL Offs(p0,248.50400000000002,647.2426666666667, 0), v100, z5, tool0;
	MoveL Offs(p0,248.62466666666668,645.7553333333334, 0), v100, z5, tool0;
	MoveL Offs(p0,248.83333333333334,644.0, 0), v100, z5, tool0;
	MoveL Offs(p0,249.19466666666673,640.4240000000002, 0), v100, z5, tool0;
	MoveL Offs(p0,249.25033333333332,639.2135, 0), v100, z5, tool0;
	MoveL Offs(p0,249.20399999999998,638.352, 0), v100, z5, tool0;
	MoveL Offs(p0,249.04166666666666,637.8125, 0), v100, z5, tool0;
	MoveL Offs(p0,248.74933333333334,637.5679999999999, 0), v100, z5, tool0;
	MoveL Offs(p0,248.31300000000002,637.5915, 0), v100, z5, tool0;
	MoveL Offs(p0,247.71866666666668,637.8560000000001, 0), v100, z5, tool0;
	MoveL Offs(p0,246.9523333333333,638.3345, 0), v100, z5, tool0;
	MoveL Offs(p0,246.0,639.0, 0), v100, z5, tool0;
	MoveL Offs(p0,242.04600000000002,641.7378333333335, 0), v100, z5, tool0;
	MoveL Offs(p0,237.50800000000007,644.6826666666669, 0), v100, z5, tool0;
	MoveL Offs(p0,232.572,647.7315, 0), v100, z5, tool0;
	MoveL Offs(p0,227.424,650.7813333333335, 0), v100, z5, tool0;
	MoveL Offs(p0,222.25,653.7291666666666, 0), v100, z5, tool0;
	MoveL Offs(p0,217.236,656.4719999999999, 0), v100, z5, tool0;
	MoveL Offs(p0,212.56799999999998,658.9068333333333, 0), v100, z5, tool0;
	MoveL Offs(p0,208.43200000000002,660.9306666666668, 0), v100, z5, tool0;
	MoveL Offs(p0,205.014,662.4405, 0), v100, z5, tool0;
	MoveL Offs(p0,202.5,663.3333333333334, 0), v100, z5, tool0;
	MoveL Offs(p0,199.08933333333337,664.2093333333335, 0), v100, z5, tool0;
	MoveL Offs(p0,197.769,664.4748333333332, 0), v100, z5, tool0;
	MoveL Offs(p0,196.65466666666666,664.6213333333335, 0), v100, z5, tool0;
	MoveL Offs(p0,195.70833333333334,664.6458333333334, 0), v100, z5, tool0;
	MoveL Offs(p0,194.89199999999997,664.5453333333334, 0), v100, z5, tool0;
	MoveL Offs(p0,194.1676666666667,664.3168333333333, 0), v100, z5, tool0;
	MoveL Offs(p0,193.49733333333333,663.9573333333334, 0), v100, z5, tool0;
	MoveL Offs(p0,192.843,663.4638333333334, 0), v100, z5, tool0;
	MoveL Offs(p0,192.16666666666666,662.8333333333334, 0), v100, z5, tool0;
	MoveL Offs(p0,190.6771666666667,660.4168333333333, 0), v100, z5, tool0;
	MoveL Offs(p0,191.196,659.0786666666667, 0), v100, z5, tool0;
	MoveL Offs(p0,192.52083333333334,657.0625, 0), v100, z5, tool0;
	MoveL Offs(p0,194.8306666666667,654.1213333333334, 0), v100, z5, tool0;
	MoveL Offs(p0,198.3045,650.0081666666666, 0), v100, z5, tool0;
	MoveL Offs(p0,203.12133333333335,644.4760000000001, 0), v100, z5, tool0;
	MoveL Offs(p0,209.46016666666665,637.2778333333334, 0), v100, z5, tool0;
	MoveL Offs(p0,217.5,628.1666666666666, 0), v100, z5, tool0;
	MoveL Offs(p0,235.66666666666666,607.5, 0), v100, z5, tool0;
	MoveL Offs(p0,230.0,606.6666666666666, 0), v100, z5, tool0;
	MoveL Offs(p0,227.7756666666667,606.1913333333333, 0), v100, z5, tool0;
	MoveL Offs(p0,226.0053333333334,605.4840000000002, 0), v100, z5, tool0;
	MoveL Offs(p0,224.693,604.5726666666666, 0), v100, z5, tool0;
	MoveL Offs(p0,223.84266666666667,603.4853333333334, 0), v100, z5, tool0;
	MoveL Offs(p0,223.45833333333334,602.25, 0), v100, z5, tool0;
	MoveL Offs(p0,223.54399999999998,600.8946666666667, 0), v100, z5, tool0;
	MoveL Offs(p0,224.10366666666664,599.4473333333334, 0), v100, z5, tool0;
	MoveL Offs(p0,225.14133333333334,597.936, 0), v100, z5, tool0;
	MoveL Offs(p0,226.66100000000003,596.3886666666667, 0), v100, z5, tool0;
	MoveL Offs(p0,228.66666666666666,594.8333333333334, 0), v100, z5, tool0;
	MoveL Offs(p0,231.0733333333334,593.1733333333335, 0), v100, z5, tool0;
	MoveL Offs(p0,232.67166666666665,592.0433333333333, 0), v100, z5, tool0;
	MoveL Offs(p0,234.48000000000002,590.7533333333334, 0), v100, z5, tool0;
	MoveL Offs(p0,236.45833333333334,589.3333333333334, 0), v100, z5, tool0;
	MoveL Offs(p0,238.5666666666667,587.8133333333334, 0), v100, z5, tool0;
	MoveL Offs(p0,240.76500000000001,586.2233333333334, 0), v100, z5, tool0;
	MoveL Offs(p0,243.01333333333335,584.5933333333334, 0), v100, z5, tool0;
	MoveL Offs(p0,245.27166666666668,582.9533333333334, 0), v100, z5, tool0;
	MoveL Offs(p0,247.5,581.3333333333334, 0), v100, z5, tool0;
	MoveL Offs(p0,261.0,571.5, 0), v100, z5, tool0;
	MoveL Offs(p0,255.5,560.3333333333334, 0), v100, z5, tool0;
	MoveL Offs(p0,253.70750000000007,556.4833333333333, 0), v100, z5, tool0;
	MoveL Offs(p0,252.04000000000008,552.3733333333334, 0), v100, z5, tool0;
	MoveL Offs(p0,250.51249999999996,548.0633333333334, 0), v100, z5, tool0;
	MoveL Offs(p0,249.14,543.6133333333333, 0), v100, z5, tool0;
	MoveL Offs(p0,247.9375,539.0833333333334, 0), v100, z5, tool0;
	MoveL Offs(p0,246.92,534.5333333333334, 0), v100, z5, tool0;
	MoveL Offs(p0,246.10249999999996,530.0233333333334, 0), v100, z5, tool0;
	MoveL Offs(p0,245.5,525.6133333333333, 0), v100, z5, tool0;
	MoveL Offs(p0,245.12749999999997,521.3633333333333, 0), v100, z5, tool0;
	MoveL Offs(p0,245.0,517.3333333333334, 0), v100, z5, tool0;
	MoveL Offs(p0,244.98233333333334,515.307, 0), v100, z5, tool0;
	MoveL Offs(p0,244.91866666666672,513.6026666666668, 0), v100, z5, tool0;
	MoveL Offs(p0,244.793,512.1823333333333, 0), v100, z5, tool0;
	MoveL Offs(p0,244.58933333333334,511.00800000000004, 0), v100, z5, tool0;
	MoveL Offs(p0,244.29166666666666,510.0416666666667, 0), v100, z5, tool0;
	MoveL Offs(p0,243.884,509.2453333333333, 0), v100, z5, tool0;
	MoveL Offs(p0,243.3503333333333,508.58099999999996, 0), v100, z5, tool0;
	MoveL Offs(p0,242.67466666666667,508.01066666666674, 0), v100, z5, tool0;
	MoveL Offs(p0,241.841,507.4963333333333, 0), v100, z5, tool0;
	MoveL Offs(p0,240.83333333333334,507.0, 0), v100, z5, tool0;
	MoveL Offs(p0,238.30000000000004,505.49600000000004, 0), v100, z5, tool0;
	MoveL Offs(p0,237.79166666666666,505.0625, 0), v100, z5, tool0;
	MoveL Offs(p0,237.35333333333335,504.624, 0), v100, z5, tool0;
	MoveL Offs(p0,236.995,504.18949999999995, 0), v100, z5, tool0;
	MoveL Offs(p0,236.7266666666667,503.76800000000003, 0), v100, z5, tool0;
	MoveL Offs(p0,236.5583333333333,503.36850000000004, 0), v100, z5, tool0;
	MoveL Offs(p0,236.5,503.0, 0), v100, z5, tool0;
	MoveL Offs(p0,236.2413333333333,500.59200000000004, 0), v100, z5, tool0;
	MoveL Offs(p0,236.16666666666666,499.75, 0), v100, z5, tool0;
	MoveL Offs(p0,236.09199999999998,498.848, 0), v100, z5, tool0;
	MoveL Offs(p0,236.01933333333332,497.904, 0), v100, z5, tool0;
	MoveL Offs(p0,235.9506666666667,496.936, 0), v100, z5, tool0;
	MoveL Offs(p0,235.888,495.962, 0), v100, z5, tool0;
	MoveL Offs(p0,235.83333333333334,495.0, 0), v100, z5, tool0;
	MoveL Offs(p0,235.3693333333334,492.4173333333335, 0), v100, z5, tool0;
	MoveL Offs(p0,234.9573333333333,490.6785, 0), v100, z5, tool0;
	MoveL Offs(p0,234.44133333333335,488.69866666666667, 0), v100, z5, tool0;
	MoveL Offs(p0,233.83333333333334,486.5208333333333, 0), v100, z5, tool0;
	MoveL Offs(p0,233.1453333333333,484.18799999999993, 0), v100, z5, tool0;
	MoveL Offs(p0,232.38933333333333,481.74316666666664, 0), v100, z5, tool0;
	MoveL Offs(p0,231.5773333333333,479.2293333333334, 0), v100, z5, tool0;
	MoveL Offs(p0,230.72133333333332,476.68949999999995, 0), v100, z5, tool0;
	MoveL Offs(p0,229.83333333333334,474.1666666666667, 0), v100, z5, tool0;
	MoveL Offs(p0,228.46366666666674,470.31066666666675, 0), v100, z5, tool0;
	MoveL Offs(p0,227.3360000000001,466.91866666666675, 0), v100, z5, tool0;
	MoveL Offs(p0,226.4223333333333,463.8046666666666, 0), v100, z5, tool0;
	MoveL Offs(p0,225.69466666666668,460.78266666666667, 0), v100, z5, tool0;
	MoveL Offs(p0,225.125,457.6666666666667, 0), v100, z5, tool0;
	MoveL Offs(p0,224.68533333333332,454.2706666666666, 0), v100, z5, tool0;
	MoveL Offs(p0,224.34766666666667,450.4086666666667, 0), v100, z5, tool0;
	MoveL Offs(p0,224.08400000000003,445.89466666666664, 0), v100, z5, tool0;
	MoveL Offs(p0,223.86633333333336,440.5426666666667, 0), v100, z5, tool0;
	MoveL Offs(p0,223.66666666666666,434.1666666666667, 0), v100, z5, tool0;
	MoveL Offs(p0,223.52816666666672,427.41900000000004, 0), v100, z5, tool0;
	MoveL Offs(p0,223.51866666666672,421.30533333333346, 0), v100, z5, tool0;
	MoveL Offs(p0,223.64716666666664,415.7196666666667, 0), v100, z5, tool0;
	MoveL Offs(p0,223.9226666666667,410.55600000000004, 0), v100, z5, tool0;
	MoveL Offs(p0,224.35416666666666,405.7083333333333, 0), v100, z5, tool0;
	MoveL Offs(p0,224.95066666666665,401.0706666666667, 0), v100, z5, tool0;
	MoveL Offs(p0,225.72116666666668,396.537, 0), v100, z5, tool0;
	MoveL Offs(p0,226.6746666666667,392.0013333333333, 0), v100, z5, tool0;
	MoveL Offs(p0,227.82016666666667,387.3576666666667, 0), v100, z5, tool0;
	MoveL Offs(p0,229.16666666666666,382.5, 0), v100, z5, tool0;
	MoveL Offs(p0,228.58616666666663,379.875, 0), v100, z5, tool0;
	MoveL Offs(p0,227.44400000000005,378.94, 0), v100, z5, tool0;
	MoveL Offs(p0,225.64583333333334,377.875, 0), v100, z5, tool0;
	MoveL Offs(p0,223.08266666666668,376.62000000000006, 0), v100, z5, tool0;
	MoveL Offs(p0,219.6455,375.115, 0), v100, z5, tool0;
	MoveL Offs(p0,215.2253333333333,373.3, 0), v100, z5, tool0;
	MoveL Offs(p0,209.71316666666667,371.115, 0), v100, z5, tool0;
	MoveL Offs(p0,203.0,368.5, 0), v100, z5, tool0;
	MoveL Offs(p0,191.76150000000004,364.0783333333334, 0), v100, z5, tool0;
	MoveL Offs(p0,181.63200000000003,360.00666666666683, 0), v100, z5, tool0;
	MoveL Offs(p0,172.5905,356.27500000000003, 0), v100, z5, tool0;
	MoveL Offs(p0,164.616,352.8733333333334, 0), v100, z5, tool0;
	MoveL Offs(p0,157.6875,349.7916666666667, 0), v100, z5, tool0;
	MoveL Offs(p0,151.784,347.02, 0), v100, z5, tool0;
	MoveL Offs(p0,146.8845,344.54833333333335, 0), v100, z5, tool0;
	MoveL Offs(p0,142.968,342.3666666666666, 0), v100, z5, tool0;
	MoveL Offs(p0,140.0135,340.465, 0), v100, z5, tool0;
	MoveL Offs(p0,138.0,338.8333333333333, 0), v100, z5, tool0;
	MoveL Offs(p0,134.90000000000006,334.91733333333343, 0), v100, z5, tool0;
	MoveL Offs(p0,133.95000000000002,332.8993333333333, 0), v100, z5, tool0;
	MoveL Offs(p0,133.4,330.86533333333335, 0), v100, z5, tool0;
	MoveL Offs(p0,133.25,328.8333333333333, 0), v100, z5, tool0;
	MoveL Offs(p0,133.5,326.8213333333333, 0), v100, z5, tool0;
	MoveL Offs(p0,134.15,324.8473333333333, 0), v100, z5, tool0;
	MoveL Offs(p0,135.20000000000002,322.9293333333333, 0), v100, z5, tool0;
	MoveL Offs(p0,136.65,321.0853333333334, 0), v100, z5, tool0;
	MoveL Offs(p0,138.5,319.3333333333333, 0), v100, z5, tool0;
	MoveL Offs(p0,141.98800000000006,316.8133333333334, 0), v100, z5, tool0;
	MoveL Offs(p0,143.6045,315.98833333333334, 0), v100, z5, tool0;
	MoveL Offs(p0,145.164,315.4533333333333, 0), v100, z5, tool0;
	MoveL Offs(p0,146.6875,315.2083333333333, 0), v100, z5, tool0;
	MoveL Offs(p0,148.196,315.25333333333333, 0), v100, z5, tool0;
	MoveL Offs(p0,149.7105,315.5883333333333, 0), v100, z5, tool0;
	MoveL Offs(p0,151.25200000000004,316.21333333333337, 0), v100, z5, tool0;
	MoveL Offs(p0,152.84150000000002,317.12833333333333, 0), v100, z5, tool0;
	MoveL Offs(p0,154.5,318.3333333333333, 0), v100, z5, tool0;
	MoveL Offs(p0,157.58866666666668,320.0568333333334, 0), v100, z5, tool0;
	MoveL Offs(p0,161.46933333333337,321.14133333333336, 0), v100, z5, tool0;
	MoveL Offs(p0,166.01399999999998,321.6078333333333, 0), v100, z5, tool0;
	MoveL Offs(p0,171.0946666666667,321.4773333333334, 0), v100, z5, tool0;
	MoveL Offs(p0,176.58333333333334,320.7708333333333, 0), v100, z5, tool0;
	MoveL Offs(p0,182.352,319.50933333333336, 0), v100, z5, tool0;
	MoveL Offs(p0,188.27266666666665,317.7138333333333, 0), v100, z5, tool0;
	MoveL Offs(p0,194.21733333333336,315.4053333333334, 0), v100, z5, tool0;
	MoveL Offs(p0,200.058,312.6048333333333, 0), v100, z5, tool0;
	MoveL Offs(p0,205.66666666666666,309.3333333333333, 0), v100, z5, tool0;
	MoveL Offs(p0,208.59533333333334,307.33450000000005, 0), v100, z5, tool0;
	MoveL Offs(p0,211.47600000000003,305.14266666666674, 0), v100, z5, tool0;
	MoveL Offs(p0,214.30066666666664,302.76483333333334, 0), v100, z5, tool0;
	MoveL Offs(p0,217.06133333333335,300.208, 0), v100, z5, tool0;
	MoveL Offs(p0,219.75,297.4791666666667, 0), v100, z5, tool0;
	MoveL Offs(p0,222.35866666666666,294.58533333333327, 0), v100, z5, tool0;
	MoveL Offs(p0,224.8793333333333,291.5335, 0), v100, z5, tool0;
	MoveL Offs(p0,227.304,288.3306666666667, 0), v100, z5, tool0;
	MoveL Offs(p0,229.62466666666668,284.9838333333334, 0), v100, z5, tool0;
	MoveL Offs(p0,231.83333333333334,281.5, 0), v100, z5, tool0;
	MoveL Offs(p0,234.33700000000002,277.91716666666673, 0), v100, z5, tool0;
	MoveL Offs(p0,237.0226666666667,274.8773333333334, 0), v100, z5, tool0;
	MoveL Offs(p0,239.85233333333335,272.3935, 0), v100, z5, tool0;
	MoveL Offs(p0,242.788,270.4786666666667, 0), v100, z5, tool0;
	MoveL Offs(p0,245.79166666666666,269.1458333333333, 0), v100, z5, tool0;
	MoveL Offs(p0,248.82533333333333,268.40799999999996, 0), v100, z5, tool0;
	MoveL Offs(p0,251.851,268.27816666666666, 0), v100, z5, tool0;
	MoveL Offs(p0,254.8306666666667,268.76933333333335, 0), v100, z5, tool0;
	MoveL Offs(p0,257.72633333333334,269.89450000000005, 0), v100, z5, tool0;
	MoveL Offs(p0,260.5,271.6666666666667, 0), v100, z5, tool0;
	MoveL Offs(p0,264.8333333333333,275.1666666666667, 0), v100, z5, tool0;
	MoveL Offs(p0,269.0,267.1666666666667, 0), v100, z5, tool0;
	MoveL Offs(p0,270.53733333333344,264.3680000000001, 0), v100, z5, tool0;
	MoveL Offs(p0,271.38349999999997,262.86616666666663, 0), v100, z5, tool0;
	MoveL Offs(p0,272.25866666666667,261.33733333333333, 0), v100, z5, tool0;
	MoveL Offs(p0,273.1458333333333,259.8125, 0), v100, z5, tool0;
	MoveL Offs(p0,274.028,258.32266666666663, 0), v100, z5, tool0;
	MoveL Offs(p0,274.8881666666667,256.89883333333336, 0), v100, z5, tool0;
	MoveL Offs(p0,275.7093333333334,255.57200000000003, 0), v100, z5, tool0;
	MoveL Offs(p0,276.47450000000003,254.37316666666666, 0), v100, z5, tool0;
	MoveL Offs(p0,277.1666666666667,253.33333333333334, 0), v100, z5, tool0;
	MoveL Offs(p0,278.9560000000001,250.60400000000007, 0), v100, z5, tool0;
	MoveL Offs(p0,279.55316666666664,249.5143333333333, 0), v100, z5, tool0;
	MoveL Offs(p0,279.96133333333336,248.53866666666667, 0), v100, z5, tool0;
	MoveL Offs(p0,280.1875,247.625, 0), v100, z5, tool0;
	MoveL Offs(p0,280.2386666666667,246.72133333333332, 0), v100, z5, tool0;
	MoveL Offs(p0,280.1218333333333,245.77566666666667, 0), v100, z5, tool0;
	MoveL Offs(p0,279.84400000000005,244.73600000000002, 0), v100, z5, tool0;
	MoveL Offs(p0,279.4121666666667,243.55033333333336, 0), v100, z5, tool0;
	MoveL Offs(p0,278.8333333333333,242.16666666666666, 0), v100, z5, tool0;
	MoveL Offs(p0,277.8235,239.34983333333335, 0), v100, z5, tool0;
	MoveL Offs(p0,276.9946666666668,236.23200000000006, 0), v100, z5, tool0;
	MoveL Offs(p0,276.3478333333333,232.86216666666667, 0), v100, z5, tool0;
	MoveL Offs(p0,275.88399999999996,229.28933333333336, 0), v100, z5, tool0;
	MoveL Offs(p0,275.6041666666667,225.5625, 0), v100, z5, tool0;
	MoveL Offs(p0,275.50933333333336,221.73066666666668, 0), v100, z5, tool0;
	MoveL Offs(p0,275.6005,217.84283333333335, 0), v100, z5, tool0;
	MoveL Offs(p0,275.8786666666667,213.948, 0), v100, z5, tool0;
	MoveL Offs(p0,276.3448333333334,210.09516666666664, 0), v100, z5, tool0;
	MoveL Offs(p0,277.0,206.33333333333334, 0), v100, z5, tool0;
	MoveL Offs(p0,279.3333333333333,195.16666666666666, 0), v100, z5, tool0;
	MoveL Offs(p0,273.0,188.83333333333334, 0), v100, z5, tool0;
	MoveL Offs(p0,271.0441666666666,186.7081666666667, 0), v100, z5, tool0;
	MoveL Offs(p0,268.93333333333345,184.03200000000004, 0), v100, z5, tool0;
	MoveL Offs(p0,266.7525,180.95383333333334, 0), v100, z5, tool0;
	MoveL Offs(p0,264.58666666666664,177.62266666666667, 0), v100, z5, tool0;
	MoveL Offs(p0,262.5208333333333,174.1875, 0), v100, z5, tool0;
	MoveL Offs(p0,260.64,170.79733333333334, 0), v100, z5, tool0;
	MoveL Offs(p0,259.0291666666667,167.60116666666667, 0), v100, z5, tool0;
	MoveL Offs(p0,257.77333333333337,164.74800000000002, 0), v100, z5, tool0;
	MoveL Offs(p0,256.9575,162.38683333333333, 0), v100, z5, tool0;
	MoveL Offs(p0,256.6666666666667,160.66666666666666, 0), v100, z5, tool0;
	MoveL Offs(p0,254.625,158.60416666666666, 0), v100, z5, tool0;
	MoveL Offs(p0,253.82266666666666,158.17066666666668, 0), v100, z5, tool0;
	MoveL Offs(p0,252.92633333333333,157.75116666666665, 0), v100, z5, tool0;
	MoveL Offs(p0,251.952,157.35466666666667, 0), v100, z5, tool0;
	MoveL Offs(p0,250.91566666666668,156.99016666666668, 0), v100, z5, tool0;
	MoveL Offs(p0,249.83333333333334,156.66666666666666, 0), v100, z5, tool0;
	MoveL Offs(p0,246.60750000000007,155.7015, 0), v100, z5, tool0;
	MoveL Offs(p0,243.26666666666668,154.52533333333338, 0), v100, z5, tool0;
	MoveL Offs(p0,239.86583333333337,153.16716666666667, 0), v100, z5, tool0;
	MoveL Offs(p0,236.46,151.65600000000003, 0), v100, z5, tool0;
	MoveL Offs(p0,233.10416666666666,150.02083333333334, 0), v100, z5, tool0;
	MoveL Offs(p0,229.85333333333332,148.29066666666668, 0), v100, z5, tool0;
	MoveL Offs(p0,226.76249999999996,146.4945, 0), v100, z5, tool0;
	MoveL Offs(p0,223.88666666666668,144.66133333333335, 0), v100, z5, tool0;
	MoveL Offs(p0,221.28083333333336,142.82016666666667, 0), v100, z5, tool0;
	MoveL Offs(p0,219.0,141.0, 0), v100, z5, tool0;
	MoveL Offs(p0,215.95066666666676,138.47333333333336, 0), v100, z5, tool0;
	MoveL Offs(p0,214.71599999999998,137.60999999999999, 0), v100, z5, tool0;
	MoveL Offs(p0,213.56533333333334,136.98666666666668, 0), v100, z5, tool0;
	MoveL Offs(p0,212.41666666666666,136.58333333333334, 0), v100, z5, tool0;
	MoveL Offs(p0,211.188,136.38, 0), v100, z5, tool0;
	MoveL Offs(p0,209.7973333333333,136.35666666666665, 0), v100, z5, tool0;
	MoveL Offs(p0,208.1626666666667,136.49333333333334, 0), v100, z5, tool0;
	MoveL Offs(p0,206.202,136.77, 0), v100, z5, tool0;
	MoveL Offs(p0,203.83333333333334,137.16666666666666, 0), v100, z5, tool0;
	MoveL Offs(p0,200.45866666666677,137.5666666666667, 0), v100, z5, tool0;
	MoveL Offs(p0,198.6688333333333,137.69166666666663, 0), v100, z5, tool0;
	MoveL Offs(p0,196.836,137.76666666666668, 0), v100, z5, tool0;
	MoveL Offs(p0,194.97916666666666,137.79166666666666, 0), v100, z5, tool0;
	MoveL Offs(p0,193.11733333333333,137.76666666666665, 0), v100, z5, tool0;
	MoveL Offs(p0,191.2695,137.69166666666663, 0), v100, z5, tool0;
	MoveL Offs(p0,189.45466666666667,137.5666666666667, 0), v100, z5, tool0;
	MoveL Offs(p0,187.69183333333334,137.39166666666668, 0), v100, z5, tool0;
	MoveL Offs(p0,186.0,137.16666666666666, 0), v100, z5, tool0;
	MoveL Offs(p0,183.7903333333334,136.77300000000002, 0), v100, z5, tool0;
	MoveL Offs(p0,181.92266666666671,136.4973333333334, 0), v100, z5, tool0;
	MoveL Offs(p0,180.33900000000003,136.34766666666667, 0), v100, z5, tool0;
	MoveL Offs(p0,178.9813333333333,136.332, 0), v100, z5, tool0;
	MoveL Offs(p0,177.79166666666666,136.45833333333334, 0), v100, z5, tool0;
	MoveL Offs(p0,176.712,136.7346666666667, 0), v100, z5, tool0;
	MoveL Offs(p0,175.68433333333334,137.16899999999998, 0), v100, z5, tool0;
	MoveL Offs(p0,174.65066666666667,137.76933333333332, 0), v100, z5, tool0;
	MoveL Offs(p0,173.553,138.54366666666667, 0), v100, z5, tool0;
	MoveL Offs(p0,172.33333333333334,139.5, 0), v100, z5, tool0;
	MoveL Offs(p0,168.73333333333338,141.86400000000003, 0), v100, z5, tool0;
	MoveL Offs(p0,166.52833333333334,143.001, 0), v100, z5, tool0;
	MoveL Offs(p0,164.09333333333333,144.092, 0), v100, z5, tool0;
	MoveL Offs(p0,161.45833333333334,145.125, 0), v100, z5, tool0;
	MoveL Offs(p0,158.65333333333334,146.088, 0), v100, z5, tool0;
	MoveL Offs(p0,155.70833333333334,146.969, 0), v100, z5, tool0;
	MoveL Offs(p0,152.65333333333334,147.756, 0), v100, z5, tool0;
	MoveL Offs(p0,149.51833333333335,148.437, 0), v100, z5, tool0;
	MoveL Offs(p0,146.33333333333334,149.0, 0), v100, z5, tool0;
	MoveL Offs(p0,143.6746666666667,149.6266666666667, 0), v100, z5, tool0;
	MoveL Offs(p0,142.55783333333332,150.065, 0), v100, z5, tool0;
	MoveL Offs(p0,141.544,150.61333333333334, 0), v100, z5, tool0;
	MoveL Offs(p0,140.60416666666666,151.29166666666666, 0), v100, z5, tool0;
	MoveL Offs(p0,139.70933333333332,152.11999999999998, 0), v100, z5, tool0;
	MoveL Offs(p0,138.8305,153.11833333333334, 0), v100, z5, tool0;
	MoveL Offs(p0,137.93866666666668,154.30666666666667, 0), v100, z5, tool0;
	MoveL Offs(p0,137.00483333333332,155.705, 0), v100, z5, tool0;
	MoveL Offs(p0,136.0,157.33333333333334, 0), v100, z5, tool0;
	MoveL Offs(p0,134.55600000000004,159.64533333333335, 0), v100, z5, tool0;
	MoveL Offs(p0,133.819,160.77883333333332, 0), v100, z5, tool0;
	MoveL Offs(p0,133.088,161.86933333333334, 0), v100, z5, tool0;
	MoveL Offs(p0,132.375,162.89583333333334, 0), v100, z5, tool0;
	MoveL Offs(p0,131.692,163.83733333333333, 0), v100, z5, tool0;
	MoveL Offs(p0,131.05100000000002,164.67283333333333, 0), v100, z5, tool0;
	MoveL Offs(p0,130.464,165.38133333333334, 0), v100, z5, tool0;
	MoveL Offs(p0,129.943,165.94183333333334, 0), v100, z5, tool0;
	MoveL Offs(p0,129.5,166.33333333333334, 0), v100, z5, tool0;
	MoveL Offs(p0,128.2626666666667,169.20800000000003, 0), v100, z5, tool0;
	MoveL Offs(p0,128.33333333333334,170.41666666666666, 0), v100, z5, tool0;
	MoveL Offs(p0,128.564,171.92533333333333, 0), v100, z5, tool0;
	MoveL Offs(p0,128.95866666666666,173.78599999999997, 0), v100, z5, tool0;
	MoveL Offs(p0,129.52133333333333,176.05066666666667, 0), v100, z5, tool0;
	MoveL Offs(p0,130.256,178.77133333333336, 0), v100, z5, tool0;
	MoveL Offs(p0,131.16666666666666,182.0, 0), v100, z5, tool0;
	MoveL Offs(p0,132.42633333333333,186.78683333333333, 0), v100, z5, tool0;
	MoveL Offs(p0,133.40400000000002,191.23466666666673, 0), v100, z5, tool0;
	MoveL Offs(p0,134.0976666666667,195.32449999999997, 0), v100, z5, tool0;
	MoveL Offs(p0,134.50533333333334,199.03733333333335, 0), v100, z5, tool0;
	MoveL Offs(p0,134.625,202.35416666666666, 0), v100, z5, tool0;
	MoveL Offs(p0,134.45466666666667,205.256, 0), v100, z5, tool0;
	MoveL Offs(p0,133.99233333333333,207.72383333333332, 0), v100, z5, tool0;
	MoveL Offs(p0,133.236,209.73866666666672, 0), v100, z5, tool0;
	MoveL Offs(p0,132.18366666666668,211.28150000000002, 0), v100, z5, tool0;
	MoveL Offs(p0,130.83333333333334,212.33333333333334, 0), v100, z5, tool0;
	MoveL Offs(p0,128.79866666666666,213.41066666666669, 0), v100, z5, tool0;
	MoveL Offs(p0,128.375,213.625, 0), v100, z5, tool0;
	MoveL Offs(p0,128.00133333333335,213.80933333333334, 0), v100, z5, tool0;
	MoveL Offs(p0,127.68566666666668,213.95966666666666, 0), v100, z5, tool0;
	MoveL Offs(p0,127.43600000000004,214.07200000000003, 0), v100, z5, tool0;
	MoveL Offs(p0,127.26033333333335,214.14233333333334, 0), v100, z5, tool0;
	MoveL Offs(p0,127.16666666666667,214.16666666666666, 0), v100, z5, tool0;
	MoveL Offs(p0,127.45833333333333,216.64583333333334, 0), v100, z5, tool0;
	MoveL Offs(p0,127.62266666666665,217.62266666666667, 0), v100, z5, tool0;
	MoveL Offs(p0,127.81299999999999,218.71550000000002, 0), v100, z5, tool0;
	MoveL Offs(p0,128.02533333333335,219.90533333333337, 0), v100, z5, tool0;
	MoveL Offs(p0,128.25566666666668,221.17316666666667, 0), v100, z5, tool0;
	MoveL Offs(p0,128.5,222.5, 0), v100, z5, tool0;
	MoveL Offs(p0,129.17200000000003,226.14400000000003, 0), v100, z5, tool0;
	MoveL Offs(p0,129.553,228.5135, 0), v100, z5, tool0;
	MoveL Offs(p0,129.95600000000002,231.172, 0), v100, z5, tool0;
	MoveL Offs(p0,130.375,234.0625, 0), v100, z5, tool0;
	MoveL Offs(p0,130.80399999999997,237.12800000000001, 0), v100, z5, tool0;
	MoveL Offs(p0,131.237,240.31150000000002, 0), v100, z5, tool0;
	MoveL Offs(p0,131.668,243.55600000000004, 0), v100, z5, tool0;
	MoveL Offs(p0,132.091,246.80450000000005, 0), v100, z5, tool0;
	MoveL Offs(p0,132.5,250.0, 0), v100, z5, tool0;
	MoveL Offs(p0,133.0395,254.75616666666676, 0), v100, z5, tool0;
	MoveL Offs(p0,133.45600000000002,258.6893333333334, 0), v100, z5, tool0;
	MoveL Offs(p0,133.7465,261.8965, 0), v100, z5, tool0;
	MoveL Offs(p0,133.90800000000002,264.4746666666667, 0), v100, z5, tool0;
	MoveL Offs(p0,133.9375,266.5208333333333, 0), v100, z5, tool0;
	MoveL Offs(p0,133.83200000000002,268.132, 0), v100, z5, tool0;
	MoveL Offs(p0,133.58849999999998,269.4051666666667, 0), v100, z5, tool0;
	MoveL Offs(p0,133.20400000000004,270.43733333333336, 0), v100, z5, tool0;
	MoveL Offs(p0,132.6755,271.3255, 0), v100, z5, tool0;
	MoveL Offs(p0,132.0,272.1666666666667, 0), v100, z5, tool0;
	MoveL Offs(p0,129.204,274.41733333333343, 0), v100, z5, tool0;
	MoveL Offs(p0,127.86599999999999,274.8201666666667, 0), v100, z5, tool0;
	MoveL Offs(p0,126.552,274.732, 0), v100, z5, tool0;
	MoveL Offs(p0,125.25,274.1458333333333, 0), v100, z5, tool0;
	MoveL Offs(p0,123.94799999999998,273.05466666666666, 0), v100, z5, tool0;
	MoveL Offs(p0,122.634,271.4515, 0), v100, z5, tool0;
	MoveL Offs(p0,121.296,269.32933333333335, 0), v100, z5, tool0;
	MoveL Offs(p0,119.92200000000001,266.6811666666667, 0), v100, z5, tool0;
	MoveL Offs(p0,118.5,263.5, 0), v100, z5, tool0;
	MoveL Offs(p0,114.16666666666667,252.83333333333334, 0), v100, z5, tool0;
	MoveL Offs(p0,110.0,262.1666666666667, 0), v100, z5, tool0;
	MoveL Offs(p0,108.65733333333337,265.1386666666667, 0), v100, z5, tool0;
	MoveL Offs(p0,107.97349999999999,266.49716666666666, 0), v100, z5, tool0;
	MoveL Offs(p0,107.29866666666665,267.7426666666667, 0), v100, z5, tool0;
	MoveL Offs(p0,106.64583333333333,268.8541666666667, 0), v100, z5, tool0;
	MoveL Offs(p0,106.02799999999998,269.81066666666663, 0), v100, z5, tool0;
	MoveL Offs(p0,105.45816666666667,270.59116666666665, 0), v100, z5, tool0;
	MoveL Offs(p0,104.94933333333334,271.17466666666667, 0), v100, z5, tool0;
	MoveL Offs(p0,104.5145,271.54016666666666, 0), v100, z5, tool0;
	MoveL Offs(p0,104.16666666666667,271.6666666666667, 0), v100, z5, tool0;
	MoveL Offs(p0,101.74400000000001,271.17733333333337, 0), v100, z5, tool0;
	MoveL Offs(p0,100.73766666666667,270.63016666666664, 0), v100, z5, tool0;
	MoveL Offs(p0,99.86533333333334,269.872, 0), v100, z5, tool0;
	MoveL Offs(p0,99.125,268.8958333333333, 0), v100, z5, tool0;
	MoveL Offs(p0,98.51466666666666,267.69466666666665, 0), v100, z5, tool0;
	MoveL Offs(p0,98.03233333333333,266.2615, 0), v100, z5, tool0;
	MoveL Offs(p0,97.676,264.58933333333334, 0), v100, z5, tool0;
	MoveL Offs(p0,97.44366666666667,262.6711666666667, 0), v100, z5, tool0;
	MoveL Offs(p0,97.33333333333333,260.5, 0), v100, z5, tool0;
	MoveL Offs(p0,97.26400000000001,255.62766666666667, 0), v100, z5, tool0;
	MoveL Offs(p0,97.15866666666669,251.14133333333336, 0), v100, z5, tool0;
	MoveL Offs(p0,97.02133333333332,247.087, 0), v100, z5, tool0;
	MoveL Offs(p0,96.85600000000001,243.51066666666668, 0), v100, z5, tool0;
	MoveL Offs(p0,96.66666666666667,240.45833333333334, 0), v100, z5, tool0;
	MoveL Offs(p0,96.45733333333334,237.976, 0), v100, z5, tool0;
	MoveL Offs(p0,96.23200000000001,236.1096666666667, 0), v100, z5, tool0;
	MoveL Offs(p0,95.99466666666667,234.90533333333337, 0), v100, z5, tool0;
	MoveL Offs(p0,95.74933333333333,234.40900000000002, 0), v100, z5, tool0;
	MoveL Offs(p0,95.5,234.66666666666666, 0), v100, z5, tool0;
	MoveL Offs(p0,92.57466666666669,236.568, 0), v100, z5, tool0;
	MoveL Offs(p0,91.58333333333333,236.58333333333334, 0), v100, z5, tool0;
	MoveL Offs(p0,90.592,236.41866666666667, 0), v100, z5, tool0;
	MoveL Offs(p0,89.65266666666666,236.076, 0), v100, z5, tool0;
	MoveL Offs(p0,88.81733333333334,235.55733333333333, 0), v100, z5, tool0;
	MoveL Offs(p0,88.13799999999999,234.8646666666667, 0), v100, z5, tool0;
	MoveL Offs(p0,87.66666666666667,234.0, 0), v100, z5, tool0;
	MoveL Offs(p0,87.09866666666666,231.56000000000003, 0), v100, z5, tool0;
	MoveL Offs(p0,86.97916666666667,230.8125, 0), v100, z5, tool0;
	MoveL Offs(p0,86.87466666666667,230.03999999999996, 0), v100, z5, tool0;
	MoveL Offs(p0,86.78816666666665,229.25750000000002, 0), v100, z5, tool0;
	MoveL Offs(p0,86.72266666666667,228.48000000000002, 0), v100, z5, tool0;
	MoveL Offs(p0,86.68116666666667,227.7225, 0), v100, z5, tool0;
	MoveL Offs(p0,86.66666666666667,227.0, 0), v100, z5, tool0;
	MoveL Offs(p0,86.50466666666665,224.71400000000003, 0), v100, z5, tool0;
	MoveL Offs(p0,86.38933333333334,223.968, 0), v100, z5, tool0;
	MoveL Offs(p0,86.25,223.25, 0), v100, z5, tool0;
	MoveL Offs(p0,86.09066666666666,222.57199999999997, 0), v100, z5, tool0;
	MoveL Offs(p0,85.91533333333332,221.946, 0), v100, z5, tool0;
	MoveL Offs(p0,85.72800000000001,221.38400000000001, 0), v100, z5, tool0;
	MoveL Offs(p0,85.53266666666667,220.898, 0), v100, z5, tool0;
	MoveL Offs(p0,85.33333333333333,220.5, 0), v100, z5, tool0;
	MoveL Offs(p0,84.47916666666667,223.4375, 0), v100, z5, tool0;
	MoveL Offs(p0,84.34933333333333,224.928, 0), v100, z5, tool0;
	MoveL Offs(p0,84.2355,226.65650000000002, 0), v100, z5, tool0;
	MoveL Offs(p0,84.13866666666668,228.596, 0), v100, z5, tool0;
	MoveL Offs(p0,84.05983333333334,230.7195, 0), v100, z5, tool0;
	MoveL Offs(p0,84.0,233.0, 0), v100, z5, tool0;
	MoveL Offs(p0,83.96983333333334,235.87050000000002, 0), v100, z5, tool0;
	MoveL Offs(p0,83.87866666666669,238.58400000000006, 0), v100, z5, tool0;
	MoveL Offs(p0,83.7255,241.1435, 0), v100, z5, tool0;
	MoveL Offs(p0,83.50933333333334,243.55200000000002, 0), v100, z5, tool0;
	MoveL Offs(p0,83.22916666666667,245.8125, 0), v100, z5, tool0;
	MoveL Offs(p0,82.884,247.928, 0), v100, z5, tool0;
	MoveL Offs(p0,82.47283333333333,249.90150000000003, 0), v100, z5, tool0;
	MoveL Offs(p0,81.99466666666667,251.73600000000002, 0), v100, z5, tool0;
	MoveL Offs(p0,81.44850000000001,253.43449999999999, 0), v100, z5, tool0;
	MoveL Offs(p0,80.83333333333333,255.0, 0), v100, z5, tool0;
	MoveL Offs(p0,79.84333333333335,257.6648333333333, 0), v100, z5, tool0;
	MoveL Offs(p0,79.07333333333335,260.0986666666667, 0), v100, z5, tool0;
	MoveL Offs(p0,78.52333333333333,262.36049999999994, 0), v100, z5, tool0;
	MoveL Offs(p0,78.19333333333334,264.50933333333336, 0), v100, z5, tool0;
	MoveL Offs(p0,78.08333333333333,266.6041666666667, 0), v100, z5, tool0;
	MoveL Offs(p0,78.19333333333334,268.704, 0), v100, z5, tool0;
	MoveL Offs(p0,78.52333333333333,270.86783333333335, 0), v100, z5, tool0;
	MoveL Offs(p0,79.07333333333334,273.1546666666667, 0), v100, z5, tool0;
	MoveL Offs(p0,79.84333333333335,275.6235, 0), v100, z5, tool0;
	MoveL Offs(p0,80.83333333333333,278.3333333333333, 0), v100, z5, tool0;
	MoveL Offs(p0,81.75866666666668,281.2453333333334, 0), v100, z5, tool0;
	MoveL Offs(p0,82.22383333333333,282.95633333333336, 0), v100, z5, tool0;
	MoveL Offs(p0,82.676,284.78933333333333, 0), v100, z5, tool0;
	MoveL Offs(p0,83.10416666666667,286.7083333333333, 0), v100, z5, tool0;
	MoveL Offs(p0,83.49733333333334,288.6773333333333, 0), v100, z5, tool0;
	MoveL Offs(p0,83.8445,290.6603333333333, 0), v100, z5, tool0;
	MoveL Offs(p0,84.13466666666667,292.6213333333333, 0), v100, z5, tool0;
	MoveL Offs(p0,84.35683333333334,294.52433333333335, 0), v100, z5, tool0;
	MoveL Offs(p0,84.5,296.3333333333333, 0), v100, z5, tool0;
	MoveL Offs(p0,84.75850000000001,298.79750000000007, 0), v100, z5, tool0;
	MoveL Offs(p0,85.04800000000002,300.9266666666668, 0), v100, z5, tool0;
	MoveL Offs(p0,85.3895,302.7758333333333, 0), v100, z5, tool0;
	MoveL Offs(p0,85.80400000000002,304.40000000000003, 0), v100, z5, tool0;
	MoveL Offs(p0,86.3125,305.8541666666667, 0), v100, z5, tool0;
	MoveL Offs(p0,86.93599999999999,307.1933333333333, 0), v100, z5, tool0;
	MoveL Offs(p0,87.6955,308.4725, 0), v100, z5, tool0;
	MoveL Offs(p0,88.61200000000001,309.74666666666667, 0), v100, z5, tool0;
	MoveL Offs(p0,89.7065,311.0708333333334, 0), v100, z5, tool0;
	MoveL Offs(p0,91.0,312.5, 0), v100, z5, tool0;
	MoveL Offs(p0,93.38483333333335,315.3296666666667, 0), v100, z5, tool0;
	MoveL Offs(p0,95.5386666666667,318.4173333333334, 0), v100, z5, tool0;
	MoveL Offs(p0,97.46050000000001,321.76099999999997, 0), v100, z5, tool0;
	MoveL Offs(p0,99.14933333333335,325.3586666666667, 0), v100, z5, tool0;
	MoveL Offs(p0,100.60416666666667,329.2083333333333, 0), v100, z5, tool0;
	MoveL Offs(p0,101.824,333.308, 0), v100, z5, tool0;
	MoveL Offs(p0,102.80783333333333,337.6556666666666, 0), v100, z5, tool0;
	MoveL Offs(p0,103.55466666666666,342.24933333333337, 0), v100, z5, tool0;
	MoveL Offs(p0,104.06350000000002,347.087, 0), v100, z5, tool0;
	MoveL Offs(p0,104.33333333333333,352.1666666666667, 0), v100, z5, tool0;
	MoveL Offs(p0,104.44483333333335,355.47900000000004, 0), v100, z5, tool0;
	MoveL Offs(p0,104.58533333333337,358.34533333333343, 0), v100, z5, tool0;
	MoveL Offs(p0,104.76383333333332,360.8096666666667, 0), v100, z5, tool0;
	MoveL Offs(p0,104.98933333333333,362.916, 0), v100, z5, tool0;
	MoveL Offs(p0,105.27083333333333,364.7083333333333, 0), v100, z5, tool0;
	MoveL Offs(p0,105.61733333333332,366.23066666666665, 0), v100, z5, tool0;
	MoveL Offs(p0,106.03783333333332,367.527, 0), v100, z5, tool0;
	MoveL Offs(p0,106.54133333333334,368.6413333333333, 0), v100, z5, tool0;
	MoveL Offs(p0,107.13683333333334,369.6176666666667, 0), v100, z5, tool0;
	MoveL Offs(p0,107.83333333333333,370.5, 0), v100, z5, tool0;
	MoveL Offs(p0,110.35450000000002,373.45133333333337, 0), v100, z5, tool0;
	MoveL Offs(p0,112.9826666666667,376.75066666666675, 0), v100, z5, tool0;
	MoveL Offs(p0,115.66483333333333,380.316, 0), v100, z5, tool0;
	MoveL Offs(p0,118.348,384.0653333333334, 0), v100, z5, tool0;
	MoveL Offs(p0,120.97916666666667,387.9166666666667, 0), v100, z5, tool0;
	MoveL Offs(p0,123.50533333333334,391.788, 0), v100, z5, tool0;
	MoveL Offs(p0,125.87349999999999,395.5973333333333, 0), v100, z5, tool0;
	MoveL Offs(p0,128.03066666666666,399.2626666666667, 0), v100, z5, tool0;
	MoveL Offs(p0,129.92383333333333,402.702, 0), v100, z5, tool0;
	MoveL Offs(p0,131.5,405.8333333333333, 0), v100, z5, tool0;
	MoveL Offs(p0,134.50000000000003,412.67550000000006, 0), v100, z5, tool0;
	MoveL Offs(p0,137.28000000000006,420.01066666666674, 0), v100, z5, tool0;
	MoveL Offs(p0,139.80999999999997,427.70183333333335, 0), v100, z5, tool0;
	MoveL Offs(p0,142.06,435.6120000000001, 0), v100, z5, tool0;
	MoveL Offs(p0,144.0,443.6041666666667, 0), v100, z5, tool0;
	MoveL Offs(p0,145.6,451.54133333333334, 0), v100, z5, tool0;
	MoveL Offs(p0,146.83,459.2865, 0), v100, z5, tool0;
	MoveL Offs(p0,147.66,466.70266666666674, 0), v100, z5, tool0;
	MoveL Offs(p0,148.06,473.6528333333334, 0), v100, z5, tool0;
	MoveL Offs(p0,148.0,480.0, 0), v100, z5, tool0;
	MoveL Offs(p0,147.85183333333336,482.6933333333334, 0), v100, z5, tool0;
	MoveL Offs(p0,147.6946666666667,484.90666666666675, 0), v100, z5, tool0;
	MoveL Offs(p0,147.5095,486.69, 0), v100, z5, tool0;
	MoveL Offs(p0,147.27733333333333,488.0933333333333, 0), v100, z5, tool0;
	MoveL Offs(p0,146.97916666666666,489.1666666666667, 0), v100, z5, tool0;
	MoveL Offs(p0,146.596,489.96000000000004, 0), v100, z5, tool0;
	MoveL Offs(p0,146.10883333333334,490.52333333333337, 0), v100, z5, tool0;
	MoveL Offs(p0,145.49866666666668,490.90666666666675, 0), v100, z5, tool0;
	MoveL Offs(p0,144.7465,491.16, 0), v100, z5, tool0;
	MoveL Offs(p0,143.83333333333334,491.3333333333333, 0), v100, z5, tool0;
	MoveL Offs(p0,141.46183333333332,491.3198333333333, 0), v100, z5, tool0;
	MoveL Offs(p0,140.972,490.99466666666666, 0), v100, z5, tool0;
	MoveL Offs(p0,140.60416666666666,490.4375, 0), v100, z5, tool0;
	MoveL Offs(p0,140.34133333333332,489.60533333333325, 0), v100, z5, tool0;
	MoveL Offs(p0,140.1665,488.4551666666666, 0), v100, z5, tool0;
	MoveL Offs(p0,140.06266666666667,486.944, 0), v100, z5, tool0;
	MoveL Offs(p0,140.01283333333336,485.02883333333335, 0), v100, z5, tool0;
	MoveL Offs(p0,140.0,482.6666666666667, 0), v100, z5, tool0;
	MoveL Offs(p0,139.93566666666666,479.6771666666668, 0), v100, z5, tool0;
	MoveL Offs(p0,139.74533333333338,477.21066666666684, 0), v100, z5, tool0;
	MoveL Offs(p0,139.433,475.2701666666667, 0), v100, z5, tool0;
	MoveL Offs(p0,139.00266666666667,473.8586666666667, 0), v100, z5, tool0;
	MoveL Offs(p0,138.45833333333334,472.9791666666667, 0), v100, z5, tool0;
	MoveL Offs(p0,137.804,472.63466666666665, 0), v100, z5, tool0;
	MoveL Offs(p0,137.04366666666667,472.8281666666667, 0), v100, z5, tool0;
	MoveL Offs(p0,136.18133333333333,473.5626666666667, 0), v100, z5, tool0;
	MoveL Offs(p0,135.221,474.84116666666665, 0), v100, z5, tool0;
	MoveL Offs(p0,134.16666666666666,476.6666666666667, 0), v100, z5, tool0;
	MoveL Offs(p0,132.5866666666667,479.4546666666668, 0), v100, z5, tool0;
	MoveL Offs(p0,131.86416666666665,480.39866666666666, 0), v100, z5, tool0;
	MoveL Offs(p0,131.16666666666669,481.0506666666667, 0), v100, z5, tool0;
	MoveL Offs(p0,130.47916666666666,481.4166666666667, 0), v100, z5, tool0;
	MoveL Offs(p0,129.78666666666666,481.5026666666667, 0), v100, z5, tool0;
	MoveL Offs(p0,129.07416666666666,481.31466666666665, 0), v100, z5, tool0;
	MoveL Offs(p0,128.32666666666668,480.85866666666675, 0), v100, z5, tool0;
	MoveL Offs(p0,127.52916666666668,480.1406666666667, 0), v100, z5, tool0;
	MoveL Offs(p0,126.66666666666667,479.1666666666667, 0), v100, z5, tool0;
	MoveL Offs(p0,124.62933333333332,477.6093333333334, 0), v100, z5, tool0;
	MoveL Offs(p0,124.125,477.625, 0), v100, z5, tool0;
	MoveL Offs(p0,123.57066666666668,477.8106666666667, 0), v100, z5, tool0;
	MoveL Offs(p0,122.94033333333333,478.1703333333333, 0), v100, z5, tool0;
	MoveL Offs(p0,122.20800000000001,478.7080000000001, 0), v100, z5, tool0;
	MoveL Offs(p0,121.34766666666667,479.42766666666665, 0), v100, z5, tool0;
	MoveL Offs(p0,120.33333333333333,480.3333333333333, 0), v100, z5, tool0;
	MoveL Offs(p0,116.33333333333333,484.1666666666667, 0), v100, z5, tool0;
	MoveL Offs(p0,113.83333333333333,480.5, 0), v100, z5, tool0;
	MoveL Offs(p0,112.02800000000002,478.21466666666674, 0), v100, z5, tool0;
	MoveL Offs(p0,111.60416666666667,477.7708333333333, 0), v100, z5, tool0;
	MoveL Offs(p0,111.20533333333333,477.392, 0), v100, z5, tool0;
	MoveL Offs(p0,110.8385,477.0851666666667, 0), v100, z5, tool0;
	MoveL Offs(p0,110.51066666666668,476.8573333333334, 0), v100, z5, tool0;
	MoveL Offs(p0,110.22883333333334,476.71549999999996, 0), v100, z5, tool0;
	MoveL Offs(p0,110.0,476.6666666666667, 0), v100, z5, tool0;
	MoveL Offs(p0,108.08333333333333,479.5208333333333, 0), v100, z5, tool0;
	MoveL Offs(p0,107.54,480.66266666666667, 0), v100, z5, tool0;
	MoveL Offs(p0,106.96666666666665,481.9505, 0), v100, z5, tool0;
	MoveL Offs(p0,106.37333333333333,483.36533333333335, 0), v100, z5, tool0;
	MoveL Offs(p0,105.77,484.8881666666667, 0), v100, z5, tool0;
	MoveL Offs(p0,105.16666666666667,486.5, 0), v100, z5, tool0;
	MoveL Offs(p0,103.86166666666668,489.9230000000002, 0), v100, z5, tool0;
	MoveL Offs(p0,102.46666666666668,493.16400000000016, 0), v100, z5, tool0;
	MoveL Offs(p0,101.01166666666666,496.18100000000004, 0), v100, z5, tool0;
	MoveL Offs(p0,99.52666666666669,498.932, 0), v100, z5, tool0;
	MoveL Offs(p0,98.04166666666667,501.375, 0), v100, z5, tool0;
	MoveL Offs(p0,96.58666666666666,503.468, 0), v100, z5, tool0;
	MoveL Offs(p0,95.19166666666666,505.16900000000004, 0), v100, z5, tool0;
	MoveL Offs(p0,93.88666666666667,506.436, 0), v100, z5, tool0;
	MoveL Offs(p0,92.70166666666667,507.22700000000003, 0), v100, z5, tool0;
	MoveL Offs(p0,91.66666666666667,507.5, 0), v100, z5, tool0;
	MoveL Offs(p0,89.27733333333333,508.57200000000006, 0), v100, z5, tool0;
	MoveL Offs(p0,88.5,509.125, 0), v100, z5, tool0;
	MoveL Offs(p0,87.68266666666666,509.76800000000003, 0), v100, z5, tool0;
	MoveL Offs(p0,86.84133333333334,510.48900000000003, 0), v100, z5, tool0;
	MoveL Offs(p0,85.992,511.276, 0), v100, z5, tool0;
	MoveL Offs(p0,85.15066666666667,512.1170000000001, 0), v100, z5, tool0;
	MoveL Offs(p0,84.33333333333333,513.0, 0), v100, z5, tool0;
	MoveL Offs(p0,81.20533333333334,515.9466666666667, 0), v100, z5, tool0;
	MoveL Offs(p0,79.67883333333333,516.9899999999999, 0), v100, z5, tool0;
	MoveL Offs(p0,78.22933333333334,517.7333333333333, 0), v100, z5, tool0;
	MoveL Offs(p0,76.89583333333333,518.1666666666666, 0), v100, z5, tool0;
	MoveL Offs(p0,75.71733333333333,518.28, 0), v100, z5, tool0;
	MoveL Offs(p0,74.73283333333335,518.0633333333334, 0), v100, z5, tool0;
	MoveL Offs(p0,73.98133333333334,517.5066666666667, 0), v100, z5, tool0;
	MoveL Offs(p0,73.50183333333334,516.6, 0), v100, z5, tool0;
	MoveL Offs(p0,73.33333333333333,515.3333333333334, 0), v100, z5, tool0;
	MoveL Offs(p0,73.632,512.6160000000001, 0), v100, z5, tool0;
	MoveL Offs(p0,73.79166666666667,511.7291666666667, 0), v100, z5, tool0;
	MoveL Offs(p0,73.98133333333332,510.79733333333326, 0), v100, z5, tool0;
	MoveL Offs(p0,74.199,509.83950000000004, 0), v100, z5, tool0;
	MoveL Offs(p0,74.44266666666668,508.87466666666677, 0), v100, z5, tool0;
	MoveL Offs(p0,74.71033333333334,507.9218333333334, 0), v100, z5, tool0;
	MoveL Offs(p0,75.0,507.0, 0), v100, z5, tool0;
	MoveL Offs(p0,75.61733333333335,504.60266666666683, 0), v100, z5, tool0;
	MoveL Offs(p0,75.786,503.7614999999999, 0), v100, z5, tool0;
	MoveL Offs(p0,75.85866666666668,503.1413333333334, 0), v100, z5, tool0;
	MoveL Offs(p0,75.83333333333333,502.7291666666667, 0), v100, z5, tool0;
	MoveL Offs(p0,75.708,502.51199999999994, 0), v100, z5, tool0;
	MoveL Offs(p0,75.48066666666666,502.47683333333333, 0), v100, z5, tool0;
	MoveL Offs(p0,75.14933333333335,502.6106666666667, 0), v100, z5, tool0;
	MoveL Offs(p0,74.712,502.9005, 0), v100, z5, tool0;
	MoveL Offs(p0,74.16666666666667,503.3333333333333, 0), v100, z5, tool0;
	MoveL Offs(p0,71.93466666666669,504.6920000000002, 0), v100, z5, tool0;
	MoveL Offs(p0,71.10366666666667,504.7613333333333, 0), v100, z5, tool0;
	MoveL Offs(p0,70.47066666666667,504.44266666666675, 0), v100, z5, tool0;
	MoveL Offs(p0,70.04166666666667,503.75, 0), v100, z5, tool0;
	MoveL Offs(p0,69.82266666666666,502.6973333333333, 0), v100, z5, tool0;
	MoveL Offs(p0,69.81966666666666,501.29866666666663, 0), v100, z5, tool0;
	MoveL Offs(p0,70.03866666666669,499.56800000000004, 0), v100, z5, tool0;
	MoveL Offs(p0,70.48566666666666,497.5193333333334, 0), v100, z5, tool0;
	MoveL Offs(p0,71.16666666666667,495.1666666666667, 0), v100, z5, tool0;
	MoveL Offs(p0,71.96266666666669,492.43733333333347, 0), v100, z5, tool0;
	MoveL Offs(p0,72.27816666666666,491.0851666666667, 0), v100, z5, tool0;
	MoveL Offs(p0,72.53466666666667,489.7720000000001, 0), v100, z5, tool0;
	MoveL Offs(p0,72.72916666666667,488.5208333333333, 0), v100, z5, tool0;
	MoveL Offs(p0,72.85866666666666,487.3546666666666, 0), v100, z5, tool0;
	MoveL Offs(p0,72.92016666666666,486.2965, 0), v100, z5, tool0;
	MoveL Offs(p0,72.91066666666667,485.3693333333334, 0), v100, z5, tool0;
	MoveL Offs(p0,72.82716666666667,484.59616666666665, 0), v100, z5, tool0;
	MoveL Offs(p0,72.66666666666667,484.0, 0), v100, z5, tool0;
	MoveL Offs(p0,70.58416666666666,483.048, 0), v100, z5, tool0;
	MoveL Offs(p0,70.18666666666667,483.7920000000001, 0), v100, z5, tool0;
	MoveL Offs(p0,69.71916666666667,484.77400000000006, 0), v100, z5, tool0;
	MoveL Offs(p0,69.16666666666667,486.0, 0), v100, z5, tool0;
	MoveL Offs(p0,68.25333333333334,488.04050000000007, 0), v100, z5, tool0;
	MoveL Offs(p0,67.40000000000002,489.66400000000004, 0), v100, z5, tool0;
	MoveL Offs(p0,66.58666666666666,490.8734999999999, 0), v100, z5, tool0;
	MoveL Offs(p0,65.79333333333334,491.672, 0), v100, z5, tool0;
	MoveL Offs(p0,65.0,492.0625, 0), v100, z5, tool0;
	MoveL Offs(p0,64.18666666666667,492.048, 0), v100, z5, tool0;
	MoveL Offs(p0,63.333333333333336,491.63149999999996, 0), v100, z5, tool0;
	MoveL Offs(p0,62.42000000000001,490.81600000000003, 0), v100, z5, tool0;
	MoveL Offs(p0,61.42666666666667,489.6045, 0), v100, z5, tool0;
	MoveL Offs(p0,60.333333333333336,488.0, 0), v100, z5, tool0;
	MoveL Offs(p0,57.0,482.8333333333333, 0), v100, z5, tool0;
	MoveL Offs(p0,54.333333333333336,488.0, 0), v100, z5, tool0;
	MoveL Offs(p0,52.933833333333325,490.47499999999997, 0), v100, z5, tool0;
	MoveL Offs(p0,52.46933333333334,491.1733333333334, 0), v100, z5, tool0;
	MoveL Offs(p0,52.020833333333336,491.7916666666667, 0), v100, z5, tool0;
	MoveL Offs(p0,51.59733333333333,492.32, 0), v100, z5, tool0;
	MoveL Offs(p0,51.20783333333333,492.7483333333333, 0), v100, z5, tool0;
	MoveL Offs(p0,50.861333333333334,493.0666666666668, 0), v100, z5, tool0;
	MoveL Offs(p0,50.566833333333335,493.26500000000004, 0), v100, z5, tool0;
	MoveL Offs(p0,50.333333333333336,493.3333333333333, 0), v100, z5, tool0;
	MoveL Offs(p0,48.00533333333333,490.7773333333333, 0), v100, z5, tool0;
	MoveL Offs(p0,47.51349999999999,489.96866666666665, 0), v100, z5, tool0;
	MoveL Offs(p0,47.01066666666667,489.088, 0), v100, z5, tool0;
	MoveL Offs(p0,46.50383333333334,488.14933333333335, 0), v100, z5, tool0;
	MoveL Offs(p0,46.0,487.1666666666667, 0), v100, z5, tool0;
	MoveL Offs(p0,44.56533333333335,484.32533333333345, 0), v100, z5, tool0;
	MoveL Offs(p0,44.008,483.3746666666666, 0), v100, z5, tool0;
	MoveL Offs(p0,43.52266666666667,482.7160000000001, 0), v100, z5, tool0;
	MoveL Offs(p0,43.083333333333336,482.3333333333333, 0), v100, z5, tool0;
	MoveL Offs(p0,42.664,482.21066666666667, 0), v100, z5, tool0;
	MoveL Offs(p0,42.23866666666667,482.33199999999994, 0), v100, z5, tool0;
	MoveL Offs(p0,41.781333333333336,482.6813333333334, 0), v100, z5, tool0;
	MoveL Offs(p0,41.266,483.2426666666667, 0), v100, z5, tool0;
	MoveL Offs(p0,40.666666666666664,484.0, 0), v100, z5, tool0;
	MoveL Offs(p0,39.26133333333333,486.192, 0), v100, z5, tool0;
	MoveL Offs(p0,38.9375,486.75, 0), v100, z5, tool0;
	MoveL Offs(p0,38.638666666666666,487.288, 0), v100, z5, tool0;
	MoveL Offs(p0,38.371833333333335,487.7939999999999, 0), v100, z5, tool0;
	MoveL Offs(p0,38.144000000000005,488.25600000000003, 0), v100, z5, tool0;
	MoveL Offs(p0,37.96216666666667,488.66200000000003, 0), v100, z5, tool0;
	MoveL Offs(p0,37.833333333333336,489.0, 0), v100, z5, tool0;
	MoveL Offs(p0,35.65200000000001,489.40533333333343, 0), v100, z5, tool0;
	MoveL Offs(p0,35.187333333333335,489.07650000000007, 0), v100, z5, tool0;
	MoveL Offs(p0,34.666666666666664,488.6666666666667, 0), v100, z5, tool0;
	MoveL Offs(p0,32.333333333333336,487.6875, 0), v100, z5, tool0;
	MoveL Offs(p0,32.026666666666664,487.95866666666666, 0), v100, z5, tool0;
	MoveL Offs(p0,31.75,488.40183333333334, 0), v100, z5, tool0;
	MoveL Offs(p0,31.49333333333334,489.02400000000006, 0), v100, z5, tool0;
	MoveL Offs(p0,31.24666666666667,489.83216666666664, 0), v100, z5, tool0;
	MoveL Offs(p0,31.0,490.8333333333333, 0), v100, z5, tool0;
	MoveL Offs(p0,30.1705,492.98283333333325, 0), v100, z5, tool0;
	MoveL Offs(p0,29.789333333333335,493.52400000000006, 0), v100, z5, tool0;
	MoveL Offs(p0,29.354166666666668,493.9791666666667, 0), v100, z5, tool0;
	MoveL Offs(p0,28.864,494.34933333333333, 0), v100, z5, tool0;
	MoveL Offs(p0,28.317833333333336,494.63550000000004, 0), v100, z5, tool0;
	MoveL Offs(p0,27.71466666666667,494.8386666666667, 0), v100, z5, tool0;
	MoveL Offs(p0,27.0535,494.95983333333334, 0), v100, z5, tool0;
	MoveL Offs(p0,26.333333333333332,495.0, 0), v100, z5, tool0;
	MoveL Offs(p0,24.13433333333333,494.5589999999999, 0), v100, z5, tool0;
	MoveL Offs(p0,23.725333333333335,494.0346666666667, 0), v100, z5, tool0;
	MoveL Offs(p0,23.458333333333332,493.2083333333333, 0), v100, z5, tool0;
	MoveL Offs(p0,23.32133333333333,492.01199999999994, 0), v100, z5, tool0;
	MoveL Offs(p0,23.302333333333333,490.3776666666666, 0), v100, z5, tool0;
	MoveL Offs(p0,23.389333333333337,488.2373333333333, 0), v100, z5, tool0;
	MoveL Offs(p0,23.570333333333338,485.52299999999997, 0), v100, z5, tool0;
	MoveL Offs(p0,23.833333333333332,482.1666666666667, 0), v100, z5, tool0;
	MoveL Offs(p0,24.674500000000005,474.6730000000002, 0), v100, z5, tool0;
	MoveL Offs(p0,25.982666666666677,466.9373333333335, 0), v100, z5, tool0;
	MoveL Offs(p0,27.734833333333338,459.0276666666666, 0), v100, z5, tool0;
	MoveL Offs(p0,29.908,451.012, 0), v100, z5, tool0;
	MoveL Offs(p0,32.479166666666664,442.9583333333333, 0), v100, z5, tool0;
	MoveL Offs(p0,35.425333333333334,434.9346666666667, 0), v100, z5, tool0;
	MoveL Offs(p0,38.7235,427.009, 0), v100, z5, tool0;
	MoveL Offs(p0,42.35066666666667,419.24933333333337, 0), v100, z5, tool0;
	MoveL Offs(p0,46.28383333333334,411.7236666666667, 0), v100, z5, tool0;
	MoveL Offs(p0,50.5,404.5, 0), v100, z5, tool0;
	MoveL Offs(p0,53.82683333333335,399.10533333333336, 0), v100, z5, tool0;
	MoveL Offs(p0,56.434666666666686,394.82266666666686, 0), v100, z5, tool0;
	MoveL Offs(p0,58.3645,391.5040000000001, 0), v100, z5, tool0;
	MoveL Offs(p0,59.657333333333334,389.00133333333343, 0), v100, z5, tool0;
	MoveL Offs(p0,60.354166666666664,387.1666666666667, 0), v100, z5, tool0;
	MoveL Offs(p0,60.496,385.85200000000003, 0), v100, z5, tool0;
	MoveL Offs(p0,60.12383333333333,384.90933333333334, 0), v100, z5, tool0;
	MoveL Offs(p0,59.27866666666667,384.1906666666667, 0), v100, z5, tool0;
	MoveL Offs(p0,58.0015,383.548, 0), v100, z5, tool0;
	MoveL Offs(p0,56.333333333333336,382.8333333333333, 0), v100, z5, tool0;
	MoveL Offs(p0,52.64933333333334,380.8681666666667, 0), v100, z5, tool0;
	MoveL Offs(p0,49.12133333333335,378.21200000000016, 0), v100, z5, tool0;
	MoveL Offs(p0,45.785333333333334,374.92383333333333, 0), v100, z5, tool0;
	MoveL Offs(p0,42.677333333333344,371.0626666666667, 0), v100, z5, tool0;
	MoveL Offs(p0,39.833333333333336,366.6875, 0), v100, z5, tool0;
	MoveL Offs(p0,37.28933333333333,361.8573333333334, 0), v100, z5, tool0;
	MoveL Offs(p0,35.081333333333326,356.6311666666666, 0), v100, z5, tool0;
	MoveL Offs(p0,33.245333333333335,351.06800000000004, 0), v100, z5, tool0;
	MoveL Offs(p0,31.817333333333334,345.22683333333333, 0), v100, z5, tool0;
	MoveL Offs(p0,30.833333333333332,339.1666666666667, 0), v100, z5, tool0;
	MoveL Offs(p0,30.522166666666667,337.0431666666667, 0), v100, z5, tool0;
	MoveL Offs(p0,30.184000000000008,335.15866666666676, 0), v100, z5, tool0;
	MoveL Offs(p0,29.81183333333334,333.4921666666666, 0), v100, z5, tool0;
	MoveL Offs(p0,29.398666666666667,332.0226666666667, 0), v100, z5, tool0;
	MoveL Offs(p0,28.9375,330.7291666666667, 0), v100, z5, tool0;
	MoveL Offs(p0,28.421333333333333,329.59066666666666, 0), v100, z5, tool0;
	MoveL Offs(p0,27.843166666666665,328.58616666666666, 0), v100, z5, tool0;
	MoveL Offs(p0,27.196,327.6946666666667, 0), v100, z5, tool0;
	MoveL Offs(p0,26.472833333333337,326.8951666666667, 0), v100, z5, tool0;
	MoveL Offs(p0,25.666666666666668,326.1666666666667, 0), v100, z5, tool0;
	MoveL Offs(p0,23.176666666666662,323.37066666666664, 0), v100, z5, tool0;
	MoveL Offs(p0,22.16,321.94800000000004, 0), v100, z5, tool0;
	MoveL Offs(p0,21.083333333333332,320.3333333333333, 0), v100, z5, tool0;
	MoveL Offs(p0,19.966666666666665,318.5586666666667, 0), v100, z5, tool0;
	MoveL Offs(p0,18.83,316.65599999999995, 0), v100, z5, tool0;
	MoveL Offs(p0,17.693333333333335,314.6573333333333, 0), v100, z5, tool0;
	MoveL Offs(p0,16.576666666666668,312.5946666666667, 0), v100, z5, tool0;
	MoveL Offs(p0,15.5,310.5, 0), v100, z5, tool0;
	MoveL Offs(p0,13.864333333333335,307.1073333333334, 0), v100, z5, tool0;
	MoveL Offs(p0,12.534666666666672,304.2186666666667, 0), v100, z5, tool0;
	MoveL Offs(p0,11.476999999999999,301.66799999999995, 0), v100, z5, tool0;
	MoveL Offs(p0,10.657333333333336,299.2893333333334, 0), v100, z5, tool0;
	MoveL Offs(p0,10.041666666666666,296.9166666666667, 0), v100, z5, tool0;
	MoveL Offs(p0,9.596,294.384, 0), v100, z5, tool0;
	MoveL Offs(p0,9.286333333333333,291.5253333333333, 0), v100, z5, tool0;
	MoveL Offs(p0,9.078666666666669,288.1746666666667, 0), v100, z5, tool0;
	MoveL Offs(p0,8.939000000000002,284.166, 0), v100, z5, tool0;
	MoveL Offs(p0,8.833333333333334,279.3333333333333, 0), v100, z5, tool0;
	MoveL Offs(p0,8.761833333333335,275.081, 0), v100, z5, tool0;
	MoveL Offs(p0,8.641333333333336,271.3746666666667, 0), v100, z5, tool0;
	MoveL Offs(p0,8.462833333333332,268.14033333333333, 0), v100, z5, tool0;
	MoveL Offs(p0,8.217333333333334,265.30400000000003, 0), v100, z5, tool0;
	MoveL Offs(p0,7.895833333333333,262.7916666666667, 0), v100, z5, tool0;
	MoveL Offs(p0,7.489333333333334,260.52933333333334, 0), v100, z5, tool0;
	MoveL Offs(p0,6.988833333333333,258.443, 0), v100, z5, tool0;
	MoveL Offs(p0,6.385333333333334,256.45866666666666, 0), v100, z5, tool0;
	MoveL Offs(p0,5.669833333333333,254.50233333333335, 0), v100, z5, tool0;
	MoveL Offs(p0,4.833333333333333,252.5, 0), v100, z5, tool0;
	MoveL Offs(p0,3.279166666666667,248.28916666666672, 0), v100, z5, tool0;
	MoveL Offs(p0,2.0200000000000005,243.2733333333334, 0), v100, z5, tool0;
	MoveL Offs(p0,1.0608333333333329,237.62749999999997, 0), v100, z5, tool0;
	MoveL Offs(p0,0.4066666666666665,231.52666666666664, 0), v100, z5, tool0;
	MoveL Offs(p0,0.0625,225.14583333333334, 0), v100, z5, tool0;
	MoveL Offs(p0,0.03333333333333351,218.66, 0), v100, z5, tool0;
	MoveL Offs(p0,0.3241666666666669,212.24416666666664, 0), v100, z5, tool0;
	MoveL Offs(p0,0.9400000000000003,206.07333333333335, 0), v100, z5, tool0;
	MoveL Offs(p0,1.885833333333334,200.3225, 0), v100, z5, tool0;
	MoveL Offs(p0,3.1666666666666665,195.16666666666666, 0), v100, z5, tool0;
	MoveL Offs(p0,4.2986666666666675,191.14000000000007, 0), v100, z5, tool0;
	MoveL Offs(p0,4.804666666666667,189.01666666666665, 0), v100, z5, tool0;
	MoveL Offs(p0,5.262666666666668,186.87333333333333, 0), v100, z5, tool0;
	MoveL Offs(p0,5.666666666666667,184.75, 0), v100, z5, tool0;
	MoveL Offs(p0,6.010666666666668,182.68666666666664, 0), v100, z5, tool0;
	MoveL Offs(p0,6.288666666666667,180.72333333333333, 0), v100, z5, tool0;
	MoveL Offs(p0,6.494666666666667,178.9, 0), v100, z5, tool0;
	MoveL Offs(p0,6.622666666666667,177.25666666666666, 0), v100, z5, tool0;
	MoveL Offs(p0,6.666666666666667,175.83333333333334, 0), v100, z5, tool0;
	MoveL Offs(p0,6.858833333333334,172.9141666666667, 0), v100, z5, tool0;
	MoveL Offs(p0,7.404000000000003,169.36, 0), v100, z5, tool0;
	MoveL Offs(p0,8.255166666666668,165.32583333333332, 0), v100, z5, tool0;
	MoveL Offs(p0,9.365333333333334,160.96666666666667, 0), v100, z5, tool0;
	MoveL Offs(p0,10.6875,156.4375, 0), v100, z5, tool0;
	MoveL Offs(p0,12.174666666666669,151.89333333333335, 0), v100, z5, tool0;
	MoveL Offs(p0,13.779833333333334,147.48916666666665, 0), v100, z5, tool0;
	MoveL Offs(p0,15.456000000000003,143.38, 0), v100, z5, tool0;
	MoveL Offs(p0,17.156166666666667,139.72083333333333, 0), v100, z5, tool0;
	MoveL Offs(p0,18.833333333333332,136.66666666666666, 0), v100, z5, tool0;
	MoveL Offs(p0,20.224000000000007,134.4266666666667, 0), v100, z5, tool0;
	MoveL Offs(p0,21.104333333333333,133.09666666666666, 0), v100, z5, tool0;
	MoveL Offs(p0,22.078666666666667,131.66666666666669, 0), v100, z5, tool0;
	MoveL Offs(p0,23.125,130.16666666666666, 0), v100, z5, tool0;
	MoveL Offs(p0,24.221333333333334,128.62666666666667, 0), v100, z5, tool0;
	MoveL Offs(p0,25.345666666666663,127.07666666666667, 0), v100, z5, tool0;
	MoveL Offs(p0,26.476000000000003,125.54666666666668, 0), v100, z5, tool0;
	MoveL Offs(p0,27.590333333333337,124.06666666666668, 0), v100, z5, tool0;
	MoveL Offs(p0,28.666666666666668,122.66666666666667, 0), v100, z5, tool0;
	MoveL Offs(p0,30.66933333333334,119.95600000000003, 0), v100, z5, tool0;
	MoveL Offs(p0,31.578166666666664,118.62566666666665, 0), v100, z5, tool0;
	MoveL Offs(p0,32.407999999999994,117.34133333333334, 0), v100, z5, tool0;
	MoveL Offs(p0,33.145833333333336,116.125, 0), v100, z5, tool0;
	MoveL Offs(p0,33.77866666666666,114.99866666666667, 0), v100, z5, tool0;
	MoveL Offs(p0,34.2935,113.98433333333332, 0), v100, z5, tool0;
	MoveL Offs(p0,34.67733333333334,113.104, 0), v100, z5, tool0;
	MoveL Offs(p0,34.91716666666667,112.37966666666667, 0), v100, z5, tool0;
	MoveL Offs(p0,35.0,111.83333333333333, 0), v100, z5, tool0;
	MoveL Offs(p0,35.54449999999999,109.43033333333334, 0), v100, z5, tool0;
	MoveL Offs(p0,35.94400000000001,108.23066666666669, 0), v100, z5, tool0;
	MoveL Offs(p0,36.4375,106.875, 0), v100, z5, tool0;
	MoveL Offs(p0,37.016,105.38933333333334, 0), v100, z5, tool0;
	MoveL Offs(p0,37.6705,103.79966666666667, 0), v100, z5, tool0;
	MoveL Offs(p0,38.392,102.13200000000002, 0), v100, z5, tool0;
	MoveL Offs(p0,39.1715,100.41233333333334, 0), v100, z5, tool0;
	MoveL Offs(p0,40.0,98.66666666666667, 0), v100, z5, tool0;
	MoveL Offs(p0,42.05316666666668,94.794, 0), v100, z5, tool0;
	MoveL Offs(p0,44.56533333333334,90.82533333333338, 0), v100, z5, tool0;
	MoveL Offs(p0,47.46549999999999,86.83466666666665, 0), v100, z5, tool0;
	MoveL Offs(p0,50.68266666666667,82.896, 0), v100, z5, tool0;
	MoveL Offs(p0,54.145833333333336,79.08333333333333, 0), v100, z5, tool0;
	MoveL Offs(p0,57.784,75.47066666666666, 0), v100, z5, tool0;
	MoveL Offs(p0,61.526166666666676,72.13199999999999, 0), v100, z5, tool0;
	MoveL Offs(p0,65.30133333333335,69.14133333333335, 0), v100, z5, tool0;
	MoveL Offs(p0,69.03850000000001,66.57266666666668, 0), v100, z5, tool0;
	MoveL Offs(p0,72.66666666666667,64.5, 0), v100, z5, tool0;
	MoveL Offs(p0,75.42133333333335,62.960000000000015, 0), v100, z5, tool0;
	MoveL Offs(p0,76.73616666666668,62.10749999999999, 0), v100, z5, tool0;
	MoveL Offs(p0,77.98400000000001,61.220000000000006, 0), v100, z5, tool0;
	MoveL Offs(p0,79.14583333333333,60.3125, 0), v100, z5, tool0;
	MoveL Offs(p0,80.20266666666666,59.4, 0), v100, z5, tool0;
	MoveL Offs(p0,81.1355,58.4975, 0), v100, z5, tool0;
	MoveL Offs(p0,81.92533333333334,57.620000000000005, 0), v100, z5, tool0;
	MoveL Offs(p0,82.55316666666667,56.7825, 0), v100, z5, tool0;
	MoveL Offs(p0,83.0,56.0, 0), v100, z5, tool0;
	MoveL Offs(p0,85.82783333333334,51.052166666666665, 0), v100, z5, tool0;
	MoveL Offs(p0,89.8026666666667,46.07733333333335, 0), v100, z5, tool0;
	MoveL Offs(p0,94.7615,41.17849999999999, 0), v100, z5, tool0;
	MoveL Offs(p0,100.54133333333334,36.458666666666666, 0), v100, z5, tool0;
	MoveL Offs(p0,106.97916666666667,32.020833333333336, 0), v100, z5, tool0;
	MoveL Offs(p0,113.91199999999999,27.968, 0), v100, z5, tool0;
	MoveL Offs(p0,121.17683333333333,24.403166666666664, 0), v100, z5, tool0;
	MoveL Offs(p0,128.61066666666667,21.429333333333332, 0), v100, z5, tool0;
	MoveL Offs(p0,136.0505,19.1495, 0), v100, z5, tool0;
	MoveL Offs(p0,143.33333333333334,17.666666666666668, 0), v100, z5, tool0;
	MoveL Offs(p0,146.3186666666667,16.98666666666667, 0), v100, z5, tool0;
	MoveL Offs(p0,148.11383333333333,16.459166666666665, 0), v100, z5, tool0;
	MoveL Offs(p0,150.056,15.826666666666668, 0), v100, z5, tool0;
	MoveL Offs(p0,152.10416666666666,15.104166666666666, 0), v100, z5, tool0;
	MoveL Offs(p0,154.21733333333336,14.306666666666667, 0), v100, z5, tool0;
	MoveL Offs(p0,156.3545,13.449166666666665, 0), v100, z5, tool0;
	MoveL Offs(p0,158.47466666666668,12.546666666666667, 0), v100, z5, tool0;
	MoveL Offs(p0,160.53683333333333,11.614166666666668, 0), v100, z5, tool0;
	MoveL Offs(p0,162.5,10.666666666666666, 0), v100, z5, tool0;
	MoveL Offs(p0,167.822,8.168000000000001, 0), v100, z5, tool0;
	MoveL Offs(p0,172.85600000000002,6.057333333333336, 0), v100, z5, tool0;
	MoveL Offs(p0,177.70399999999995,4.312666666666666, 0), v100, z5, tool0;
	MoveL Offs(p0,182.468,2.9119999999999995, 0), v100, z5, tool0;
	MoveL Offs(p0,187.25,1.8333333333333333, 0), v100, z5, tool0;
	MoveL Offs(p0,192.15200000000002,1.0546666666666662, 0), v100, z5, tool0;
	MoveL Offs(p0,197.27599999999998,0.5539999999999997, 0), v100, z5, tool0;
	MoveL Offs(p0,202.72400000000002,0.3093333333333333, 0), v100, z5, tool0;
	MoveL Offs(p0,208.59799999999998,0.2986666666666667, 0), v100, z5, tool0;
	MoveL Offs(p0,215.0,0.5, 0), v100, z5, tool0;
	MoveL Offs(p0,218.42450000000005,0.6791666666666668, 0), v100, z5, tool0;
	MoveL Offs(p0,221.77600000000004,0.9133333333333336, 0), v100, z5, tool0;
	MoveL Offs(p0,225.02149999999995,1.1975, 0), v100, z5, tool0;
	MoveL Offs(p0,228.12800000000004,1.5266666666666666, 0), v100, z5, tool0;
	MoveL Offs(p0,231.0625,1.8958333333333333, 0), v100, z5, tool0;
	MoveL Offs(p0,233.792,2.3000000000000003, 0), v100, z5, tool0;
	MoveL Offs(p0,236.2835,2.734166666666667, 0), v100, z5, tool0;
	MoveL Offs(p0,238.50400000000002,3.193333333333334, 0), v100, z5, tool0;
	MoveL Offs(p0,240.42049999999998,3.6725, 0), v100, z5, tool0;
	MoveL Offs(p0,242.0,4.166666666666667, 0), v100, z5, tool0;
	MoveL Offs(p0,245.75733333333338,5.374666666666667, 0), v100, z5, tool0;
	MoveL Offs(p0,247.48849999999996,5.768666666666667, 0), v100, z5, tool0;
	MoveL Offs(p0,249.21866666666668,6.030666666666668, 0), v100, z5, tool0;
	MoveL Offs(p0,251.02083333333334,6.166666666666667, 0), v100, z5, tool0;
	MoveL Offs(p0,252.968,6.182666666666667, 0), v100, z5, tool0;
	MoveL Offs(p0,255.13316666666665,6.084666666666666, 0), v100, z5, tool0;
	MoveL Offs(p0,257.58933333333334,5.878666666666668, 0), v100, z5, tool0;
	MoveL Offs(p0,260.40950000000004,5.570666666666667, 0), v100, z5, tool0;
	MoveL Offs(p0,263.6666666666667,5.166666666666667, 0), v100, z5, tool0;
	MoveL Offs(p0,276.9171666666667,4.278166666666667, 0), v100, z5, tool0;
	MoveL Offs(p0,290.31066666666675,5.038666666666668, 0), v100, z5, tool0;
	MoveL Offs(p0,303.61016666666666,7.3371666666666675, 0), v100, z5, tool0;
	MoveL Offs(p0,316.57866666666666,11.062666666666667, 0), v100, z5, tool0;
	MoveL Offs(p0,328.9791666666667,16.104166666666668, 0), v100, z5, tool0;
	MoveL Offs(p0,340.5746666666667,22.350666666666672, 0), v100, z5, tool0;
	MoveL Offs(p0,351.1281666666667,29.691166666666675, 0), v100, z5, tool0;
	MoveL Offs(p0,360.4026666666667,38.01466666666668, 0), v100, z5, tool0;
	MoveL Offs(p0,368.1611666666667,47.21016666666667, 0), v100, z5, tool0;
	MoveL Offs(p0,374.1666666666667,57.166666666666664, 0), v100, z5, tool0;
	MoveL Offs(p0,375.2255,59.25533333333334, 0), v100, z5, tool0;
	MoveL Offs(p0,376.2373333333334,61.05600000000001, 0), v100, z5, tool0;
	MoveL Offs(p0,377.25516666666664,62.62066666666666, 0), v100, z5, tool0;
	MoveL Offs(p0,378.33200000000005,64.00133333333333, 0), v100, z5, tool0;
	MoveL Offs(p0,379.5208333333333,65.25, 0), v100, z5, tool0;
	MoveL Offs(p0,380.87466666666666,66.41866666666667, 0), v100, z5, tool0;
	MoveL Offs(p0,382.4465,67.55933333333333, 0), v100, z5, tool0;
	MoveL Offs(p0,384.28933333333333,68.724, 0), v100, z5, tool0;
	MoveL Offs(p0,386.45616666666666,69.96466666666667, 0), v100, z5, tool0;
	MoveL Offs(p0,389.0,71.33333333333333, 0), v100, z5, tool0;
	MoveL Offs(p0,396.0221666666668,75.61200000000002, 0), v100, z5, tool0;
	MoveL Offs(p0,402.63733333333334,80.86266666666668, 0), v100, z5, tool0;
	MoveL Offs(p0,408.7684999999999,86.95733333333334, 0), v100, z5, tool0;
	MoveL Offs(p0,414.3386666666667,93.76800000000001, 0), v100, z5, tool0;
	MoveL Offs(p0,419.2708333333333,101.16666666666667, 0), v100, z5, tool0;
	MoveL Offs(p0,423.488,109.02533333333334, 0), v100, z5, tool0;
	MoveL Offs(p0,426.9131666666667,117.21600000000001, 0), v100, z5, tool0;
	MoveL Offs(p0,429.4693333333334,125.61066666666669, 0), v100, z5, tool0;
	MoveL Offs(p0,431.0795,134.08133333333333, 0), v100, z5, tool0;
	MoveL Offs(p0,431.6666666666667,142.5, 0), v100, z5, tool0;
	MoveL Offs(p0,431.85733333333343,145.388, 0), v100, z5, tool0;
	MoveL Offs(p0,432.1076666666667,146.7795, 0), v100, z5, tool0;
	MoveL Offs(p0,432.47200000000004,148.16400000000002, 0), v100, z5, tool0;
	MoveL Offs(p0,432.9583333333333,149.5625, 0), v100, z5, tool0;
	MoveL Offs(p0,433.5746666666667,150.996, 0), v100, z5, tool0;
	MoveL Offs(p0,434.329,152.4855, 0), v100, z5, tool0;
	MoveL Offs(p0,435.2293333333334,154.05200000000002, 0), v100, z5, tool0;
	MoveL Offs(p0,436.2836666666667,155.71650000000002, 0), v100, z5, tool0;
	MoveL Offs(p0,437.5,157.5, 0), v100, z5, tool0;
	MoveL Offs(p0,440.5503333333334,162.3685, 0), v100, z5, tool0;
	MoveL Offs(p0,443.2826666666667,167.88800000000003, 0), v100, z5, tool0;
	MoveL Offs(p0,445.66900000000004,173.9295, 0), v100, z5, tool0;
	MoveL Offs(p0,447.6813333333334,180.36400000000003, 0), v100, z5, tool0;
	MoveL Offs(p0,449.2916666666667,187.0625, 0), v100, z5, tool0;
	MoveL Offs(p0,450.47200000000004,193.896, 0), v100, z5, tool0;
	MoveL Offs(p0,451.19433333333336,200.7355, 0), v100, z5, tool0;
	MoveL Offs(p0,451.4306666666667,207.452, 0), v100, z5, tool0;
	MoveL Offs(p0,451.153,213.9165, 0), v100, z5, tool0;
	MoveL Offs(p0,450.3333333333333,220.0, 0), v100, z5, tool0;
	MoveL Offs(p0,449.7960000000002,222.9093333333334, 0), v100, z5, tool0;
	MoveL Offs(p0,449.57733333333323,224.26149999999998, 0), v100, z5, tool0;
	MoveL Offs(p0,449.39466666666664,225.51466666666667, 0), v100, z5, tool0;
	MoveL Offs(p0,449.25,226.64583333333334, 0), v100, z5, tool0;
	MoveL Offs(p0,449.1453333333333,227.63199999999998, 0), v100, z5, tool0;
	MoveL Offs(p0,449.0826666666667,228.45016666666666, 0), v100, z5, tool0;
	MoveL Offs(p0,449.064,229.07733333333337, 0), v100, z5, tool0;
	MoveL Offs(p0,449.0913333333333,229.4905, 0), v100, z5, tool0;
	MoveL Offs(p0,449.1666666666667,229.66666666666666, 0), v100, z5, tool0;
	MoveL Offs(p0,451.76933333333335,227.8213333333333, 0), v100, z5, tool0;
	MoveL Offs(p0,453.0,226.75, 0), v100, z5, tool0;
	MoveL Offs(p0,454.41066666666666,225.47866666666664, 0), v100, z5, tool0;
	MoveL Offs(p0,455.9753333333333,224.0293333333333, 0), v100, z5, tool0;
	MoveL Offs(p0,457.66800000000006,222.424, 0), v100, z5, tool0;
	MoveL Offs(p0,459.4626666666666,220.6846666666667, 0), v100, z5, tool0;
	MoveL Offs(p0,461.3333333333333,218.83333333333334, 0), v100, z5, tool0;
	MoveL Offs(p0,465.7045000000001,214.35433333333341, 0), v100, z5, tool0;
	MoveL Offs(p0,469.90266666666685,209.6413333333334, 0), v100, z5, tool0;
	MoveL Offs(p0,473.9048333333333,204.73033333333333, 0), v100, z5, tool0;
	MoveL Offs(p0,477.68800000000005,199.65733333333336, 0), v100, z5, tool0;
	MoveL Offs(p0,481.2291666666667,194.45833333333334, 0), v100, z5, tool0;
	MoveL Offs(p0,484.50533333333334,189.16933333333336, 0), v100, z5, tool0;
	MoveL Offs(p0,487.49350000000004,183.82633333333334, 0), v100, z5, tool0;
	MoveL Offs(p0,490.1706666666667,178.46533333333335, 0), v100, z5, tool0;
	MoveL Offs(p0,492.51383333333337,173.12233333333333, 0), v100, z5, tool0;
	MoveL Offs(p0,494.5,167.83333333333334, 0), v100, z5, tool0;
	MoveL Offs(p0,495.64316666666673,164.45166666666668, 0), v100, z5, tool0;
	MoveL Offs(p0,496.58533333333344,161.42000000000004, 0), v100, z5, tool0;
	MoveL Offs(p0,497.34549999999996,158.60833333333332, 0), v100, z5, tool0;
	MoveL Offs(p0,497.94266666666664,155.88666666666668, 0), v100, z5, tool0;
	MoveL Offs(p0,498.3958333333333,153.125, 0), v100, z5, tool0;
	MoveL Offs(p0,498.724,150.19333333333336, 0), v100, z5, tool0;
	MoveL Offs(p0,498.94616666666667,146.96166666666667, 0), v100, z5, tool0;
	MoveL Offs(p0,499.08133333333336,143.3, 0), v100, z5, tool0;
	MoveL Offs(p0,499.14850000000007,139.07833333333335, 0), v100, z5, tool0;
	MoveL Offs(p0,499.1666666666667,134.16666666666666, 0), v100, z5, tool0;
	MoveL Offs(p0,499.14483333333345,129.46566666666666, 0), v100, z5, tool0;
	MoveL Offs(p0,499.07200000000006,125.39866666666667, 0), v100, z5, tool0;
	MoveL Offs(p0,498.93716666666666,121.86966666666666, 0), v100, z5, tool0;
	MoveL Offs(p0,498.72933333333344,118.78266666666667, 0), v100, z5, tool0;
	MoveL Offs(p0,498.4375,116.04166666666667, 0), v100, z5, tool0;
	MoveL Offs(p0,498.0506666666667,113.55066666666664, 0), v100, z5, tool0;
	MoveL Offs(p0,497.5578333333333,111.21366666666665, 0), v100, z5, tool0;
	MoveL Offs(p0,496.94800000000004,108.93466666666666, 0), v100, z5, tool0;
	MoveL Offs(p0,496.2101666666667,106.61766666666666, 0), v100, z5, tool0;
	MoveL Offs(p0,495.3333333333333,104.16666666666667, 0), v100, z5, tool0;
	MoveL Offs(p0,493.7398333333333,100.24350000000003, 0), v100, z5, tool0;
	MoveL Offs(p0,491.9653333333335,96.48133333333335, 0), v100, z5, tool0;
	MoveL Offs(p0,490.0188333333333,92.89116666666666, 0), v100, z5, tool0;
	MoveL Offs(p0,487.90933333333345,89.484, 0), v100, z5, tool0;
	MoveL Offs(p0,485.6458333333333,86.27083333333333, 0), v100, z5, tool0;
	MoveL Offs(p0,483.2373333333333,83.26266666666666, 0), v100, z5, tool0;
	MoveL Offs(p0,480.69283333333334,80.4705, 0), v100, z5, tool0;
	MoveL Offs(p0,478.02133333333336,77.90533333333333, 0), v100, z5, tool0;
	MoveL Offs(p0,475.2318333333333,75.57816666666668, 0), v100, z5, tool0;
	MoveL Offs(p0,472.3333333333333,73.5, 0), v100, z5, tool0;
	MoveL Offs(p0,466.32416666666677,69.95516666666667, 0), v100, z5, tool0;
	MoveL Offs(p0,460.6000000000001,67.42133333333335, 0), v100, z5, tool0;
	MoveL Offs(p0,455.1658333333333,65.8995, 0), v100, z5, tool0;
	MoveL Offs(p0,450.02666666666664,65.39066666666666, 0), v100, z5, tool0;
	MoveL Offs(p0,445.1875,65.89583333333333, 0), v100, z5, tool0;
	MoveL Offs(p0,440.65333333333336,67.41600000000001, 0), v100, z5, tool0;
	MoveL Offs(p0,436.4291666666666,69.95216666666667, 0), v100, z5, tool0;
	MoveL Offs(p0,432.52,73.50533333333334, 0), v100, z5, tool0;
	MoveL Offs(p0,428.93083333333334,78.0765, 0), v100, z5, tool0;
	MoveL Offs(p0,425.6666666666667,83.66666666666667, 0), v100, z5, tool0;
	MoveL Offs(p0,423.9786666666668,86.73600000000003, 0), v100, z5, tool0;
	MoveL Offs(p0,423.20966666666664,87.95816666666667, 0), v100, z5, tool0;
	MoveL Offs(p0,422.4826666666666,88.98133333333334, 0), v100, z5, tool0;
	MoveL Offs(p0,421.7916666666667,89.8125, 0), v100, z5, tool0;
	MoveL Offs(p0,421.1306666666666,90.45866666666666, 0), v100, z5, tool0;
	MoveL Offs(p0,420.4936666666667,90.92683333333333, 0), v100, z5, tool0;
	MoveL Offs(p0,419.87466666666666,91.224, 0), v100, z5, tool0;
	MoveL Offs(p0,419.2676666666667,91.35716666666667, 0), v100, z5, tool0;
	MoveL Offs(p0,418.6666666666667,91.33333333333333, 0), v100, z5, tool0;
	MoveL Offs(p0,416.63466666666676,89.35200000000003, 0), v100, z5, tool0;
	MoveL Offs(p0,416.10616666666664,87.48133333333332, 0), v100, z5, tool0;
	MoveL Offs(p0,415.8906666666667,85.16266666666667, 0), v100, z5, tool0;
	MoveL Offs(p0,415.9791666666667,82.5, 0), v100, z5, tool0;
	MoveL Offs(p0,416.36266666666666,79.59733333333332, 0), v100, z5, tool0;
	MoveL Offs(p0,417.0321666666667,76.55866666666667, 0), v100, z5, tool0;
	MoveL Offs(p0,417.9786666666667,73.488, 0), v100, z5, tool0;
	MoveL Offs(p0,419.1931666666667,70.48933333333333, 0), v100, z5, tool0;
	MoveL Offs(p0,420.6666666666667,67.66666666666667, 0), v100, z5, tool0;
	MoveL Offs(p0,423.2885000000001,63.71283333333334, 0), v100, z5, tool0;
	MoveL Offs(p0,426.24133333333344,60.25600000000002, 0), v100, z5, tool0;
	MoveL Offs(p0,429.5061666666666,57.30316666666667, 0), v100, z5, tool0;
	MoveL Offs(p0,433.064,54.861333333333334, 0), v100, z5, tool0;
	MoveL Offs(p0,436.8958333333333,52.9375, 0), v100, z5, tool0;
	MoveL Offs(p0,440.9826666666667,51.538666666666664, 0), v100, z5, tool0;
	MoveL Offs(p0,445.3055,50.67183333333333, 0), v100, z5, tool0;
	MoveL Offs(p0,449.8453333333334,50.344, 0), v100, z5, tool0;
	MoveL Offs(p0,454.5831666666667,50.56216666666668, 0), v100, z5, tool0;
	MoveL Offs(p0,459.5,51.333333333333336, 0), v100, z5, tool0;
	MoveL Offs(p0,468.00016666666676,53.62883333333335, 0), v100, z5, tool0;
	MoveL Offs(p0,475.98133333333345,56.79733333333334, 0), v100, z5, tool0;
	MoveL Offs(p0,483.4144999999999,60.81183333333334, 0), v100, z5, tool0;
	MoveL Offs(p0,490.2706666666667,65.64533333333334, 0), v100, z5, tool0;
	MoveL Offs(p0,496.5208333333333,71.27083333333333, 0), v100, z5, tool0;
	MoveL Offs(p0,502.13599999999997,77.66133333333333, 0), v100, z5, tool0;
	MoveL Offs(p0,507.0871666666667,84.78983333333333, 0), v100, z5, tool0;
	MoveL Offs(p0,511.3453333333334,92.62933333333335, 0), v100, z5, tool0;
	MoveL Offs(p0,514.8815000000001,101.15283333333333, 0), v100, z5, tool0;
	MoveL Offs(p0,517.6666666666666,110.33333333333333, 0), v100, z5, tool0;
	MoveL Offs(p0,518.7878333333334,115.69783333333335, 0), v100, z5, tool0;
	MoveL Offs(p0,519.5560000000002,121.60933333333337, 0), v100, z5, tool0;
	MoveL Offs(p0,519.9781666666667,127.94483333333335, 0), v100, z5, tool0;
	MoveL Offs(p0,520.0613333333333,134.58133333333333, 0), v100, z5, tool0;
	MoveL Offs(p0,519.8125,141.39583333333334, 0), v100, z5, tool0;
	MoveL Offs(p0,519.2386666666667,148.26533333333333, 0), v100, z5, tool0;
	MoveL Offs(p0,518.3468333333334,155.06683333333334, 0), v100, z5, tool0;
	MoveL Offs(p0,517.1440000000001,161.67733333333334, 0), v100, z5, tool0;
	MoveL Offs(p0,515.6371666666666,167.97383333333335, 0), v100, z5, tool0;
	MoveL Offs(p0,513.8333333333334,173.83333333333334, 0), v100, z5, tool0;
	MoveL Offs(p0,510.56783333333334,182.32433333333336, 0), v100, z5, tool0;
	MoveL Offs(p0,506.7693333333334,190.60133333333337, 0), v100, z5, tool0;
	MoveL Offs(p0,502.4348333333334,198.67033333333333, 0), v100, z5, tool0;
	MoveL Offs(p0,497.5613333333334,206.53733333333335, 0), v100, z5, tool0;
	MoveL Offs(p0,492.1458333333333,214.20833333333334, 0), v100, z5, tool0;
	MoveL Offs(p0,486.18533333333335,221.68933333333334, 0), v100, z5, tool0;
	MoveL Offs(p0,479.67683333333326,228.98633333333336, 0), v100, z5, tool0;
	MoveL Offs(p0,472.61733333333336,236.10533333333333, 0), v100, z5, tool0;
	MoveL Offs(p0,465.0038333333334,243.05233333333334, 0), v100, z5, tool0;
	MoveL Offs(p0,456.8333333333333,249.83333333333334, 0), v100, z5, tool0;
	MoveL Offs(p0,442.1666666666667,261.3333333333333, 0), v100, z5, tool0;
	MoveL Offs(p0,443.6666666666667,271.1666666666667, 0), v100, z5, tool0;
	MoveL Offs(p0,444.12716666666665,274.5665, 0), v100, z5, tool0;
	MoveL Offs(p0,444.4106666666668,278.14533333333344, 0), v100, z5, tool0;
	MoveL Offs(p0,444.5201666666667,281.8721666666667, 0), v100, z5, tool0;
	MoveL Offs(p0,444.45866666666666,285.716, 0), v100, z5, tool0;
	MoveL Offs(p0,444.2291666666667,289.6458333333333, 0), v100, z5, tool0;
	MoveL Offs(p0,443.83466666666664,293.6306666666667, 0), v100, z5, tool0;
	MoveL Offs(p0,443.27816666666666,297.6395, 0), v100, z5, tool0;
	MoveL Offs(p0,442.5626666666667,301.6413333333333, 0), v100, z5, tool0;
	MoveL Offs(p0,441.69116666666673,305.60516666666666, 0), v100, z5, tool0;
	MoveL Offs(p0,440.6666666666667,309.5, 0), v100, z5, tool0;
	MoveL Offs(p0,439.96183333333335,312.02766666666673, 0), v100, z5, tool0;
	MoveL Offs(p0,439.4480000000001,314.2213333333334, 0), v100, z5, tool0;
	MoveL Offs(p0,439.1261666666667,316.097, 0), v100, z5, tool0;
	MoveL Offs(p0,438.9973333333334,317.6706666666667, 0), v100, z5, tool0;
	MoveL Offs(p0,439.0625,318.9583333333333, 0), v100, z5, tool0;
	MoveL Offs(p0,439.32266666666663,319.97599999999994, 0), v100, z5, tool0;
	MoveL Offs(p0,439.7788333333333,320.73966666666666, 0), v100, z5, tool0;
	MoveL Offs(p0,440.4320000000001,321.26533333333333, 0), v100, z5, tool0;
	MoveL Offs(p0,441.28316666666666,321.569, 0), v100, z5, tool0;
	MoveL Offs(p0,442.3333333333333,321.6666666666667, 0), v100, z5, tool0;
	MoveL Offs(p0,445.3826666666668,318.6360000000001, 0), v100, z5, tool0;
	MoveL Offs(p0,447.8623333333333,314.9481666666667, 0), v100, z5, tool0;
	MoveL Offs(p0,450.92800000000005,309.90133333333335, 0), v100, z5, tool0;
	MoveL Offs(p0,454.5416666666667,303.5625, 0), v100, z5, tool0;
	MoveL Offs(p0,458.6653333333333,295.9986666666666, 0), v100, z5, tool0;
	MoveL Offs(p0,463.26099999999997,287.27683333333334, 0), v100, z5, tool0;
	MoveL Offs(p0,468.29066666666677,277.464, 0), v100, z5, tool0;
	MoveL Offs(p0,473.7163333333333,266.62716666666665, 0), v100, z5, tool0;
	MoveL Offs(p0,479.5,254.83333333333334, 0), v100, z5, tool0;
	MoveL Offs(p0,484.41533333333336,244.87150000000005, 0), v100, z5, tool0;
	MoveL Offs(p0,488.64266666666686,236.57866666666675, 0), v100, z5, tool0;
	MoveL Offs(p0,492.30400000000003,229.79383333333328, 0), v100, z5, tool0;
	MoveL Offs(p0,495.52133333333336,224.35600000000002, 0), v100, z5, tool0;
	MoveL Offs(p0,498.4166666666667,220.10416666666666, 0), v100, z5, tool0;
	MoveL Offs(p0,501.112,216.87733333333333, 0), v100, z5, tool0;
	MoveL Offs(p0,503.7293333333334,214.5145, 0), v100, z5, tool0;
	MoveL Offs(p0,506.3906666666667,212.8546666666667, 0), v100, z5, tool0;
	MoveL Offs(p0,509.218,211.73683333333335, 0), v100, z5, tool0;
	MoveL Offs(p0,512.3333333333334,211.0, 0), v100, z5, tool0;
	MoveL Offs(p0,515.0811666666667,210.78600000000003, 0), v100, z5, tool0;
	MoveL Offs(p0,518.4360000000001,211.04800000000003, 0), v100, z5, tool0;
	MoveL Offs(p0,522.4148333333334,211.792, 0), v100, z5, tool0;
	MoveL Offs(p0,527.0346666666667,213.024, 0), v100, z5, tool0;
	MoveL Offs(p0,532.3125,214.75, 0), v100, z5, tool0;
	MoveL Offs(p0,538.2653333333333,216.976, 0), v100, z5, tool0;
	MoveL Offs(p0,544.9101666666667,219.708, 0), v100, z5, tool0;
	MoveL Offs(p0,552.264,222.952, 0), v100, z5, tool0;
	MoveL Offs(p0,560.3438333333334,226.71400000000003, 0), v100, z5, tool0;
	MoveL Offs(p0,569.1666666666666,231.0, 0), v100, z5, tool0;
	MoveL Offs(p0,578.4125000000001,235.66000000000005, 0), v100, z5, tool0;
	MoveL Offs(p0,586.3333333333336,239.80000000000007, 0), v100, z5, tool0;
	MoveL Offs(p0,593.0541666666667,243.51, 0), v100, z5, tool0;
	MoveL Offs(p0,598.6999999999999,246.88, 0), v100, z5, tool0;
	MoveL Offs(p0,603.3958333333334,250.0, 0), v100, z5, tool0;
	MoveL Offs(p0,607.2666666666668,252.95999999999995, 0), v100, z5, tool0;
	MoveL Offs(p0,610.4375,255.85, 0), v100, z5, tool0;
	MoveL Offs(p0,613.0333333333334,258.76, 0), v100, z5, tool0;
	MoveL Offs(p0,615.1791666666667,261.78000000000003, 0), v100, z5, tool0;
	MoveL Offs(p0,617.0,265.0, 0), v100, z5, tool0;
	MoveL Offs(p0,619.2536666666667,269.70066666666673, 0), v100, z5, tool0;
	MoveL Offs(p0,620.7293333333336,274.14533333333344, 0), v100, z5, tool0;
	MoveL Offs(p0,621.299,278.69800000000004, 0), v100, z5, tool0;
	MoveL Offs(p0,620.8346666666667,283.7226666666667, 0), v100, z5, tool0;
	MoveL Offs(p0,619.2083333333334,289.5833333333333, 0), v100, z5, tool0;
	MoveL Offs(p0,616.292,296.64399999999995, 0), v100, z5, tool0;
	MoveL Offs(p0,611.9576666666667,305.26866666666666, 0), v100, z5, tool0;
	MoveL Offs(p0,606.0773333333334,315.82133333333337, 0), v100, z5, tool0;
	MoveL Offs(p0,598.523,328.666, 0), v100, z5, tool0;
	MoveL Offs(p0,589.1666666666666,344.1666666666667, 0), v100, z5, tool0;
	MoveL Offs(p0,585.705,349.9178333333334, 0), v100, z5, tool0;
	MoveL Offs(p0,582.3533333333335,355.51600000000013, 0), v100, z5, tool0;
	MoveL Offs(p0,579.1616666666666,360.87816666666663, 0), v100, z5, tool0;
	MoveL Offs(p0,576.1800000000001,365.9213333333333, 0), v100, z5, tool0;
	MoveL Offs(p0,573.4583333333334,370.5625, 0), v100, z5, tool0;
	MoveL Offs(p0,571.0466666666667,374.71866666666665, 0), v100, z5, tool0;
	MoveL Offs(p0,568.995,378.3068333333333, 0), v100, z5, tool0;
	MoveL Offs(p0,567.3533333333334,381.24399999999997, 0), v100, z5, tool0;
	MoveL Offs(p0,566.1716666666667,383.44716666666665, 0), v100, z5, tool0;
	MoveL Offs(p0,565.5,384.8333333333333, 0), v100, z5, tool0;
	MoveL Offs(p0,564.3920000000002,387.5746666666667, 0), v100, z5, tool0;
	MoveL Offs(p0,564.0705000000002,388.59533333333326, 0), v100, z5, tool0;
	MoveL Offs(p0,563.916,389.44400000000013, 0), v100, z5, tool0;
	MoveL Offs(p0,563.9375,390.1666666666667, 0), v100, z5, tool0;
	MoveL Offs(p0,564.144,390.8093333333333, 0), v100, z5, tool0;
	MoveL Offs(p0,564.5445,391.41799999999995, 0), v100, z5, tool0;
	MoveL Offs(p0,565.148,392.03866666666664, 0), v100, z5, tool0;
	MoveL Offs(p0,565.9635000000001,392.71733333333333, 0), v100, z5, tool0;
	MoveL Offs(p0,567.0,393.5, 0), v100, z5, tool0;
	MoveL Offs(p0,570.0956666666667,395.51050000000004, 0), v100, z5, tool0;
	MoveL Offs(p0,573.4453333333335,397.04400000000015, 0), v100, z5, tool0;
	MoveL Offs(p0,576.993,398.10349999999994, 0), v100, z5, tool0;
	MoveL Offs(p0,580.6826666666667,398.692, 0), v100, z5, tool0;
	MoveL Offs(p0,584.4583333333334,398.8125, 0), v100, z5, tool0;
	MoveL Offs(p0,588.264,398.468, 0), v100, z5, tool0;
	MoveL Offs(p0,592.0436666666666,397.6615, 0), v100, z5, tool0;
	MoveL Offs(p0,595.7413333333334,396.396, 0), v100, z5, tool0;
	MoveL Offs(p0,599.301,394.6745000000001, 0), v100, z5, tool0;
	MoveL Offs(p0,602.6666666666666,392.5, 0), v100, z5, tool0;
	MoveL Offs(p0,606.450666666667,388.60400000000004, 0), v100, z5, tool0;
	MoveL Offs(p0,608.4401666666666,385.90599999999995, 0), v100, z5, tool0;
	MoveL Offs(p0,610.4586666666668,382.772, 0), v100, z5, tool0;
	MoveL Offs(p0,612.4791666666666,379.25, 0), v100, z5, tool0;
	MoveL Offs(p0,614.4746666666666,375.388, 0), v100, z5, tool0;
	MoveL Offs(p0,616.4181666666667,371.234, 0), v100, z5, tool0;
	MoveL Offs(p0,618.2826666666666,366.836, 0), v100, z5, tool0;
	MoveL Offs(p0,620.0411666666668,362.242, 0), v100, z5, tool0;
	MoveL Offs(p0,621.6666666666666,357.5, 0), v100, z5, tool0;
	MoveL Offs(p0,626.4571666666668,343.93416666666667, 0), v100, z5, tool0;
	MoveL Offs(p0,632.0106666666669,331.3533333333334, 0), v100, z5, tool0;
	MoveL Offs(p0,638.3001666666667,319.78249999999997, 0), v100, z5, tool0;
	MoveL Offs(p0,645.2986666666667,309.2466666666667, 0), v100, z5, tool0;
	MoveL Offs(p0,652.9791666666666,299.7708333333333, 0), v100, z5, tool0;
	MoveL Offs(p0,661.3146666666667,291.38, 0), v100, z5, tool0;
	MoveL Offs(p0,670.2781666666666,284.09916666666663, 0), v100, z5, tool0;
	MoveL Offs(p0,679.8426666666667,277.9533333333334, 0), v100, z5, tool0;
	MoveL Offs(p0,689.9811666666668,272.9675, 0), v100, z5, tool0;
	MoveL Offs(p0,700.6666666666666,269.1666666666667, 0), v100, z5, tool0;
	MoveL Offs(p0,705.2563333333334,268.08, 0), v100, z5, tool0;
	MoveL Offs(p0,710.504,267.31333333333345, 0), v100, z5, tool0;
	MoveL Offs(p0,716.2276666666667,266.8566666666666, 0), v100, z5, tool0;
	MoveL Offs(p0,722.2453333333333,266.7, 0), v100, z5, tool0;
	MoveL Offs(p0,728.375,266.8333333333333, 0), v100, z5, tool0;
	MoveL Offs(p0,734.4346666666667,267.2466666666667, 0), v100, z5, tool0;
	MoveL Offs(p0,740.2423333333332,267.93, 0), v100, z5, tool0;
	MoveL Offs(p0,745.616,268.8733333333334, 0), v100, z5, tool0;
	MoveL Offs(p0,750.3736666666667,270.06666666666666, 0), v100, z5, tool0;
	MoveL Offs(p0,754.3333333333334,271.5, 0), v100, z5, tool0;
	MoveL Offs(p0,757.3428333333335,272.9696666666667, 0), v100, z5, tool0;
	MoveL Offs(p0,760.3493333333336,274.7573333333334, 0), v100, z5, tool0;
	MoveL Offs(p0,763.3198333333333,276.83099999999996, 0), v100, z5, tool0;
	MoveL Offs(p0,766.2213333333334,279.1586666666667, 0), v100, z5, tool0;
	MoveL Offs(p0,769.0208333333334,281.7083333333333, 0), v100, z5, tool0;
	MoveL Offs(p0,771.6853333333333,284.44800000000004, 0), v100, z5, tool0;
	MoveL Offs(p0,774.1818333333334,287.34566666666666, 0), v100, z5, tool0;
	MoveL Offs(p0,776.4773333333334,290.3693333333334, 0), v100, z5, tool0;
	MoveL Offs(p0,778.5388333333334,293.487, 0), v100, z5, tool0;
	MoveL Offs(p0,780.3333333333334,296.6666666666667, 0), v100, z5, tool0;
	MoveL Offs(p0,781.8583333333335,300.211, 0), v100, z5, tool0;
	MoveL Offs(p0,783.0333333333336,304.18133333333344, 0), v100, z5, tool0;
	MoveL Offs(p0,783.8583333333332,308.48366666666664, 0), v100, z5, tool0;
	MoveL Offs(p0,784.3333333333334,313.024, 0), v100, z5, tool0;
	MoveL Offs(p0,784.4583333333334,317.7083333333333, 0), v100, z5, tool0;
	MoveL Offs(p0,784.2333333333332,322.44266666666664, 0), v100, z5, tool0;
	MoveL Offs(p0,783.6583333333333,327.133, 0), v100, z5, tool0;
	MoveL Offs(p0,782.7333333333332,331.68533333333335, 0), v100, z5, tool0;
	MoveL Offs(p0,781.4583333333334,336.0056666666667, 0), v100, z5, tool0;
	MoveL Offs(p0,779.8333333333334,340.0, 0), v100, z5, tool0;
	MoveL Offs(p0,776.6773333333334,345.90766666666667, 0), v100, z5, tool0;
	MoveL Offs(p0,772.8453333333335,351.60133333333346, 0), v100, z5, tool0;
	MoveL Offs(p0,768.3913333333331,357.037, 0), v100, z5, tool0;
	MoveL Offs(p0,763.3693333333334,362.17066666666665, 0), v100, z5, tool0;
	MoveL Offs(p0,757.8333333333334,366.9583333333333, 0), v100, z5, tool0;
	MoveL Offs(p0,751.8373333333334,371.356, 0), v100, z5, tool0;
	MoveL Offs(p0,745.4353333333332,375.3196666666667, 0), v100, z5, tool0;
	MoveL Offs(p0,738.6813333333333,378.8053333333334, 0), v100, z5, tool0;
	MoveL Offs(p0,731.6293333333333,381.769, 0), v100, z5, tool0;
	MoveL Offs(p0,724.3333333333334,384.1666666666667, 0), v100, z5, tool0;
	MoveL Offs(p0,718.0968333333334,385.60850000000005, 0), v100, z5, tool0;
	MoveL Offs(p0,711.4613333333335,386.46133333333347, 0), v100, z5, tool0;
	MoveL Offs(p0,704.6878333333334,386.7661666666667, 0), v100, z5, tool0;
	MoveL Offs(p0,698.0373333333335,386.564, 0), v100, z5, tool0;
	MoveL Offs(p0,691.7708333333334,385.8958333333333, 0), v100, z5, tool0;
	MoveL Offs(p0,686.1493333333334,384.80266666666665, 0), v100, z5, tool0;
	MoveL Offs(p0,681.4338333333334,383.3255, 0), v100, z5, tool0;
	MoveL Offs(p0,677.8853333333334,381.50533333333334, 0), v100, z5, tool0;
	MoveL Offs(p0,675.7648333333333,379.3831666666667, 0), v100, z5, tool0;
	MoveL Offs(p0,675.3333333333334,377.0, 0), v100, z5, tool0;
	MoveL Offs(p0,678.4853333333334,374.6693333333333, 0), v100, z5, tool0;
	MoveL Offs(p0,680.1458333333334,374.4791666666667, 0), v100, z5, tool0;
	MoveL Offs(p0,682.2213333333333,374.444, 0), v100, z5, tool0;
	MoveL Offs(p0,684.7448333333333,374.56283333333334, 0), v100, z5, tool0;
	MoveL Offs(p0,687.7493333333333,374.83466666666664, 0), v100, z5, tool0;
	MoveL Offs(p0,691.2678333333333,375.2585000000001, 0), v100, z5, tool0;
	MoveL Offs(p0,695.3333333333334,375.8333333333333, 0), v100, z5, tool0;
	MoveL Offs(p0,699.8521666666667,376.1891666666667, 0), v100, z5, tool0;
	MoveL Offs(p0,704.7440000000003,375.9800000000001, 0), v100, z5, tool0;
	MoveL Offs(p0,709.9118333333332,375.24083333333334, 0), v100, z5, tool0;
	MoveL Offs(p0,715.2586666666667,374.00666666666666, 0), v100, z5, tool0;
	MoveL Offs(p0,720.6875,372.3125, 0), v100, z5, tool0;
	MoveL Offs(p0,726.1013333333334,370.1933333333333, 0), v100, z5, tool0;
	MoveL Offs(p0,731.4031666666666,367.68416666666667, 0), v100, z5, tool0;
	MoveL Offs(p0,736.4960000000001,364.82, 0), v100, z5, tool0;
	MoveL Offs(p0,741.2828333333333,361.6358333333333, 0), v100, z5, tool0;
	MoveL Offs(p0,745.6666666666666,358.1666666666667, 0), v100, z5, tool0;
	MoveL Offs(p0,748.3276666666667,355.6525, 0), v100, z5, tool0;
	MoveL Offs(p0,750.8946666666669,352.93333333333345, 0), v100, z5, tool0;
	MoveL Offs(p0,753.3436666666666,350.0441666666666, 0), v100, z5, tool0;
	MoveL Offs(p0,755.6506666666668,347.02000000000004, 0), v100, z5, tool0;
	MoveL Offs(p0,757.7916666666666,343.8958333333333, 0), v100, z5, tool0;
	MoveL Offs(p0,759.7426666666667,340.70666666666665, 0), v100, z5, tool0;
	MoveL Offs(p0,761.4796666666666,337.4875, 0), v100, z5, tool0;
	MoveL Offs(p0,762.9786666666668,334.27333333333337, 0), v100, z5, tool0;
	MoveL Offs(p0,764.2156666666666,331.0991666666667, 0), v100, z5, tool0;
	MoveL Offs(p0,765.1666666666666,328.0, 0), v100, z5, tool0;
	MoveL Offs(p0,766.1563333333335,318.9740000000001, 0), v100, z5, tool0;
	MoveL Offs(p0,764.3640000000001,310.7120000000001, 0), v100, z5, tool0;
	MoveL Offs(p0,760.1476666666666,303.38800000000003, 0), v100, z5, tool0;
	MoveL Offs(p0,753.8653333333333,297.176, 0), v100, z5, tool0;
	MoveL Offs(p0,745.875,292.25, 0), v100, z5, tool0;
	MoveL Offs(p0,736.5346666666666,288.78399999999993, 0), v100, z5, tool0;
	MoveL Offs(p0,726.2023333333333,286.952, 0), v100, z5, tool0;
	MoveL Offs(p0,715.236,286.92800000000005, 0), v100, z5, tool0;
	MoveL Offs(p0,703.9936666666667,288.886, 0), v100, z5, tool0;
	MoveL Offs(p0,692.8333333333334,293.0, 0), v100, z5, tool0;
	MoveL Offs(p0,686.0861666666668,296.5653333333334, 0), v100, z5, tool0;
	MoveL Offs(p0,679.8160000000003,300.80266666666677, 0), v100, z5, tool0;
	MoveL Offs(p0,673.9798333333333,305.774, 0), v100, z5, tool0;
	MoveL Offs(p0,668.5346666666668,311.54133333333334, 0), v100, z5, tool0;
	MoveL Offs(p0,663.4375,318.1666666666667, 0), v100, z5, tool0;
	MoveL Offs(p0,658.6453333333333,325.71200000000005, 0), v100, z5, tool0;
	MoveL Offs(p0,654.1151666666666,334.2393333333334, 0), v100, z5, tool0;
	MoveL Offs(p0,649.8040000000001,343.8106666666667, 0), v100, z5, tool0;
	MoveL Offs(p0,645.6688333333334,354.488, 0), v100, z5, tool0;
	MoveL Offs(p0,641.6666666666666,366.3333333333333, 0), v100, z5, tool0;
	MoveL Offs(p0,640.2720000000002,370.5626666666667, 0), v100, z5, tool0;
	MoveL Offs(p0,638.8893333333335,374.54800000000006, 0), v100, z5, tool0;
	MoveL Offs(p0,637.5206666666667,378.28533333333326, 0), v100, z5, tool0;
	MoveL Offs(p0,636.168,381.7706666666667, 0), v100, z5, tool0;
	MoveL Offs(p0,634.8333333333334,385.0, 0), v100, z5, tool0;
	MoveL Offs(p0,633.5186666666667,387.9693333333333, 0), v100, z5, tool0;
	MoveL Offs(p0,632.226,390.6746666666666, 0), v100, z5, tool0;
	MoveL Offs(p0,630.9573333333334,393.1120000000001, 0), v100, z5, tool0;
	MoveL Offs(p0,629.7146666666666,395.2773333333333, 0), v100, z5, tool0;
	MoveL Offs(p0,628.5,397.1666666666667, 0), v100, z5, tool0;
	MoveL Offs(p0,626.3020000000001,400.07700000000006, 0), v100, z5, tool0;
	MoveL Offs(p0,623.8360000000001,402.88933333333347, 0), v100, z5, tool0;
	MoveL Offs(p0,621.144,405.5756666666666, 0), v100, z5, tool0;
	MoveL Offs(p0,618.2679999999999,408.108, 0), v100, z5, tool0;
	MoveL Offs(p0,615.25,410.4583333333333, 0), v100, z5, tool0;
	MoveL Offs(p0,612.132,412.5986666666667, 0), v100, z5, tool0;
	MoveL Offs(p0,608.956,414.501, 0), v100, z5, tool0;
	MoveL Offs(p0,605.764,416.1373333333334, 0), v100, z5, tool0;
	MoveL Offs(p0,602.5980000000001,417.4796666666667, 0), v100, z5, tool0;
	MoveL Offs(p0,599.5,418.5, 0), v100, z5, tool0;
	MoveL Offs(p0,597.0245000000001,419.0208333333333, 0), v100, z5, tool0;
	MoveL Offs(p0,593.9960000000001,419.3866666666668, 0), v100, z5, tool0;
	MoveL Offs(p0,590.5615,419.60249999999996, 0), v100, z5, tool0;
	MoveL Offs(p0,586.868,419.67333333333335, 0), v100, z5, tool0;
	MoveL Offs(p0,583.0625,419.6041666666667, 0), v100, z5, tool0;
	MoveL Offs(p0,579.292,419.40000000000003, 0), v100, z5, tool0;
	MoveL Offs(p0,575.7035,419.06583333333333, 0), v100, z5, tool0;
	MoveL Offs(p0,572.4440000000001,418.60666666666674, 0), v100, z5, tool0;
	MoveL Offs(p0,569.6605000000001,418.0275, 0), v100, z5, tool0;
	MoveL Offs(p0,567.5,417.3333333333333, 0), v100, z5, tool0;
	MoveL Offs(p0,565.2760000000001,416.63733333333334, 0), v100, z5, tool0;
	MoveL Offs(p0,565.125,416.7083333333333, 0), v100, z5, tool0;
	MoveL Offs(p0,565.1239999999999,416.88933333333335, 0), v100, z5, tool0;
	MoveL Offs(p0,565.2669999999999,417.1863333333333, 0), v100, z5, tool0;
	MoveL Offs(p0,569.3311666666667,421.13516666666675, 0), v100, z5, tool0;
	MoveL Offs(p0,573.8293333333335,423.30800000000016, 0), v100, z5, tool0;
	MoveL Offs(p0,579.7015,425.30283333333335, 0), v100, z5, tool0;
	MoveL Offs(p0,586.6546666666667,427.07066666666674, 0), v100, z5, tool0;
	MoveL Offs(p0,594.3958333333334,428.5625, 0), v100, z5, tool0;
	MoveL Offs(p0,602.632,429.7293333333334, 0), v100, z5, tool0;
	MoveL Offs(p0,611.0701666666666,430.5221666666667, 0), v100, z5, tool0;
	MoveL Offs(p0,619.4173333333334,430.89200000000005, 0), v100, z5, tool0;
	MoveL Offs(p0,627.3805,430.7898333333333, 0), v100, z5, tool0;
	MoveL Offs(p0,634.6666666666666,430.1666666666667, 0), v100, z5, tool0;
	MoveL Offs(p0,640.2603333333334,429.4946666666668, 0), v100, z5, tool0;
	MoveL Offs(p0,644.8360000000001,428.9906666666668, 0), v100, z5, tool0;
	MoveL Offs(p0,648.5356666666667,428.67266666666666, 0), v100, z5, tool0;
	MoveL Offs(p0,651.5013333333335,428.55866666666674, 0), v100, z5, tool0;
	MoveL Offs(p0,653.875,428.6666666666667, 0), v100, z5, tool0;
	MoveL Offs(p0,655.7986666666667,429.01466666666664, 0), v100, z5, tool0;
	MoveL Offs(p0,657.4143333333333,429.6206666666667, 0), v100, z5, tool0;
	MoveL Offs(p0,658.864,430.50266666666676, 0), v100, z5, tool0;
	MoveL Offs(p0,660.2896666666667,431.6786666666667, 0), v100, z5, tool0;
	MoveL Offs(p0,661.8333333333334,433.1666666666667, 0), v100, z5, tool0;
	MoveL Offs(p0,663.8780000000002,435.4553333333334, 0), v100, z5, tool0;
	MoveL Offs(p0,665.4106666666669,437.7360000000001, 0), v100, z5, tool0;
	MoveL Offs(p0,666.4293333333334,440.0306666666666, 0), v100, z5, tool0;
	MoveL Offs(p0,666.932,442.36133333333333, 0), v100, z5, tool0;
	MoveL Offs(p0,666.9166666666666,444.75, 0), v100, z5, tool0;
