MoveJ Offs(p0,1630.0,4668.0, 10), v30, z1, tool0;
MoveL Offs(p0,1630.0,4668.0, 0), v30, z5, tool0;
MoveL Offs(p0,1630.262,4663.553000000001, 0), v30, z5, tool0;
MoveL Offs(p0,1631.0160000000005,4658.104000000001, 0), v30, z5, tool0;
MoveL Offs(p0,1632.2140000000004,4651.791, 0), v30, z5, tool0;
MoveL Offs(p0,1633.808,4644.752, 0), v30, z5, tool0;
MoveL Offs(p0,1635.75,4637.125, 0), v30, z5, tool0;
MoveL Offs(p0,1637.992,4629.048, 0), v30, z5, tool0;
MoveL Offs(p0,1640.4859999999999,4620.659, 0), v30, z5, tool0;
MoveL Offs(p0,1643.1840000000002,4612.0960000000005, 0), v30, z5, tool0;
MoveL Offs(p0,1646.038,4603.497, 0), v30, z5, tool0;
MoveL Offs(p0,1649.0,4595.0, 0), v30, z5, tool0;
MoveL Offs(p0,1649.0,4595.0, 0), v30, z5, tool0;
MoveL Offs(p0,1658.568,4564.537, 0), v30, z5, tool0;
MoveL Offs(p0,1669.5040000000004,4521.9360000000015, 0), v30, z5, tool0;
MoveL Offs(p0,1681.256,4470.178999999999, 0), v30, z5, tool0;
MoveL Offs(p0,1693.2720000000002,4412.2480000000005, 0), v30, z5, tool0;
MoveL Offs(p0,1705.0,4351.125, 0), v30, z5, tool0;
MoveL Offs(p0,1715.888,4289.7919999999995, 0), v30, z5, tool0;
MoveL Offs(p0,1725.384,4231.231, 0), v30, z5, tool0;
MoveL Offs(p0,1732.9360000000001,4178.424000000001, 0), v30, z5, tool0;
MoveL Offs(p0,1737.9920000000002,4134.353, 0), v30, z5, tool0;
MoveL Offs(p0,1740.0,4102.0, 0), v30, z5, tool0;
MoveL Offs(p0,1740.0,4078.0, 0), v30, z5, tool0;
MoveL Offs(p0,1694.0,4104.0, 0), v30, z5, tool0;
MoveL Offs(p0,1694.0,4104.0, 0), v30, z5, tool0;
MoveL Offs(p0,1678.938,4111.949, 0), v30, z5, tool0;
MoveL Offs(p0,1664.9440000000006,4118.392000000001, 0), v30, z5, tool0;
MoveL Offs(p0,1652.0059999999999,4123.323, 0), v30, z5, tool0;
MoveL Offs(p0,1640.112,4126.736, 0), v30, z5, tool0;
MoveL Offs(p0,1629.25,4128.625, 0), v30, z5, tool0;
MoveL Offs(p0,1619.408,4128.9839999999995, 0), v30, z5, tool0;
MoveL Offs(p0,1610.5739999999998,4127.807, 0), v30, z5, tool0;
MoveL Offs(p0,1602.736,4125.088000000001, 0), v30, z5, tool0;
MoveL Offs(p0,1595.882,4120.821, 0), v30, z5, tool0;
MoveL Offs(p0,1590.0,4115.0, 0), v30, z5, tool0;
MoveL Offs(p0,1590.0,4115.0, 0), v30, z5, tool0;
MoveL Offs(p0,1587.6520000000003,4111.2570000000005, 0), v30, z5, tool0;
MoveL Offs(p0,1586.6960000000004,4106.416000000001, 0), v30, z5, tool0;
MoveL Offs(p0,1587.264,4100.159000000001, 0), v30, z5, tool0;
MoveL Offs(p0,1589.488,4092.168, 0), v30, z5, tool0;
MoveL Offs(p0,1593.5,4082.125, 0), v30, z5, tool0;
MoveL Offs(p0,1599.4319999999998,4069.712, 0), v30, z5, tool0;
MoveL Offs(p0,1607.416,4054.611, 0), v30, z5, tool0;
MoveL Offs(p0,1617.5840000000003,4036.5040000000004, 0), v30, z5, tool0;
MoveL Offs(p0,1630.0680000000002,4015.0730000000003, 0), v30, z5, tool0;
MoveL Offs(p0,1645.0,3990.0, 0), v30, z5, tool0;
MoveL Offs(p0,1645.0,3990.0, 0), v30, z5, tool0;
MoveL Offs(p0,1668.8540000000003,3949.5990000000006, 0), v30, z5, tool0;
MoveL Offs(p0,1693.1520000000003,3907.272000000001, 0), v30, z5, tool0;
MoveL Offs(p0,1717.198,3864.333, 0), v30, z5, tool0;
MoveL Offs(p0,1740.296,3822.0960000000005, 0), v30, z5, tool0;
MoveL Offs(p0,1761.75,3781.875, 0), v30, z5, tool0;
MoveL Offs(p0,1780.8639999999998,3744.9839999999995, 0), v30, z5, tool0;
MoveL Offs(p0,1796.942,3712.737, 0), v30, z5, tool0;
MoveL Offs(p0,1809.288,3686.4480000000003, 0), v30, z5, tool0;
MoveL Offs(p0,1817.2060000000001,3667.4310000000005, 0), v30, z5, tool0;
MoveL Offs(p0,1820.0,3657.0, 0), v30, z5, tool0;
MoveL Offs(p0,1820.0,3657.0, 0), v30, z5, tool0;
MoveL Offs(p0,1818.9200000000003,3653.2910000000006, 0), v30, z5, tool0;
MoveL Offs(p0,1815.9200000000005,3648.9280000000012, 0), v30, z5, tool0;
MoveL Offs(p0,1811.36,3644.1569999999997, 0), v30, z5, tool0;
MoveL Offs(p0,1805.6000000000001,3639.224, 0), v30, z5, tool0;
MoveL Offs(p0,1799.0,3634.375, 0), v30, z5, tool0;
MoveL Offs(p0,1791.9199999999998,3629.856, 0), v30, z5, tool0;
MoveL Offs(p0,1784.7199999999998,3625.913, 0), v30, z5, tool0;
MoveL Offs(p0,1777.7600000000002,3622.7920000000004, 0), v30, z5, tool0;
MoveL Offs(p0,1771.4,3620.7390000000005, 0), v30, z5, tool0;
MoveL Offs(p0,1766.0,3620.0, 0), v30, z5, tool0;
MoveL Offs(p0,1766.0,3620.0, 0), v30, z5, tool0;
MoveL Offs(p0,1764.9710000000002,3621.1990000000005, 0), v30, z5, tool0;
MoveL Offs(p0,1762.5680000000004,3624.672000000001, 0), v30, z5, tool0;
MoveL Offs(p0,1758.917,3630.233, 0), v30, z5, tool0;
MoveL Offs(p0,1754.1440000000002,3637.696000000001, 0), v30, z5, tool0;
MoveL Offs(p0,1748.375,3646.875, 0), v30, z5, tool0;
MoveL Offs(p0,1741.736,3657.584, 0), v30, z5, tool0;
MoveL Offs(p0,1734.3529999999998,3669.6369999999997, 0), v30, z5, tool0;
MoveL Offs(p0,1726.3520000000003,3682.8480000000004, 0), v30, z5, tool0;
MoveL Offs(p0,1717.859,3697.031, 0), v30, z5, tool0;
MoveL Offs(p0,1709.0,3712.0, 0), v30, z5, tool0;
MoveL Offs(p0,1709.0,3712.0, 0), v30, z5, tool0;
MoveL Offs(p0,1699.3810000000003,3727.5730000000003, 0), v30, z5, tool0;
MoveL Offs(p0,1688.6880000000003,3744.064000000001, 0), v30, z5, tool0;
MoveL Offs(p0,1677.167,3761.131, 0), v30, z5, tool0;
MoveL Offs(p0,1665.064,3778.4320000000002, 0), v30, z5, tool0;
MoveL Offs(p0,1652.625,3795.625, 0), v30, z5, tool0;
MoveL Offs(p0,1640.096,3812.3679999999995, 0), v30, z5, tool0;
MoveL Offs(p0,1627.723,3828.3190000000004, 0), v30, z5, tool0;
MoveL Offs(p0,1615.7520000000002,3843.1360000000004, 0), v30, z5, tool0;
MoveL Offs(p0,1604.429,3856.4770000000003, 0), v30, z5, tool0;
MoveL Offs(p0,1594.0,3868.0, 0), v30, z5, tool0;
MoveL Offs(p0,1594.0,3868.0, 0), v30, z5, tool0;
MoveL Offs(p0,1578.6070000000002,3884.0900000000006, 0), v30, z5, tool0;
MoveL Offs(p0,1565.7760000000003,3897.1200000000013, 0), v30, z5, tool0;
MoveL Offs(p0,1555.129,3907.33, 0), v30, z5, tool0;
MoveL Offs(p0,1546.2880000000002,3914.9600000000005, 0), v30, z5, tool0;
MoveL Offs(p0,1538.875,3920.25, 0), v30, z5, tool0;
MoveL Offs(p0,1532.512,3923.4399999999996, 0), v30, z5, tool0;
MoveL Offs(p0,1526.821,3924.77, 0), v30, z5, tool0;
MoveL Offs(p0,1521.424,3924.4800000000005, 0), v30, z5, tool0;
MoveL Offs(p0,1515.9430000000002,3922.81, 0), v30, z5, tool0;
MoveL Offs(p0,1510.0,3920.0, 0), v30, z5, tool0;
MoveL Offs(p0,1510.0,3920.0, 0), v30, z5, tool0;
MoveL Offs(p0,1504.7720000000002,3917.0280000000002, 0), v30, z5, tool0;
MoveL Offs(p0,1500.4560000000004,3913.984000000001, 0), v30, z5, tool0;
MoveL Offs(p0,1497.0039999999997,3910.676, 0), v30, z5, tool0;
MoveL Offs(p0,1494.368,3906.9120000000003, 0), v30, z5, tool0;
MoveL Offs(p0,1492.5,3902.5, 0), v30, z5, tool0;
MoveL Offs(p0,1491.3520000000003,3897.248, 0), v30, z5, tool0;
MoveL Offs(p0,1490.876,3890.964, 0), v30, z5, tool0;
MoveL Offs(p0,1491.0240000000001,3883.456, 0), v30, z5, tool0;
MoveL Offs(p0,1491.748,3874.532, 0), v30, z5, tool0;
MoveL Offs(p0,1493.0,3864.0, 0), v30, z5, tool0;
MoveL Offs(p0,1493.0,3864.0, 0), v30, z5, tool0;
MoveL Offs(p0,1494.3060000000003,3852.063, 0), v30, z5, tool0;
MoveL Offs(p0,1495.1680000000003,3842.5440000000012, 0), v30, z5, tool0;
MoveL Offs(p0,1495.502,3835.281, 0), v30, z5, tool0;
MoveL Offs(p0,1495.224,3830.112, 0), v30, z5, tool0;
MoveL Offs(p0,1494.25,3826.875, 0), v30, z5, tool0;
MoveL Offs(p0,1492.496,3825.4079999999994, 0), v30, z5, tool0;
MoveL Offs(p0,1489.8780000000002,3825.549, 0), v30, z5, tool0;
MoveL Offs(p0,1486.3120000000001,3827.1360000000004, 0), v30, z5, tool0;
MoveL Offs(p0,1481.714,3830.007, 0), v30, z5, tool0;
MoveL Offs(p0,1476.0,3834.0, 0), v30, z5, tool0;
MoveL Offs(p0,1476.0,3834.0, 0), v30, z5, tool0;
MoveL Offs(p0,1452.276,3850.4270000000006, 0), v30, z5, tool0;
MoveL Offs(p0,1425.0480000000005,3868.0960000000014, 0), v30, z5, tool0;
MoveL Offs(p0,1395.432,3886.3889999999997, 0), v30, z5, tool0;
MoveL Offs(p0,1364.544,3904.6880000000006, 0), v30, z5, tool0;
MoveL Offs(p0,1333.5,3922.375, 0), v30, z5, tool0;
MoveL Offs(p0,1303.416,3938.8319999999994, 0), v30, z5, tool0;
MoveL Offs(p0,1275.408,3953.441, 0), v30, z5, tool0;
MoveL Offs(p0,1250.592,3965.5840000000003, 0), v30, z5, tool0;
MoveL Offs(p0,1230.084,3974.643, 0), v30, z5, tool0;
MoveL Offs(p0,1215.0,3980.0, 0), v30, z5, tool0;
MoveL Offs(p0,1215.0,3980.0, 0), v30, z5, tool0;
MoveL Offs(p0,1203.9220000000003,3982.9670000000006, 0), v30, z5, tool0;
MoveL Offs(p0,1194.5360000000003,3985.2560000000008, 0), v30, z5, tool0;
MoveL Offs(p0,1186.614,3986.8489999999993, 0), v30, z5, tool0;
MoveL Offs(p0,1179.9279999999999,3987.728000000001, 0), v30, z5, tool0;
MoveL Offs(p0,1174.25,3987.875, 0), v30, z5, tool0;
MoveL Offs(p0,1169.3519999999999,3987.272, 0), v30, z5, tool0;
MoveL Offs(p0,1165.006,3985.901, 0), v30, z5, tool0;
MoveL Offs(p0,1160.984,3983.7440000000006, 0), v30, z5, tool0;
MoveL Offs(p0,1157.058,3980.783, 0), v30, z5, tool0;
MoveL Offs(p0,1153.0,3977.0, 0), v30, z5, tool0;
MoveL Offs(p0,1153.0,3977.0, 0), v30, z5, tool0;
MoveL Offs(p0,1148.0490000000002,3972.2830000000004, 0), v30, z5, tool0;
MoveL Offs(p0,1144.7120000000004,3967.9440000000013, 0), v30, z5, tool0;
MoveL Offs(p0,1144.063,3962.5009999999997, 0), v30, z5, tool0;
MoveL Offs(p0,1147.176,3954.472, 0), v30, z5, tool0;
MoveL Offs(p0,1155.125,3942.375, 0), v30, z5, tool0;
MoveL Offs(p0,1168.9840000000002,3924.728, 0), v30, z5, tool0;
MoveL Offs(p0,1189.827,3900.049, 0), v30, z5, tool0;
MoveL Offs(p0,1218.728,3866.8560000000007, 0), v30, z5, tool0;
MoveL Offs(p0,1256.761,3823.6670000000004, 0), v30, z5, tool0;
MoveL Offs(p0,1305.0,3769.0, 0), v30, z5, tool0;
MoveL Offs(p0,1414.0,3645.0, 0), v30, z5, tool0;
MoveL Offs(p0,1380.0,3640.0, 0), v30, z5, tool0;
MoveL Offs(p0,1380.0,3640.0, 0), v30, z5, tool0;
MoveL Offs(p0,1366.6540000000002,3637.148, 0), v30, z5, tool0;
MoveL Offs(p0,1356.0320000000004,3632.904000000001, 0), v30, z5, tool0;
MoveL Offs(p0,1348.1580000000001,3627.4359999999997, 0), v30, z5, tool0;
MoveL Offs(p0,1343.056,3620.9120000000003, 0), v30, z5, tool0;
MoveL Offs(p0,1340.75,3613.5, 0), v30, z5, tool0;
MoveL Offs(p0,1341.264,3605.368, 0), v30, z5, tool0;
MoveL Offs(p0,1344.6219999999998,3596.684, 0), v30, z5, tool0;
MoveL Offs(p0,1350.848,3587.6160000000004, 0), v30, z5, tool0;
MoveL Offs(p0,1359.9660000000001,3578.3320000000003, 0), v30, z5, tool0;
MoveL Offs(p0,1372.0,3569.0, 0), v30, z5, tool0;
MoveL Offs(p0,1372.0,3569.0, 0), v30, z5, tool0;
MoveL Offs(p0,1378.35,3564.6800000000003, 0), v30, z5, tool0;
MoveL Offs(p0,1386.4400000000005,3559.040000000001, 0), v30, z5, tool0;
MoveL Offs(p0,1396.03,3552.2599999999998, 0), v30, z5, tool0;
MoveL Offs(p0,1406.88,3544.5200000000004, 0), v30, z5, tool0;
MoveL Offs(p0,1418.75,3536.0, 0), v30, z5, tool0;
MoveL Offs(p0,1431.4,3526.88, 0), v30, z5, tool0;
MoveL Offs(p0,1444.5900000000001,3517.34, 0), v30, z5, tool0;
MoveL Offs(p0,1458.0800000000002,3507.5600000000004, 0), v30, z5, tool0;
MoveL Offs(p0,1471.63,3497.7200000000003, 0), v30, z5, tool0;
MoveL Offs(p0,1485.0,3488.0, 0), v30, z5, tool0;
MoveL Offs(p0,1566.0,3429.0, 0), v30, z5, tool0;
MoveL Offs(p0,1533.0,3362.0, 0), v30, z5, tool0;
MoveL Offs(p0,1533.0,3362.0, 0), v30, z5, tool0;
MoveL Offs(p0,1522.2450000000003,3338.9, 0), v30, z5, tool0;
MoveL Offs(p0,1512.2400000000005,3314.2400000000007, 0), v30, z5, tool0;
MoveL Offs(p0,1503.0749999999998,3288.38, 0), v30, z5, tool0;
MoveL Offs(p0,1494.84,3261.6800000000003, 0), v30, z5, tool0;
MoveL Offs(p0,1487.625,3234.5, 0), v30, z5, tool0;
MoveL Offs(p0,1481.52,3207.2000000000003, 0), v30, z5, tool0;
MoveL Offs(p0,1476.6149999999998,3180.1400000000003, 0), v30, z5, tool0;
MoveL Offs(p0,1473.0,3153.6800000000003, 0), v30, z5, tool0;
MoveL Offs(p0,1470.7649999999999,3128.1800000000003, 0), v30, z5, tool0;
MoveL Offs(p0,1470.0,3104.0, 0), v30, z5, tool0;
MoveL Offs(p0,1470.0,3104.0, 0), v30, z5, tool0;
MoveL Offs(p0,1469.894,3091.842, 0), v30, z5, tool0;
MoveL Offs(p0,1469.5120000000004,3081.6160000000004, 0), v30, z5, tool0;
MoveL Offs(p0,1468.758,3073.0939999999996, 0), v30, z5, tool0;
MoveL Offs(p0,1467.536,3066.0480000000002, 0), v30, z5, tool0;
MoveL Offs(p0,1465.75,3060.25, 0), v30, z5, tool0;
MoveL Offs(p0,1463.3039999999999,3055.4719999999998, 0), v30, z5, tool0;
MoveL Offs(p0,1460.1019999999999,3051.486, 0), v30, z5, tool0;
MoveL Offs(p0,1456.048,3048.0640000000003, 0), v30, z5, tool0;
MoveL Offs(p0,1451.046,3044.978, 0), v30, z5, tool0;
MoveL Offs(p0,1445.0,3042.0, 0), v30, z5, tool0;
MoveL Offs(p0,1445.0,3042.0, 0), v30, z5, tool0;
MoveL Offs(p0,1440.8700000000003,3040.0590000000007, 0), v30, z5, tool0;
MoveL Offs(p0,1436.9200000000003,3037.8720000000003, 0), v30, z5, tool0;
MoveL Offs(p0,1433.21,3035.4929999999995, 0), v30, z5, tool0;
MoveL Offs(p0,1429.8000000000002,3032.976, 0), v30, z5, tool0;
MoveL Offs(p0,1426.75,3030.375, 0), v30, z5, tool0;
MoveL Offs(p0,1424.1200000000001,3027.744, 0), v30, z5, tool0;
MoveL Offs(p0,1421.97,3025.1369999999997, 0), v30, z5, tool0;
MoveL Offs(p0,1420.3600000000001,3022.608, 0), v30, z5, tool0;
MoveL Offs(p0,1419.35,3020.2110000000002, 0), v30, z5, tool0;
MoveL Offs(p0,1419.0,3018.0, 0), v30, z5, tool0;
MoveL Offs(p0,1419.0,3018.0, 0), v30, z5, tool0;
MoveL Offs(p0,1418.672,3015.4680000000003, 0), v30, z5, tool0;
MoveL Offs(p0,1418.2960000000005,3012.1440000000007, 0), v30, z5, tool0;
MoveL Offs(p0,1417.8839999999998,3008.136, 0), v30, z5, tool0;
MoveL Offs(p0,1417.4479999999999,3003.552, 0), v30, z5, tool0;
MoveL Offs(p0,1417.0,2998.5, 0), v30, z5, tool0;
MoveL Offs(p0,1416.552,2993.088, 0), v30, z5, tool0;
MoveL Offs(p0,1416.116,2987.424, 0), v30, z5, tool0;
MoveL Offs(p0,1415.7040000000002,2981.616, 0), v30, z5, tool0;
MoveL Offs(p0,1415.328,2975.772, 0), v30, z5, tool0;
MoveL Offs(p0,1415.0,2970.0, 0), v30, z5, tool0;
MoveL Offs(p0,1415.0,2970.0, 0), v30, z5, tool0;
MoveL Offs(p0,1413.9920000000002,2963.2329999999997, 0), v30, z5, tool0;
MoveL Offs(p0,1412.2160000000003,2954.504000000001, 0), v30, z5, tool0;
MoveL Offs(p0,1409.744,2944.071, 0), v30, z5, tool0;
MoveL Offs(p0,1406.6480000000001,2932.192, 0), v30, z5, tool0;
MoveL Offs(p0,1403.0,2919.125, 0), v30, z5, tool0;
MoveL Offs(p0,1398.8719999999998,2905.1279999999997, 0), v30, z5, tool0;
MoveL Offs(p0,1394.336,2890.459, 0), v30, z5, tool0;
MoveL Offs(p0,1389.464,2875.376, 0), v30, z5, tool0;
MoveL Offs(p0,1384.328,2860.1369999999997, 0), v30, z5, tool0;
MoveL Offs(p0,1379.0,2845.0, 0), v30, z5, tool0;
MoveL Offs(p0,1379.0,2845.0, 0), v30, z5, tool0;
MoveL Offs(p0,1370.7820000000004,2821.8640000000005, 0), v30, z5, tool0;
MoveL Offs(p0,1364.0160000000005,2801.5120000000006, 0), v30, z5, tool0;
MoveL Offs(p0,1358.5339999999999,2782.8279999999995, 0), v30, z5, tool0;
MoveL Offs(p0,1354.1680000000001,2764.696, 0), v30, z5, tool0;
MoveL Offs(p0,1350.75,2746.0, 0), v30, z5, tool0;
MoveL Offs(p0,1348.1119999999999,2725.624, 0), v30, z5, tool0;
MoveL Offs(p0,1346.086,2702.452, 0), v30, z5, tool0;
MoveL Offs(p0,1344.5040000000001,2675.368, 0), v30, z5, tool0;
MoveL Offs(p0,1343.198,2643.2560000000003, 0), v30, z5, tool0;
MoveL Offs(p0,1342.0,2605.0, 0), v30, z5, tool0;
MoveL Offs(p0,1342.0,2605.0, 0), v30, z5, tool0;
MoveL Offs(p0,1341.1690000000003,2564.514, 0), v30, z5, tool0;
MoveL Offs(p0,1341.1120000000003,2527.832000000001, 0), v30, z5, tool0;
MoveL Offs(p0,1341.8829999999998,2494.318, 0), v30, z5, tool0;
MoveL Offs(p0,1343.536,2463.3360000000002, 0), v30, z5, tool0;
MoveL Offs(p0,1346.125,2434.25, 0), v30, z5, tool0;
MoveL Offs(p0,1349.704,2406.424, 0), v30, z5, tool0;
MoveL Offs(p0,1354.327,2379.2219999999998, 0), v30, z5, tool0;
MoveL Offs(p0,1360.0480000000002,2352.008, 0), v30, z5, tool0;
MoveL Offs(p0,1366.921,2324.146, 0), v30, z5, tool0;
MoveL Offs(p0,1375.0,2295.0, 0), v30, z5, tool0;
MoveL Offs(p0,1375.0,2295.0, 0), v30, z5, tool0;
MoveL Offs(p0,1376.0310000000002,2289.57, 0), v30, z5, tool0;
MoveL Offs(p0,1375.0880000000002,2284.4400000000005, 0), v30, z5, tool0;
MoveL Offs(p0,1371.5169999999998,2279.25, 0), v30, z5, tool0;
MoveL Offs(p0,1364.6640000000002,2273.64, 0), v30, z5, tool0;
MoveL Offs(p0,1353.875,2267.25, 0), v30, z5, tool0;
MoveL Offs(p0,1338.496,2259.7200000000003, 0), v30, z5, tool0;
MoveL Offs(p0,1317.873,2250.69, 0), v30, z5, tool0;
MoveL Offs(p0,1291.3519999999999,2239.8, 0), v30, z5, tool0;
MoveL Offs(p0,1258.279,2226.69, 0), v30, z5, tool0;
MoveL Offs(p0,1218.0,2211.0, 0), v30, z5, tool0;
MoveL Offs(p0,1218.0,2211.0, 0), v30, z5, tool0;
MoveL Offs(p0,1150.5690000000002,2184.4700000000003, 0), v30, z5, tool0;
MoveL Offs(p0,1089.7920000000001,2160.040000000001, 0), v30, z5, tool0;
MoveL Offs(p0,1035.543,2137.65, 0), v30, z5, tool0;
MoveL Offs(p0,987.696,2117.2400000000002, 0), v30, z5, tool0;
MoveL Offs(p0,946.125,2098.75, 0), v30, z5, tool0;
MoveL Offs(p0,910.704,2082.12, 0), v30, z5, tool0;
MoveL Offs(p0,881.307,2067.29, 0), v30, z5, tool0;
MoveL Offs(p0,857.808,2054.2, 0), v30, z5, tool0;
MoveL Offs(p0,840.081,2042.79, 0), v30, z5, tool0;
MoveL Offs(p0,828.0,2033.0, 0), v30, z5, tool0;
MoveL Offs(p0,828.0,2033.0, 0), v30, z5, tool0;
MoveL Offs(p0,817.5000000000001,2021.4080000000004, 0), v30, z5, tool0;
MoveL Offs(p0,809.4000000000003,2009.5040000000006, 0), v30, z5, tool0;
MoveL Offs(p0,803.7,1997.3959999999997, 0), v30, z5, tool0;
MoveL Offs(p0,800.4000000000001,1985.1920000000002, 0), v30, z5, tool0;
MoveL Offs(p0,799.5,1973.0, 0), v30, z5, tool0;
MoveL Offs(p0,801.0,1960.9279999999999, 0), v30, z5, tool0;
MoveL Offs(p0,804.9000000000001,1949.0839999999998, 0), v30, z5, tool0;
MoveL Offs(p0,811.2,1937.576, 0), v30, z5, tool0;
MoveL Offs(p0,819.9000000000001,1926.5120000000002, 0), v30, z5, tool0;
MoveL Offs(p0,831.0,1916.0, 0), v30, z5, tool0;
MoveL Offs(p0,831.0,1916.0, 0), v30, z5, tool0;
MoveL Offs(p0,841.7610000000001,1907.5700000000004, 0), v30, z5, tool0;
MoveL Offs(p0,851.9280000000003,1900.8800000000003, 0), v30, z5, tool0;
MoveL Offs(p0,861.627,1895.93, 0), v30, z5, tool0;
MoveL Offs(p0,870.9839999999999,1892.72, 0), v30, z5, tool0;
MoveL Offs(p0,880.125,1891.25, 0), v30, z5, tool0;
MoveL Offs(p0,889.176,1891.52, 0), v30, z5, tool0;
MoveL Offs(p0,898.2629999999999,1893.53, 0), v30, z5, tool0;
MoveL Offs(p0,907.5120000000002,1897.2800000000002, 0), v30, z5, tool0;
MoveL Offs(p0,917.0490000000001,1902.77, 0), v30, z5, tool0;
MoveL Offs(p0,927.0,1910.0, 0), v30, z5, tool0;
MoveL Offs(p0,927.0,1910.0, 0), v30, z5, tool0;
MoveL Offs(p0,945.5320000000002,1920.3410000000001, 0), v30, z5, tool0;
MoveL Offs(p0,968.8160000000001,1926.8480000000002, 0), v30, z5, tool0;
MoveL Offs(p0,996.0839999999998,1929.647, 0), v30, z5, tool0;
MoveL Offs(p0,1026.5680000000002,1928.8640000000003, 0), v30, z5, tool0;
MoveL Offs(p0,1059.5,1924.625, 0), v30, z5, tool0;
MoveL Offs(p0,1094.112,1917.056, 0), v30, z5, tool0;
MoveL Offs(p0,1129.636,1906.283, 0), v30, z5, tool0;
MoveL Offs(p0,1165.304,1892.4320000000002, 0), v30, z5, tool0;
MoveL Offs(p0,1200.348,1875.629, 0), v30, z5, tool0;
MoveL Offs(p0,1234.0,1856.0, 0), v30, z5, tool0;
MoveL Offs(p0,1234.0,1856.0, 0), v30, z5, tool0;
MoveL Offs(p0,1251.5720000000001,1844.0070000000003, 0), v30, z5, tool0;
MoveL Offs(p0,1268.8560000000002,1830.8560000000004, 0), v30, z5, tool0;
MoveL Offs(p0,1285.8039999999999,1816.5890000000002, 0), v30, z5, tool0;
MoveL Offs(p0,1302.3680000000002,1801.248, 0), v30, z5, tool0;
MoveL Offs(p0,1318.5,1784.875, 0), v30, z5, tool0;
MoveL Offs(p0,1334.152,1767.5119999999997, 0), v30, z5, tool0;
MoveL Offs(p0,1349.2759999999998,1749.201, 0), v30, z5, tool0;
MoveL Offs(p0,1363.824,1729.9840000000002, 0), v30, z5, tool0;
MoveL Offs(p0,1377.748,1709.9030000000002, 0), v30, z5, tool0;
MoveL Offs(p0,1391.0,1689.0, 0), v30, z5, tool0;
MoveL Offs(p0,1391.0,1689.0, 0), v30, z5, tool0;
MoveL Offs(p0,1406.0220000000002,1667.5030000000004, 0), v30, z5, tool0;
MoveL Offs(p0,1422.1360000000002,1649.2640000000004, 0), v30, z5, tool0;
MoveL Offs(p0,1439.114,1634.361, 0), v30, z5, tool0;
MoveL Offs(p0,1456.728,1622.872, 0), v30, z5, tool0;
MoveL Offs(p0,1474.75,1614.875, 0), v30, z5, tool0;
MoveL Offs(p0,1492.952,1610.4479999999999, 0), v30, z5, tool0;
MoveL Offs(p0,1511.106,1609.6689999999999, 0), v30, z5, tool0;
MoveL Offs(p0,1528.9840000000002,1612.616, 0), v30, z5, tool0;
MoveL Offs(p0,1546.3580000000002,1619.3670000000002, 0), v30, z5, tool0;
MoveL Offs(p0,1563.0,1630.0, 0), v30, z5, tool0;
MoveL Offs(p0,1589.0,1651.0, 0), v30, z5, tool0;
MoveL Offs(p0,1614.0,1603.0, 0), v30, z5, tool0;
MoveL Offs(p0,1614.0,1603.0, 0), v30, z5, tool0;
MoveL Offs(p0,1618.4230000000002,1594.8710000000003, 0), v30, z5, tool0;
MoveL Offs(p0,1623.2240000000006,1586.2080000000008, 0), v30, z5, tool0;
MoveL Offs(p0,1628.3009999999997,1577.197, 0), v30, z5, tool0;
MoveL Offs(p0,1633.5520000000001,1568.0240000000001, 0), v30, z5, tool0;
MoveL Offs(p0,1638.875,1558.875, 0), v30, z5, tool0;
MoveL Offs(p0,1644.1680000000001,1549.936, 0), v30, z5, tool0;
MoveL Offs(p0,1649.329,1541.393, 0), v30, z5, tool0;
MoveL Offs(p0,1654.2560000000003,1533.4320000000002, 0), v30, z5, tool0;
MoveL Offs(p0,1658.8470000000002,1526.239, 0), v30, z5, tool0;
MoveL Offs(p0,1663.0,1520.0, 0), v30, z5, tool0;
MoveL Offs(p0,1663.0,1520.0, 0), v30, z5, tool0;
MoveL Offs(p0,1668.977,1511.1580000000001, 0), v30, z5, tool0;
MoveL Offs(p0,1673.7360000000006,1503.6240000000005, 0), v30, z5, tool0;
MoveL Offs(p0,1677.319,1497.0859999999998, 0), v30, z5, tool0;
MoveL Offs(p0,1679.7680000000003,1491.232, 0), v30, z5, tool0;
MoveL Offs(p0,1681.125,1485.75, 0), v30, z5, tool0;
MoveL Offs(p0,1681.432,1480.328, 0), v30, z5, tool0;
MoveL Offs(p0,1680.731,1474.654, 0), v30, z5, tool0;
MoveL Offs(p0,1679.0640000000003,1468.4160000000002, 0), v30, z5, tool0;
MoveL Offs(p0,1676.473,1461.3020000000001, 0), v30, z5, tool0;
MoveL Offs(p0,1673.0,1453.0, 0), v30, z5, tool0;
MoveL Offs(p0,1673.0,1453.0, 0), v30, z5, tool0;
MoveL Offs(p0,1666.9410000000003,1436.0990000000002, 0), v30, z5, tool0;
MoveL Offs(p0,1661.9680000000005,1417.3920000000003, 0), v30, z5, tool0;
MoveL Offs(p0,1658.087,1397.173, 0), v30, z5, tool0;
MoveL Offs(p0,1655.3039999999999,1375.736, 0), v30, z5, tool0;
MoveL Offs(p0,1653.625,1353.375, 0), v30, z5, tool0;
MoveL Offs(p0,1653.056,1330.384, 0), v30, z5, tool0;
MoveL Offs(p0,1653.603,1307.057, 0), v30, z5, tool0;
MoveL Offs(p0,1655.272,1283.688, 0), v30, z5, tool0;
MoveL Offs(p0,1658.0690000000002,1260.571, 0), v30, z5, tool0;
MoveL Offs(p0,1662.0,1238.0, 0), v30, z5, tool0;
MoveL Offs(p0,1676.0,1171.0, 0), v30, z5, tool0;
MoveL Offs(p0,1638.0,1133.0, 0), v30, z5, tool0;
MoveL Offs(p0,1638.0,1133.0, 0), v30, z5, tool0;
MoveL Offs(p0,1626.2649999999999,1120.2490000000003, 0), v30, z5, tool0;
MoveL Offs(p0,1613.6000000000006,1104.1920000000002, 0), v30, z5, tool0;
MoveL Offs(p0,1600.5149999999999,1085.723, 0), v30, z5, tool0;
MoveL Offs(p0,1587.52,1065.736, 0), v30, z5, tool0;
MoveL Offs(p0,1575.125,1045.125, 0), v30, z5, tool0;
MoveL Offs(p0,1563.84,1024.784, 0), v30, z5, tool0;
MoveL Offs(p0,1554.1750000000002,1005.607, 0), v30, z5, tool0;
MoveL Offs(p0,1546.64,988.488, 0), v30, z5, tool0;
MoveL Offs(p0,1541.745,974.321, 0), v30, z5, tool0;
MoveL Offs(p0,1540.0,964.0, 0), v30, z5, tool0;
MoveL Offs(p0,1540.0,964.0, 0), v30, z5, tool0;
MoveL Offs(p0,1539.4460000000001,961.7890000000002, 0), v30, z5, tool0;
MoveL Offs(p0,1537.8480000000002,959.3920000000003, 0), v30, z5, tool0;
MoveL Offs(p0,1535.302,956.8629999999999, 0), v30, z5, tool0;
MoveL Offs(p0,1531.904,954.256, 0), v30, z5, tool0;
MoveL Offs(p0,1527.75,951.625, 0), v30, z5, tool0;
MoveL Offs(p0,1522.936,949.024, 0), v30, z5, tool0;
MoveL Offs(p0,1517.558,946.507, 0), v30, z5, tool0;
MoveL Offs(p0,1511.712,944.128, 0), v30, z5, tool0;
MoveL Offs(p0,1505.4940000000001,941.941, 0), v30, z5, tool0;
MoveL Offs(p0,1499.0,940.0, 0), v30, z5, tool0;
MoveL Offs(p0,1499.0,940.0, 0), v30, z5, tool0;
MoveL Offs(p0,1479.6450000000004,934.2090000000001, 0), v30, z5, tool0;
MoveL Offs(p0,1459.6000000000001,927.1520000000003, 0), v30, z5, tool0;
MoveL Offs(p0,1439.1950000000002,919.003, 0), v30, z5, tool0;
MoveL Offs(p0,1418.76,909.9360000000001, 0), v30, z5, tool0;
MoveL Offs(p0,1398.625,900.125, 0), v30, z5, tool0;
MoveL Offs(p0,1379.12,889.744, 0), v30, z5, tool0;
MoveL Offs(p0,1360.5749999999998,878.9669999999999, 0), v30, z5, tool0;
MoveL Offs(p0,1343.3200000000002,867.9680000000001, 0), v30, z5, tool0;
MoveL Offs(p0,1327.6850000000002,856.921, 0), v30, z5, tool0;
MoveL Offs(p0,1314.0,846.0, 0), v30, z5, tool0;
MoveL Offs(p0,1314.0,846.0, 0), v30, z5, tool0;
MoveL Offs(p0,1304.1080000000002,837.5799999999999, 0), v30, z5, tool0;
MoveL Offs(p0,1295.7040000000006,830.8400000000001, 0), v30, z5, tool0;
MoveL Offs(p0,1288.2959999999998,825.66, 0), v30, z5, tool0;
MoveL Offs(p0,1281.392,821.9200000000001, 0), v30, z5, tool0;
MoveL Offs(p0,1274.5,819.5, 0), v30, z5, tool0;
MoveL Offs(p0,1267.128,818.28, 0), v30, z5, tool0;
MoveL Offs(p0,1258.7839999999999,818.1399999999999, 0), v30, z5, tool0;
MoveL Offs(p0,1248.976,818.96, 0), v30, z5, tool0;
MoveL Offs(p0,1237.212,820.6200000000001, 0), v30, z5, tool0;
MoveL Offs(p0,1223.0,823.0, 0), v30, z5, tool0;
MoveL Offs(p0,1223.0,823.0, 0), v30, z5, tool0;
MoveL Offs(p0,1213.119,824.35, 0), v30, z5, tool0;
MoveL Offs(p0,1202.7520000000006,825.4000000000002, 0), v30, z5, tool0;
MoveL Offs(p0,1192.013,826.1499999999999, 0), v30, z5, tool0;
MoveL Offs(p0,1181.016,826.6, 0), v30, z5, tool0;
MoveL Offs(p0,1169.875,826.75, 0), v30, z5, tool0;
MoveL Offs(p0,1158.704,826.5999999999999, 0), v30, z5, tool0;
MoveL Offs(p0,1147.617,826.1499999999999, 0), v30, z5, tool0;
MoveL Offs(p0,1136.728,825.4000000000001, 0), v30, z5, tool0;
MoveL Offs(p0,1126.151,824.3500000000001, 0), v30, z5, tool0;
MoveL Offs(p0,1116.0,823.0, 0), v30, z5, tool0;
MoveL Offs(p0,1116.0,823.0, 0), v30, z5, tool0;
MoveL Offs(p0,1102.7420000000004,820.6380000000001, 0), v30, z5, tool0;
MoveL Offs(p0,1091.5360000000003,818.9840000000003, 0), v30, z5, tool0;
MoveL Offs(p0,1082.034,818.086, 0), v30, z5, tool0;
MoveL Offs(p0,1073.888,817.992, 0), v30, z5, tool0;
MoveL Offs(p0,1066.75,818.75, 0), v30, z5, tool0;
MoveL Offs(p0,1060.272,820.4080000000001, 0), v30, z5, tool0;
MoveL Offs(p0,1054.106,823.0139999999999, 0), v30, z5, tool0;
MoveL Offs(p0,1047.904,826.616, 0), v30, z5, tool0;
MoveL Offs(p0,1041.318,831.2620000000001, 0), v30, z5, tool0;
MoveL Offs(p0,1034.0,837.0, 0), v30, z5, tool0;
MoveL Offs(p0,1034.0,837.0, 0), v30, z5, tool0;
MoveL Offs(p0,1024.07,844.1580000000002, 0), v30, z5, tool0;
MoveL Offs(p0,1012.4000000000002,851.1840000000002, 0), v30, z5, tool0;
MoveL Offs(p0,999.17,858.006, 0), v30, z5, tool0;
MoveL Offs(p0,984.5600000000001,864.552, 0), v30, z5, tool0;
MoveL Offs(p0,968.75,870.75, 0), v30, z5, tool0;
MoveL Offs(p0,951.9200000000001,876.528, 0), v30, z5, tool0;
MoveL Offs(p0,934.25,881.814, 0), v30, z5, tool0;
MoveL Offs(p0,915.9200000000001,886.5360000000001, 0), v30, z5, tool0;
MoveL Offs(p0,897.1100000000001,890.6220000000001, 0), v30, z5, tool0;
MoveL Offs(p0,878.0,894.0, 0), v30, z5, tool0;
MoveL Offs(p0,878.0,894.0, 0), v30, z5, tool0;
MoveL Offs(p0,869.5410000000003,895.6700000000001, 0), v30, z5, tool0;
MoveL Offs(p0,862.0480000000002,897.7600000000002, 0), v30, z5, tool0;
MoveL Offs(p0,855.347,900.39, 0), v30, z5, tool0;
MoveL Offs(p0,849.2640000000001,903.6800000000001, 0), v30, z5, tool0;
MoveL Offs(p0,843.625,907.75, 0), v30, z5, tool0;
MoveL Offs(p0,838.256,912.7199999999999, 0), v30, z5, tool0;
MoveL Offs(p0,832.983,918.71, 0), v30, z5, tool0;
MoveL Offs(p0,827.6320000000001,925.84, 0), v30, z5, tool0;
MoveL Offs(p0,822.029,934.23, 0), v30, z5, tool0;
MoveL Offs(p0,816.0,944.0, 0), v30, z5, tool0;
MoveL Offs(p0,816.0,944.0, 0), v30, z5, tool0;
MoveL Offs(p0,811.7220000000001,950.9390000000001, 0), v30, z5, tool0;
MoveL Offs(p0,807.3360000000002,957.8720000000002, 0), v30, z5, tool0;
MoveL Offs(p0,802.914,964.673, 0), v30, z5, tool0;
MoveL Offs(p0,798.528,971.2160000000001, 0), v30, z5, tool0;
MoveL Offs(p0,794.25,977.375, 0), v30, z5, tool0;
MoveL Offs(p0,790.152,983.024, 0), v30, z5, tool0;
MoveL Offs(p0,786.306,988.0369999999999, 0), v30, z5, tool0;
MoveL Offs(p0,782.784,992.288, 0), v30, z5, tool0;
MoveL Offs(p0,779.6580000000001,995.6510000000001, 0), v30, z5, tool0;
MoveL Offs(p0,777.0,998.0, 0), v30, z5, tool0;
MoveL Offs(p0,777.0,998.0, 0), v30, z5, tool0;
MoveL Offs(p0,773.8240000000002,1001.1720000000001, 0), v30, z5, tool0;
MoveL Offs(p0,771.5120000000003,1004.8960000000003, 0), v30, z5, tool0;
MoveL Offs(p0,770.088,1009.4839999999999, 0), v30, z5, tool0;
MoveL Offs(p0,769.5760000000001,1015.2480000000002, 0), v30, z5, tool0;
MoveL Offs(p0,770.0,1022.5, 0), v30, z5, tool0;
MoveL Offs(p0,771.3839999999999,1031.552, 0), v30, z5, tool0;
MoveL Offs(p0,773.752,1042.716, 0), v30, z5, tool0;
MoveL Offs(p0,777.128,1056.304, 0), v30, z5, tool0;
MoveL Offs(p0,781.5360000000001,1072.6280000000002, 0), v30, z5, tool0;
MoveL Offs(p0,787.0,1092.0, 0), v30, z5, tool0;
MoveL Offs(p0,787.0,1092.0, 0), v30, z5, tool0;
MoveL Offs(p0,794.558,1120.721, 0), v30, z5, tool0;
MoveL Offs(p0,800.4240000000002,1147.4080000000004, 0), v30, z5, tool0;
MoveL Offs(p0,804.5860000000001,1171.947, 0), v30, z5, tool0;
MoveL Offs(p0,807.032,1194.2240000000002, 0), v30, z5, tool0;
MoveL Offs(p0,807.75,1214.125, 0), v30, z5, tool0;
MoveL Offs(p0,806.728,1231.536, 0), v30, z5, tool0;
MoveL Offs(p0,803.954,1246.3429999999998, 0), v30, z5, tool0;
MoveL Offs(p0,799.4159999999999,1258.4320000000002, 0), v30, z5, tool0;
MoveL Offs(p0,793.1020000000001,1267.689, 0), v30, z5, tool0;
MoveL Offs(p0,785.0,1274.0, 0), v30, z5, tool0;
MoveL Offs(p0,785.0,1274.0, 0), v30, z5, tool0;
MoveL Offs(p0,781.7380000000002,1275.766, 0), v30, z5, tool0;
MoveL Offs(p0,778.5840000000003,1277.4480000000003, 0), v30, z5, tool0;
MoveL Offs(p0,775.5859999999999,1279.022, 0), v30, z5, tool0;
MoveL Offs(p0,772.792,1280.4640000000002, 0), v30, z5, tool0;
MoveL Offs(p0,770.25,1281.75, 0), v30, z5, tool0;
MoveL Offs(p0,768.008,1282.856, 0), v30, z5, tool0;
MoveL Offs(p0,766.114,1283.758, 0), v30, z5, tool0;
MoveL Offs(p0,764.6160000000002,1284.4320000000002, 0), v30, z5, tool0;
MoveL Offs(p0,763.5620000000001,1284.854, 0), v30, z5, tool0;
MoveL Offs(p0,763.0,1285.0, 0), v30, z5, tool0;
MoveL Offs(p0,763.0,1285.0, 0), v30, z5, tool0;
MoveL Offs(p0,762.8460000000001,1285.6710000000003, 0), v30, z5, tool0;
MoveL Offs(p0,762.9680000000003,1287.6080000000004, 0), v30, z5, tool0;
MoveL Offs(p0,763.342,1290.6970000000001, 0), v30, z5, tool0;
MoveL Offs(p0,763.9440000000001,1294.824, 0), v30, z5, tool0;
MoveL Offs(p0,764.75,1299.875, 0), v30, z5, tool0;
MoveL Offs(p0,765.7359999999999,1305.736, 0), v30, z5, tool0;
MoveL Offs(p0,766.8779999999999,1312.2930000000001, 0), v30, z5, tool0;
MoveL Offs(p0,768.152,1319.4320000000002, 0), v30, z5, tool0;
MoveL Offs(p0,769.5340000000001,1327.039, 0), v30, z5, tool0;
MoveL Offs(p0,771.0,1335.0, 0), v30, z5, tool0;
MoveL Offs(p0,771.0,1335.0, 0), v30, z5, tool0;
MoveL Offs(p0,772.9140000000001,1344.7230000000002, 0), v30, z5, tool0;
MoveL Offs(p0,775.0320000000002,1356.8640000000003, 0), v30, z5, tool0;
MoveL Offs(p0,777.318,1371.081, 0), v30, z5, tool0;
MoveL Offs(p0,779.7360000000001,1387.032, 0), v30, z5, tool0;
MoveL Offs(p0,782.25,1404.375, 0), v30, z5, tool0;
MoveL Offs(p0,784.8239999999998,1422.768, 0), v30, z5, tool0;
MoveL Offs(p0,787.4219999999999,1441.8690000000001, 0), v30, z5, tool0;
MoveL Offs(p0,790.008,1461.3360000000002, 0), v30, z5, tool0;
MoveL Offs(p0,792.546,1480.8270000000002, 0), v30, z5, tool0;
MoveL Offs(p0,795.0,1500.0, 0), v30, z5, tool0;
MoveL Offs(p0,795.0,1500.0, 0), v30, z5, tool0;
MoveL Offs(p0,798.2370000000001,1528.5370000000005, 0), v30, z5, tool0;
MoveL Offs(p0,800.7360000000001,1552.1360000000004, 0), v30, z5, tool0;
MoveL Offs(p0,802.4789999999999,1571.3790000000001, 0), v30, z5, tool0;
MoveL Offs(p0,803.4480000000001,1586.8480000000002, 0), v30, z5, tool0;
MoveL Offs(p0,803.625,1599.125, 0), v30, z5, tool0;
MoveL Offs(p0,802.9920000000001,1608.792, 0), v30, z5, tool0;
MoveL Offs(p0,801.531,1616.431, 0), v30, z5, tool0;
MoveL Offs(p0,799.2240000000002,1622.6240000000003, 0), v30, z5, tool0;
MoveL Offs(p0,796.053,1627.953, 0), v30, z5, tool0;
MoveL Offs(p0,792.0,1633.0, 0), v30, z5, tool0;
MoveL Offs(p0,792.0,1633.0, 0), v30, z5, tool0;
MoveL Offs(p0,783.4680000000001,1641.183, 0), v30, z5, tool0;
MoveL Offs(p0,775.224,1646.5040000000006, 0), v30, z5, tool0;
MoveL Offs(p0,767.1959999999999,1648.921, 0), v30, z5, tool0;
MoveL Offs(p0,759.312,1648.392, 0), v30, z5, tool0;
MoveL Offs(p0,751.5,1644.875, 0), v30, z5, tool0;
MoveL Offs(p0,743.6879999999999,1638.328, 0), v30, z5, tool0;
MoveL Offs(p0,735.804,1628.709, 0), v30, z5, tool0;
MoveL Offs(p0,727.7760000000001,1615.976, 0), v30, z5, tool0;
MoveL Offs(p0,719.532,1600.087, 0), v30, z5, tool0;
MoveL Offs(p0,711.0,1581.0, 0), v30, z5, tool0;
MoveL Offs(p0,685.0,1517.0, 0), v30, z5, tool0;
MoveL Offs(p0,660.0,1573.0, 0), v30, z5, tool0;
MoveL Offs(p0,660.0,1573.0, 0), v30, z5, tool0;
MoveL Offs(p0,656.0230000000001,1582.1290000000001, 0), v30, z5, tool0;
MoveL Offs(p0,651.9440000000002,1590.8320000000003, 0), v30, z5, tool0;
MoveL Offs(p0,647.8409999999999,1598.983, 0), v30, z5, tool0;
MoveL Offs(p0,643.7919999999999,1606.4560000000001, 0), v30, z5, tool0;
MoveL Offs(p0,639.875,1613.125, 0), v30, z5, tool0;
MoveL Offs(p0,636.1679999999999,1618.8639999999998, 0), v30, z5, tool0;
MoveL Offs(p0,632.749,1623.547, 0), v30, z5, tool0;
MoveL Offs(p0,629.696,1627.048, 0), v30, z5, tool0;
MoveL Offs(p0,627.087,1629.241, 0), v30, z5, tool0;
MoveL Offs(p0,625.0,1630.0, 0), v30, z5, tool0;
MoveL Offs(p0,625.0,1630.0, 0), v30, z5, tool0;
MoveL Offs(p0,617.318,1629.1230000000003, 0), v30, z5, tool0;
MoveL Offs(p0,610.464,1627.0640000000003, 0), v30, z5, tool0;
MoveL Offs(p0,604.426,1623.781, 0), v30, z5, tool0;
MoveL Offs(p0,599.192,1619.232, 0), v30, z5, tool0;
MoveL Offs(p0,594.75,1613.375, 0), v30, z5, tool0;
MoveL Offs(p0,591.088,1606.168, 0), v30, z5, tool0;
MoveL Offs(p0,588.194,1597.569, 0), v30, z5, tool0;
MoveL Offs(p0,586.056,1587.536, 0), v30, z5, tool0;
MoveL Offs(p0,584.662,1576.027, 0), v30, z5, tool0;
MoveL Offs(p0,584.0,1563.0, 0), v30, z5, tool0;
MoveL Offs(p0,584.0,1563.0, 0), v30, z5, tool0;
MoveL Offs(p0,583.5840000000001,1533.766, 0), v30, z5, tool0;
MoveL Offs(p0,582.9520000000001,1506.8480000000002, 0), v30, z5, tool0;
MoveL Offs(p0,582.1279999999999,1482.522, 0), v30, z5, tool0;
MoveL Offs(p0,581.1360000000001,1461.064, 0), v30, z5, tool0;
MoveL Offs(p0,580.0,1442.75, 0), v30, z5, tool0;
MoveL Offs(p0,578.744,1427.856, 0), v30, z5, tool0;
MoveL Offs(p0,577.392,1416.6580000000001, 0), v30, z5, tool0;
MoveL Offs(p0,575.9680000000001,1409.4320000000002, 0), v30, z5, tool0;
MoveL Offs(p0,574.496,1406.4540000000002, 0), v30, z5, tool0;
MoveL Offs(p0,573.0,1408.0, 0), v30, z5, tool0;
MoveL Offs(p0,573.0,1408.0, 0), v30, z5, tool0;
MoveL Offs(p0,570.172,1412.5320000000004, 0), v30, z5, tool0;
MoveL Offs(p0,566.0960000000001,1415.9360000000004, 0), v30, z5, tool0;
MoveL Offs(p0,561.084,1418.2240000000002, 0), v30, z5, tool0;
MoveL Offs(p0,555.4480000000001,1419.4080000000001, 0), v30, z5, tool0;
MoveL Offs(p0,549.5,1419.5, 0), v30, z5, tool0;
MoveL Offs(p0,543.552,1418.512, 0), v30, z5, tool0;
MoveL Offs(p0,537.9159999999999,1416.456, 0), v30, z5, tool0;
MoveL Offs(p0,532.904,1413.344, 0), v30, z5, tool0;
MoveL Offs(p0,528.828,1409.188, 0), v30, z5, tool0;
MoveL Offs(p0,526.0,1404.0, 0), v30, z5, tool0;
MoveL Offs(p0,526.0,1404.0, 0), v30, z5, tool0;
MoveL Offs(p0,525.1030000000001,1401.0150000000003, 0), v30, z5, tool0;
MoveL Offs(p0,524.224,1397.5200000000002, 0), v30, z5, tool0;
MoveL Offs(p0,523.381,1393.605, 0), v30, z5, tool0;
MoveL Offs(p0,522.592,1389.3600000000001, 0), v30, z5, tool0;
MoveL Offs(p0,521.875,1384.875, 0), v30, z5, tool0;
MoveL Offs(p0,521.248,1380.2399999999998, 0), v30, z5, tool0;
MoveL Offs(p0,520.7289999999999,1375.545, 0), v30, z5, tool0;
MoveL Offs(p0,520.336,1370.88, 0), v30, z5, tool0;
MoveL Offs(p0,520.087,1366.335, 0), v30, z5, tool0;
MoveL Offs(p0,520.0,1362.0, 0), v30, z5, tool0;
MoveL Offs(p0,520.0,1362.0, 0), v30, z5, tool0;
MoveL Offs(p0,519.884,1357.4520000000002, 0), v30, z5, tool0;
MoveL Offs(p0,519.5520000000001,1352.8560000000004, 0), v30, z5, tool0;
MoveL Offs(p0,519.0279999999999,1348.284, 0), v30, z5, tool0;
MoveL Offs(p0,518.336,1343.808, 0), v30, z5, tool0;
MoveL Offs(p0,517.5,1339.5, 0), v30, z5, tool0;
MoveL Offs(p0,516.544,1335.4319999999998, 0), v30, z5, tool0;
MoveL Offs(p0,515.492,1331.676, 0), v30, z5, tool0;
MoveL Offs(p0,514.368,1328.304, 0), v30, z5, tool0;
MoveL Offs(p0,513.196,1325.388, 0), v30, z5, tool0;
MoveL Offs(p0,512.0,1323.0, 0), v30, z5, tool0;
MoveL Offs(p0,512.0,1323.0, 0), v30, z5, tool0;
MoveL Offs(p0,510.8310000000001,1322.373, 0), v30, z5, tool0;
MoveL Offs(p0,509.7280000000001,1323.9840000000002, 0), v30, z5, tool0;
MoveL Offs(p0,508.69699999999995,1327.6709999999998, 0), v30, z5, tool0;
MoveL Offs(p0,507.7440000000001,1333.272, 0), v30, z5, tool0;
MoveL Offs(p0,506.875,1340.625, 0), v30, z5, tool0;
MoveL Offs(p0,506.096,1349.568, 0), v30, z5, tool0;
MoveL Offs(p0,505.413,1359.939, 0), v30, z5, tool0;
MoveL Offs(p0,504.83200000000005,1371.576, 0), v30, z5, tool0;
MoveL Offs(p0,504.35900000000004,1384.317, 0), v30, z5, tool0;
MoveL Offs(p0,504.0,1398.0, 0), v30, z5, tool0;
MoveL Offs(p0,504.0,1398.0, 0), v30, z5, tool0;
MoveL Offs(p0,503.8190000000001,1415.2230000000002, 0), v30, z5, tool0;
MoveL Offs(p0,503.2720000000001,1431.5040000000004, 0), v30, z5, tool0;
MoveL Offs(p0,502.353,1446.8609999999999, 0), v30, z5, tool0;
MoveL Offs(p0,501.0560000000001,1461.3120000000001, 0), v30, z5, tool0;
MoveL Offs(p0,499.375,1474.875, 0), v30, z5, tool0;
MoveL Offs(p0,497.304,1487.568, 0), v30, z5, tool0;
MoveL Offs(p0,494.837,1499.409, 0), v30, z5, tool0;
MoveL Offs(p0,491.968,1510.4160000000002, 0), v30, z5, tool0;
MoveL Offs(p0,488.69100000000003,1520.607, 0), v30, z5, tool0;
MoveL Offs(p0,485.0,1530.0, 0), v30, z5, tool0;
MoveL Offs(p0,485.0,1530.0, 0), v30, z5, tool0;
MoveL Offs(p0,479.06000000000006,1545.989, 0), v30, z5, tool0;
MoveL Offs(p0,474.4400000000001,1560.5920000000003, 0), v30, z5, tool0;
MoveL Offs(p0,471.14,1574.1629999999998, 0), v30, z5, tool0;
MoveL Offs(p0,469.16,1587.0560000000003, 0), v30, z5, tool0;
MoveL Offs(p0,468.5,1599.625, 0), v30, z5, tool0;
MoveL Offs(p0,469.16,1612.2240000000002, 0), v30, z5, tool0;
MoveL Offs(p0,471.14,1625.207, 0), v30, z5, tool0;
MoveL Offs(p0,474.44000000000005,1638.928, 0), v30, z5, tool0;
MoveL Offs(p0,479.06000000000006,1653.741, 0), v30, z5, tool0;
MoveL Offs(p0,485.0,1670.0, 0), v30, z5, tool0;
MoveL Offs(p0,485.0,1670.0, 0), v30, z5, tool0;
MoveL Offs(p0,487.7490000000001,1678.154, 0), v30, z5, tool0;
MoveL Offs(p0,490.5520000000001,1687.4720000000004, 0), v30, z5, tool0;
MoveL Offs(p0,493.343,1697.738, 0), v30, z5, tool0;
MoveL Offs(p0,496.05600000000004,1708.7359999999999, 0), v30, z5, tool0;
MoveL Offs(p0,498.625,1720.25, 0), v30, z5, tool0;
MoveL Offs(p0,500.98400000000004,1732.0639999999999, 0), v30, z5, tool0;
MoveL Offs(p0,503.067,1743.962, 0), v30, z5, tool0;
MoveL Offs(p0,504.80800000000005,1755.728, 0), v30, z5, tool0;
MoveL Offs(p0,506.1410000000001,1767.1460000000002, 0), v30, z5, tool0;
MoveL Offs(p0,507.0,1778.0, 0), v30, z5, tool0;
MoveL Offs(p0,507.0,1778.0, 0), v30, z5, tool0;
MoveL Offs(p0,508.55100000000004,1792.7850000000003, 0), v30, z5, tool0;
MoveL Offs(p0,510.2880000000001,1805.5600000000006, 0), v30, z5, tool0;
MoveL Offs(p0,512.337,1816.6549999999997, 0), v30, z5, tool0;
MoveL Offs(p0,514.8240000000001,1826.4, 0), v30, z5, tool0;
MoveL Offs(p0,517.875,1835.125, 0), v30, z5, tool0;
MoveL Offs(p0,521.616,1843.16, 0), v30, z5, tool0;
MoveL Offs(p0,526.173,1850.835, 0), v30, z5, tool0;
MoveL Offs(p0,531.672,1858.48, 0), v30, z5, tool0;
MoveL Offs(p0,538.239,1866.4250000000002, 0), v30, z5, tool0;
MoveL Offs(p0,546.0,1875.0, 0), v30, z5, tool0;
MoveL Offs(p0,546.0,1875.0, 0), v30, z5, tool0;
MoveL Offs(p0,560.3090000000001,1891.9780000000003, 0), v30, z5, tool0;
MoveL Offs(p0,573.2320000000002,1910.5040000000004, 0), v30, z5, tool0;
MoveL Offs(p0,584.763,1930.5659999999998, 0), v30, z5, tool0;
MoveL Offs(p0,594.8960000000001,1952.152, 0), v30, z5, tool0;
MoveL Offs(p0,603.625,1975.25, 0), v30, z5, tool0;
MoveL Offs(p0,610.944,1999.848, 0), v30, z5, tool0;
MoveL Offs(p0,616.847,2025.9339999999997, 0), v30, z5, tool0;
MoveL Offs(p0,621.328,2053.496, 0), v30, z5, tool0;
MoveL Offs(p0,624.3810000000001,2082.522, 0), v30, z5, tool0;
MoveL Offs(p0,626.0,2113.0, 0), v30, z5, tool0;
MoveL Offs(p0,626.0,2113.0, 0), v30, z5, tool0;
MoveL Offs(p0,626.6690000000001,2132.8740000000003, 0), v30, z5, tool0;
MoveL Offs(p0,627.5120000000002,2150.0720000000006, 0), v30, z5, tool0;
MoveL Offs(p0,628.583,2164.858, 0), v30, z5, tool0;
MoveL Offs(p0,629.936,2177.496, 0), v30, z5, tool0;
MoveL Offs(p0,631.625,2188.25, 0), v30, z5, tool0;
MoveL Offs(p0,633.704,2197.384, 0), v30, z5, tool0;
MoveL Offs(p0,636.227,2205.162, 0), v30, z5, tool0;
MoveL Offs(p0,639.248,2211.848, 0), v30, z5, tool0;
MoveL Offs(p0,642.821,2217.706, 0), v30, z5, tool0;
MoveL Offs(p0,647.0,2223.0, 0), v30, z5, tool0;
MoveL Offs(p0,647.0,2223.0, 0), v30, z5, tool0;
MoveL Offs(p0,662.1270000000001,2240.708, 0), v30, z5, tool0;
MoveL Offs(p0,677.8960000000002,2260.5040000000004, 0), v30, z5, tool0;
MoveL Offs(p0,693.989,2281.8959999999997, 0), v30, z5, tool0;
MoveL Offs(p0,710.088,2304.3920000000003, 0), v30, z5, tool0;
MoveL Offs(p0,725.875,2327.5, 0), v30, z5, tool0;
MoveL Offs(p0,741.032,2350.728, 0), v30, z5, tool0;
MoveL Offs(p0,755.241,2373.584, 0), v30, z5, tool0;
MoveL Offs(p0,768.184,2395.576, 0), v30, z5, tool0;
MoveL Offs(p0,779.543,2416.212, 0), v30, z5, tool0;
MoveL Offs(p0,789.0,2435.0, 0), v30, z5, tool0;
MoveL Offs(p0,789.0,2435.0, 0), v30, z5, tool0;
MoveL Offs(p0,807.0000000000001,2476.0530000000003, 0), v30, z5, tool0;
MoveL Offs(p0,823.6800000000003,2520.0640000000003, 0), v30, z5, tool0;
MoveL Offs(p0,838.8599999999999,2566.2110000000002, 0), v30, z5, tool0;
MoveL Offs(p0,852.36,2613.6720000000005, 0), v30, z5, tool0;
MoveL Offs(p0,864.0,2661.625, 0), v30, z5, tool0;
MoveL Offs(p0,873.6,2709.248, 0), v30, z5, tool0;
MoveL Offs(p0,880.98,2755.719, 0), v30, z5, tool0;
MoveL Offs(p0,885.96,2800.2160000000003, 0), v30, z5, tool0;
MoveL Offs(p0,888.36,2841.9170000000004, 0), v30, z5, tool0;
MoveL Offs(p0,888.0,2880.0, 0), v30, z5, tool0;
MoveL Offs(p0,888.0,2880.0, 0), v30, z5, tool0;
MoveL Offs(p0,887.1110000000002,2896.1600000000003, 0), v30, z5, tool0;
MoveL Offs(p0,886.1680000000002,2909.4400000000005, 0), v30, z5, tool0;
MoveL Offs(p0,885.057,2920.14, 0), v30, z5, tool0;
MoveL Offs(p0,883.664,2928.56, 0), v30, z5, tool0;
MoveL Offs(p0,881.875,2935.0, 0), v30, z5, tool0;
MoveL Offs(p0,879.576,2939.76, 0), v30, z5, tool0;
MoveL Offs(p0,876.653,2943.1400000000003, 0), v30, z5, tool0;
MoveL Offs(p0,872.9920000000001,2945.4400000000005, 0), v30, z5, tool0;
MoveL Offs(p0,868.479,2946.96, 0), v30, z5, tool0;
MoveL Offs(p0,863.0,2948.0, 0), v30, z5, tool0;
MoveL Offs(p0,863.0,2948.0, 0), v30, z5, tool0;
MoveL Offs(p0,857.253,2948.6770000000006, 0), v30, z5, tool0;
MoveL Offs(p0,852.5440000000002,2948.7360000000012, 0), v30, z5, tool0;
MoveL Offs(p0,848.771,2947.919, 0), v30, z5, tool0;
MoveL Offs(p0,845.8320000000001,2945.968, 0), v30, z5, tool0;
MoveL Offs(p0,843.625,2942.625, 0), v30, z5, tool0;
MoveL Offs(p0,842.048,2937.6319999999996, 0), v30, z5, tool0;
MoveL Offs(p0,840.999,2930.7309999999998, 0), v30, z5, tool0;
MoveL Offs(p0,840.376,2921.664, 0), v30, z5, tool0;
MoveL Offs(p0,840.0770000000001,2910.1730000000002, 0), v30, z5, tool0;
MoveL Offs(p0,840.0,2896.0, 0), v30, z5, tool0;
MoveL Offs(p0,840.0,2896.0, 0), v30, z5, tool0;
MoveL Offs(p0,839.614,2878.0630000000006, 0), v30, z5, tool0;
MoveL Offs(p0,838.4720000000003,2863.264000000001, 0), v30, z5, tool0;
MoveL Offs(p0,836.598,2851.621, 0), v30, z5, tool0;
MoveL Offs(p0,834.0160000000001,2843.152, 0), v30, z5, tool0;
MoveL Offs(p0,830.75,2837.875, 0), v30, z5, tool0;
MoveL Offs(p0,826.8240000000001,2835.808, 0), v30, z5, tool0;
MoveL Offs(p0,822.262,2836.969, 0), v30, z5, tool0;
MoveL Offs(p0,817.088,2841.376, 0), v30, z5, tool0;
MoveL Offs(p0,811.326,2849.047, 0), v30, z5, tool0;
MoveL Offs(p0,805.0,2860.0, 0), v30, z5, tool0;
MoveL Offs(p0,805.0,2860.0, 0), v30, z5, tool0;
MoveL Offs(p0,800.095,2869.2760000000003, 0), v30, z5, tool0;
MoveL Offs(p0,795.5200000000002,2876.728000000001, 0), v30, z5, tool0;
MoveL Offs(p0,791.185,2882.392, 0), v30, z5, tool0;
MoveL Offs(p0,787.0000000000001,2886.304, 0), v30, z5, tool0;
MoveL Offs(p0,782.875,2888.5, 0), v30, z5, tool0;
MoveL Offs(p0,778.72,2889.016, 0), v30, z5, tool0;
MoveL Offs(p0,774.4449999999999,2887.888, 0), v30, z5, tool0;
MoveL Offs(p0,769.96,2885.1520000000005, 0), v30, z5, tool0;
MoveL Offs(p0,765.1750000000001,2880.844, 0), v30, z5, tool0;
MoveL Offs(p0,760.0,2875.0, 0), v30, z5, tool0;
MoveL Offs(p0,760.0,2875.0, 0), v30, z5, tool0;
MoveL Offs(p0,756.614,2871.2540000000004, 0), v30, z5, tool0;
MoveL Offs(p0,753.5520000000001,2868.4320000000007, 0), v30, z5, tool0;
MoveL Offs(p0,750.658,2866.558, 0), v30, z5, tool0;
MoveL Offs(p0,747.776,2865.6560000000004, 0), v30, z5, tool0;
MoveL Offs(p0,744.75,2865.75, 0), v30, z5, tool0;
MoveL Offs(p0,741.4240000000001,2866.864, 0), v30, z5, tool0;
MoveL Offs(p0,737.6419999999999,2869.022, 0), v30, z5, tool0;
MoveL Offs(p0,733.248,2872.2480000000005, 0), v30, z5, tool0;
MoveL Offs(p0,728.086,2876.566, 0), v30, z5, tool0;
MoveL Offs(p0,722.0,2882.0, 0), v30, z5, tool0;
MoveL Offs(p0,698.0,2905.0, 0), v30, z5, tool0;
MoveL Offs(p0,683.0,2883.0, 0), v30, z5, tool0;
MoveL Offs(p0,683.0,2883.0, 0), v30, z5, tool0;
MoveL Offs(p0,680.277,2879.197, 0), v30, z5, tool0;
MoveL Offs(p0,677.5360000000002,2875.616000000001, 0), v30, z5, tool0;
MoveL Offs(p0,674.819,2872.299, 0), v30, z5, tool0;
MoveL Offs(p0,672.1680000000001,2869.2880000000005, 0), v30, z5, tool0;
MoveL Offs(p0,669.625,2866.625, 0), v30, z5, tool0;
MoveL Offs(p0,667.232,2864.352, 0), v30, z5, tool0;
MoveL Offs(p0,665.031,2862.511, 0), v30, z5, tool0;
MoveL Offs(p0,663.0640000000001,2861.1440000000002, 0), v30, z5, tool0;
MoveL Offs(p0,661.373,2860.2929999999997, 0), v30, z5, tool0;
MoveL Offs(p0,660.0,2860.0, 0), v30, z5, tool0;
MoveL Offs(p0,660.0,2860.0, 0), v30, z5, tool0;
MoveL Offs(p0,658.54,2860.761, 0), v30, z5, tool0;
MoveL Offs(p0,656.6000000000003,2862.9680000000003, 0), v30, z5, tool0;
MoveL Offs(p0,654.24,2866.507, 0), v30, z5, tool0;
MoveL Offs(p0,651.52,2871.264, 0), v30, z5, tool0;
MoveL Offs(p0,648.5,2877.125, 0), v30, z5, tool0;
MoveL Offs(p0,645.24,2883.976, 0), v30, z5, tool0;
MoveL Offs(p0,641.8,2891.703, 0), v30, z5, tool0;
MoveL Offs(p0,638.24,2900.192, 0), v30, z5, tool0;
MoveL Offs(p0,634.62,2909.329, 0), v30, z5, tool0;
MoveL Offs(p0,631.0,2919.0, 0), v30, z5, tool0;
MoveL Offs(p0,631.0,2919.0, 0), v30, z5, tool0;
MoveL Offs(p0,623.1700000000001,2939.538000000001, 0), v30, z5, tool0;
MoveL Offs(p0,614.8000000000001,2958.984000000001, 0), v30, z5, tool0;
MoveL Offs(p0,606.0699999999999,2977.0860000000002, 0), v30, z5, tool0;
MoveL Offs(p0,597.1600000000001,2993.592, 0), v30, z5, tool0;
MoveL Offs(p0,588.25,3008.25, 0), v30, z5, tool0;
MoveL Offs(p0,579.52,3020.808, 0), v30, z5, tool0;
MoveL Offs(p0,571.15,3031.014, 0), v30, z5, tool0;
MoveL Offs(p0,563.32,3038.616, 0), v30, z5, tool0;
MoveL Offs(p0,556.21,3043.362, 0), v30, z5, tool0;
MoveL Offs(p0,550.0,3045.0, 0), v30, z5, tool0;
MoveL Offs(p0,550.0,3045.0, 0), v30, z5, tool0;
MoveL Offs(p0,547.2560000000001,3045.438, 0), v30, z5, tool0;
MoveL Offs(p0,543.8880000000001,3046.7040000000006, 0), v30, z5, tool0;
MoveL Offs(p0,539.992,3048.726, 0), v30, z5, tool0;
MoveL Offs(p0,535.664,3051.4320000000002, 0), v30, z5, tool0;
MoveL Offs(p0,531.0,3054.75, 0), v30, z5, tool0;
MoveL Offs(p0,526.096,3058.608, 0), v30, z5, tool0;
MoveL Offs(p0,521.048,3062.934, 0), v30, z5, tool0;
MoveL Offs(p0,515.952,3067.656, 0), v30, z5, tool0;
MoveL Offs(p0,510.904,3072.702, 0), v30, z5, tool0;
MoveL Offs(p0,506.0,3078.0, 0), v30, z5, tool0;
MoveL Offs(p0,506.0,3078.0, 0), v30, z5, tool0;
MoveL Offs(p0,496.619,3087.68, 0), v30, z5, tool0;
MoveL Offs(p0,487.2320000000001,3095.6800000000003, 0), v30, z5, tool0;
MoveL Offs(p0,478.073,3101.9399999999996, 0), v30, z5, tool0;
MoveL Offs(p0,469.37600000000003,3106.4, 0), v30, z5, tool0;
MoveL Offs(p0,461.375,3109.0, 0), v30, z5, tool0;
MoveL Offs(p0,454.304,3109.68, 0), v30, z5, tool0;
MoveL Offs(p0,448.39700000000005,3108.38, 0), v30, z5, tool0;
MoveL Offs(p0,443.88800000000003,3105.04, 0), v30, z5, tool0;
MoveL Offs(p0,441.011,3099.6000000000004, 0), v30, z5, tool0;
MoveL Offs(p0,440.0,3092.0, 0), v30, z5, tool0;
MoveL Offs(p0,440.0,3092.0, 0), v30, z5, tool0;
MoveL Offs(p0,440.11800000000005,3088.899, 0), v30, z5, tool0;
MoveL Offs(p0,440.46400000000017,3085.0720000000006, 0), v30, z5, tool0;
MoveL Offs(p0,441.02599999999995,3080.633, 0), v30, z5, tool0;
MoveL Offs(p0,441.79200000000003,3075.6960000000004, 0), v30, z5, tool0;
MoveL Offs(p0,442.75,3070.375, 0), v30, z5, tool0;
MoveL Offs(p0,443.888,3064.7839999999997, 0), v30, z5, tool0;
MoveL Offs(p0,445.19399999999996,3059.0370000000003, 0), v30, z5, tool0;
MoveL Offs(p0,446.65600000000006,3053.2480000000005, 0), v30, z5, tool0;
MoveL Offs(p0,448.26200000000006,3047.5310000000004, 0), v30, z5, tool0;
MoveL Offs(p0,450.0,3042.0, 0), v30, z5, tool0;
MoveL Offs(p0,450.0,3042.0, 0), v30, z5, tool0;
MoveL Offs(p0,452.12800000000004,3034.0670000000005, 0), v30, z5, tool0;
MoveL Offs(p0,453.7040000000001,3027.616000000001, 0), v30, z5, tool0;
MoveL Offs(p0,454.716,3022.5689999999995, 0), v30, z5, tool0;
MoveL Offs(p0,455.15200000000004,3018.8480000000004, 0), v30, z5, tool0;
MoveL Offs(p0,455.0,3016.375, 0), v30, z5, tool0;
MoveL Offs(p0,454.248,3015.0719999999997, 0), v30, z5, tool0;
MoveL Offs(p0,452.884,3014.861, 0), v30, z5, tool0;
MoveL Offs(p0,450.8960000000001,3015.664, 0), v30, z5, tool0;
MoveL Offs(p0,448.272,3017.4030000000002, 0), v30, z5, tool0;
MoveL Offs(p0,445.0,3020.0, 0), v30, z5, tool0;
MoveL Offs(p0,445.0,3020.0, 0), v30, z5, tool0;
MoveL Offs(p0,437.74600000000004,3025.3240000000005, 0), v30, z5, tool0;
MoveL Offs(p0,431.6080000000001,3028.152000000001, 0), v30, z5, tool0;
MoveL Offs(p0,426.622,3028.5679999999998, 0), v30, z5, tool0;
MoveL Offs(p0,422.824,3026.6560000000004, 0), v30, z5, tool0;
MoveL Offs(p0,420.25,3022.5, 0), v30, z5, tool0;
MoveL Offs(p0,418.936,3016.1839999999997, 0), v30, z5, tool0;
MoveL Offs(p0,418.918,3007.792, 0), v30, z5, tool0;
MoveL Offs(p0,420.2320000000001,2997.4080000000004, 0), v30, z5, tool0;
MoveL Offs(p0,422.914,2985.1160000000004, 0), v30, z5, tool0;
MoveL Offs(p0,427.0,2971.0, 0), v30, z5, tool0;
MoveL Offs(p0,427.0,2971.0, 0), v30, z5, tool0;
MoveL Offs(p0,429.54699999999997,2962.833, 0), v30, z5, tool0;
MoveL Offs(p0,431.7760000000001,2954.6240000000007, 0), v30, z5, tool0;
MoveL Offs(p0,433.669,2946.511, 0), v30, z5, tool0;
MoveL Offs(p0,435.208,2938.6320000000005, 0), v30, z5, tool0;
MoveL Offs(p0,436.375,2931.125, 0), v30, z5, tool0;
MoveL Offs(p0,437.152,2924.1279999999997, 0), v30, z5, tool0;
MoveL Offs(p0,437.52099999999996,2917.779, 0), v30, z5, tool0;
MoveL Offs(p0,437.46400000000006,2912.2160000000003, 0), v30, z5, tool0;
MoveL Offs(p0,436.963,2907.5769999999998, 0), v30, z5, tool0;
MoveL Offs(p0,436.0,2904.0, 0), v30, z5, tool0;
MoveL Offs(p0,436.0,2904.0, 0), v30, z5, tool0;
MoveL Offs(p0,434.0350000000001,2899.4760000000006, 0), v30, z5, tool0;
MoveL Offs(p0,432.2800000000001,2896.128000000001, 0), v30, z5, tool0;
MoveL Offs(p0,430.645,2893.9919999999997, 0), v30, z5, tool0;
MoveL Offs(p0,429.04,2893.1040000000007, 0), v30, z5, tool0;
MoveL Offs(p0,427.375,2893.5, 0), v30, z5, tool0;
MoveL Offs(p0,425.56,2895.216, 0), v30, z5, tool0;
MoveL Offs(p0,423.505,2898.288, 0), v30, z5, tool0;
MoveL Offs(p0,421.12,2902.7520000000004, 0), v30, z5, tool0;
MoveL Offs(p0,418.315,2908.6440000000002, 0), v30, z5, tool0;
MoveL Offs(p0,415.0,2916.0, 0), v30, z5, tool0;
MoveL Offs(p0,415.0,2916.0, 0), v30, z5, tool0;
MoveL Offs(p0,409.52000000000004,2928.2430000000004, 0), v30, z5, tool0;
MoveL Offs(p0,404.40000000000015,2937.9840000000004, 0), v30, z5, tool0;
MoveL Offs(p0,399.52,2945.2409999999995, 0), v30, z5, tool0;
MoveL Offs(p0,394.76,2950.032, 0), v30, z5, tool0;
MoveL Offs(p0,390.0,2952.375, 0), v30, z5, tool0;
MoveL Offs(p0,385.12,2952.288, 0), v30, z5, tool0;
MoveL Offs(p0,380.0,2949.7889999999998, 0), v30, z5, tool0;
MoveL Offs(p0,374.52000000000004,2944.896, 0), v30, z5, tool0;
MoveL Offs(p0,368.56,2937.627, 0), v30, z5, tool0;
MoveL Offs(p0,362.0,2928.0, 0), v30, z5, tool0;
MoveL Offs(p0,342.0,2897.0, 0), v30, z5, tool0;
MoveL Offs(p0,326.0,2928.0, 0), v30, z5, tool0;
MoveL Offs(p0,326.0,2928.0, 0), v30, z5, tool0;
MoveL Offs(p0,323.2490000000001,2933.2700000000004, 0), v30, z5, tool0;
MoveL Offs(p0,320.43200000000013,2938.2400000000002, 0), v30, z5, tool0;
MoveL Offs(p0,317.60299999999995,2942.85, 0), v30, z5, tool0;
MoveL Offs(p0,314.81600000000003,2947.0400000000004, 0), v30, z5, tool0;
MoveL Offs(p0,312.125,2950.75, 0), v30, z5, tool0;
MoveL Offs(p0,309.584,2953.92, 0), v30, z5, tool0;
MoveL Offs(p0,307.247,2956.49, 0), v30, z5, tool0;
MoveL Offs(p0,305.168,2958.4000000000005, 0), v30, z5, tool0;
MoveL Offs(p0,303.401,2959.59, 0), v30, z5, tool0;
MoveL Offs(p0,302.0,2960.0, 0), v30, z5, tool0;
MoveL Offs(p0,302.0,2960.0, 0), v30, z5, tool0;
MoveL Offs(p0,300.327,2959.504, 0), v30, z5, tool0;
MoveL Offs(p0,298.33600000000007,2958.072000000001, 0), v30, z5, tool0;
MoveL Offs(p0,296.069,2955.787999999999, 0), v30, z5, tool0;
MoveL Offs(p0,293.568,2952.7360000000003, 0), v30, z5, tool0;
MoveL Offs(p0,290.875,2949.0, 0), v30, z5, tool0;
MoveL Offs(p0,288.032,2944.6639999999998, 0), v30, z5, tool0;
MoveL Offs(p0,285.08099999999996,2939.812, 0), v30, z5, tool0;
MoveL Offs(p0,282.064,2934.5280000000002, 0), v30, z5, tool0;
MoveL Offs(p0,279.023,2928.896, 0), v30, z5, tool0;
MoveL Offs(p0,276.0,2923.0, 0), v30, z5, tool0;
MoveL Offs(p0,276.0,2923.0, 0), v30, z5, tool0;
MoveL Offs(p0,271.32400000000007,2913.5040000000004, 0), v30, z5, tool0;
MoveL Offs(p0,267.3920000000001,2905.9520000000007, 0), v30, z5, tool0;
MoveL Offs(p0,264.048,2900.2479999999996, 0), v30, z5, tool0;
MoveL Offs(p0,261.136,2896.2960000000007, 0), v30, z5, tool0;
MoveL Offs(p0,258.5,2894.0, 0), v30, z5, tool0;
MoveL Offs(p0,255.984,2893.264, 0), v30, z5, tool0;
MoveL Offs(p0,253.43200000000002,2893.9919999999997, 0), v30, z5, tool0;
MoveL Offs(p0,250.68800000000002,2896.088, 0), v30, z5, tool0;
MoveL Offs(p0,247.596,2899.456, 0), v30, z5, tool0;
MoveL Offs(p0,244.0,2904.0, 0), v30, z5, tool0;
MoveL Offs(p0,244.0,2904.0, 0), v30, z5, tool0;
MoveL Offs(p0,241.87700000000004,2907.1080000000006, 0), v30, z5, tool0;
MoveL Offs(p0,239.73600000000005,2910.384000000001, 0), v30, z5, tool0;
MoveL Offs(p0,237.61899999999997,2913.7559999999994, 0), v30, z5, tool0;
MoveL Offs(p0,235.568,2917.152, 0), v30, z5, tool0;
MoveL Offs(p0,233.625,2920.5, 0), v30, z5, tool0;
MoveL Offs(p0,231.832,2923.728, 0), v30, z5, tool0;
MoveL Offs(p0,230.231,2926.7639999999997, 0), v30, z5, tool0;
MoveL Offs(p0,228.86400000000003,2929.536, 0), v30, z5, tool0;
MoveL Offs(p0,227.77300000000002,2931.972, 0), v30, z5, tool0;
MoveL Offs(p0,227.0,2934.0, 0), v30, z5, tool0;
MoveL Offs(p0,227.0,2934.0, 0), v30, z5, tool0;
MoveL Offs(p0,226.03600000000003,2936.1310000000003, 0), v30, z5, tool0;
MoveL Offs(p0,224.92800000000005,2937.728000000001, 0), v30, z5, tool0;
MoveL Offs(p0,223.65200000000002,2938.797, 0), v30, z5, tool0;
MoveL Offs(p0,222.18400000000003,2939.3440000000005, 0), v30, z5, tool0;
MoveL Offs(p0,220.5,2939.375, 0), v30, z5, tool0;
MoveL Offs(p0,218.576,2938.896, 0), v30, z5, tool0;
MoveL Offs(p0,216.388,2937.913, 0), v30, z5, tool0;
MoveL Offs(p0,213.91200000000003,2936.4320000000007, 0), v30, z5, tool0;
MoveL Offs(p0,211.124,2934.4590000000003, 0), v30, z5, tool0;
MoveL Offs(p0,208.0,2932.0, 0), v30, z5, tool0;
MoveL Offs(p0,208.0,2932.0, 0), v30, z5, tool0;
MoveL Offs(p0,204.36,2929.0970000000007, 0), v30, z5, tool0;
MoveL Offs(p0,201.20000000000005,2927.016000000001, 0), v30, z5, tool0;
MoveL Offs(p0,198.45999999999998,2925.7989999999995, 0), v30, z5, tool0;
MoveL Offs(p0,196.08,2925.488, 0), v30, z5, tool0;
MoveL Offs(p0,194.0,2926.125, 0), v30, z5, tool0;
MoveL Offs(p0,192.16,2927.752, 0), v30, z5, tool0;
MoveL Offs(p0,190.5,2930.411, 0), v30, z5, tool0;
MoveL Offs(p0,188.96000000000004,2934.1440000000002, 0), v30, z5, tool0;
MoveL Offs(p0,187.48000000000002,2938.993, 0), v30, z5, tool0;
MoveL Offs(p0,186.0,2945.0, 0), v30, z5, tool0;
MoveL Offs(p0,186.0,2945.0, 0), v30, z5, tool0;
MoveL Offs(p0,184.649,2949.831, 0), v30, z5, tool0;
MoveL Offs(p0,182.99200000000008,2954.1280000000006, 0), v30, z5, tool0;
MoveL Offs(p0,181.023,2957.8969999999995, 0), v30, z5, tool0;
MoveL Offs(p0,178.73600000000002,2961.1440000000002, 0), v30, z5, tool0;
MoveL Offs(p0,176.125,2963.875, 0), v30, z5, tool0;
MoveL Offs(p0,173.184,2966.096, 0), v30, z5, tool0;
MoveL Offs(p0,169.907,2967.813, 0), v30, z5, tool0;
MoveL Offs(p0,166.288,2969.032, 0), v30, z5, tool0;
MoveL Offs(p0,162.321,2969.759, 0), v30, z5, tool0;
MoveL Offs(p0,158.0,2970.0, 0), v30, z5, tool0;
MoveL Offs(p0,158.0,2970.0, 0), v30, z5, tool0;
MoveL Offs(p0,152.55800000000002,2969.842, 0), v30, z5, tool0;
MoveL Offs(p0,148.18400000000005,2969.0960000000014, 0), v30, z5, tool0;
MoveL Offs(p0,144.80599999999998,2967.3539999999994, 0), v30, z5, tool0;
MoveL Offs(p0,142.352,2964.208, 0), v30, z5, tool0;
MoveL Offs(p0,140.75,2959.25, 0), v30, z5, tool0;
MoveL Offs(p0,139.928,2952.0719999999997, 0), v30, z5, tool0;
MoveL Offs(p0,139.814,2942.2659999999996, 0), v30, z5, tool0;
MoveL Offs(p0,140.336,2929.424, 0), v30, z5, tool0;
MoveL Offs(p0,141.42200000000003,2913.138, 0), v30, z5, tool0;
MoveL Offs(p0,143.0,2893.0, 0), v30, z5, tool0;
MoveL Offs(p0,143.0,2893.0, 0), v30, z5, tool0;
MoveL Offs(p0,148.04700000000003,2848.038000000001, 0), v30, z5, tool0;
MoveL Offs(p0,155.89600000000007,2801.624000000001, 0), v30, z5, tool0;
MoveL Offs(p0,166.40900000000002,2754.1659999999997, 0), v30, z5, tool0;
MoveL Offs(p0,179.448,2706.072, 0), v30, z5, tool0;
MoveL Offs(p0,194.875,2657.75, 0), v30, z5, tool0;
MoveL Offs(p0,212.55200000000002,2609.608, 0), v30, z5, tool0;
MoveL Offs(p0,232.341,2562.054, 0), v30, z5, tool0;
MoveL Offs(p0,254.104,2515.496, 0), v30, z5, tool0;
MoveL Offs(p0,277.70300000000003,2470.342, 0), v30, z5, tool0;
MoveL Offs(p0,303.0,2427.0, 0), v30, z5, tool0;
MoveL Offs(p0,303.0,2427.0, 0), v30, z5, tool0;
MoveL Offs(p0,322.96100000000007,2394.632, 0), v30, z5, tool0;
MoveL Offs(p0,338.6080000000001,2368.936000000001, 0), v30, z5, tool0;
MoveL Offs(p0,350.187,2349.0240000000003, 0), v30, z5, tool0;
MoveL Offs(p0,357.944,2334.0080000000007, 0), v30, z5, tool0;
MoveL Offs(p0,362.125,2323.0, 0), v30, z5, tool0;
MoveL Offs(p0,362.976,2315.112, 0), v30, z5, tool0;
MoveL Offs(p0,360.743,2309.456, 0), v30, z5, tool0;
MoveL Offs(p0,355.672,2305.1440000000002, 0), v30, z5, tool0;
MoveL Offs(p0,348.009,2301.288, 0), v30, z5, tool0;
MoveL Offs(p0,338.0,2297.0, 0), v30, z5, tool0;
MoveL Offs(p0,338.0,2297.0, 0), v30, z5, tool0;
MoveL Offs(p0,315.896,2285.2090000000003, 0), v30, z5, tool0;
MoveL Offs(p0,294.72800000000007,2269.272000000001, 0), v30, z5, tool0;
MoveL Offs(p0,274.712,2249.543, 0), v30, z5, tool0;
MoveL Offs(p0,256.0640000000001,2226.376, 0), v30, z5, tool0;
MoveL Offs(p0,239.0,2200.125, 0), v30, z5, tool0;
MoveL Offs(p0,223.736,2171.1440000000002, 0), v30, z5, tool0;
MoveL Offs(p0,210.48799999999997,2139.787, 0), v30, z5, tool0;
MoveL Offs(p0,199.472,2106.4080000000004, 0), v30, z5, tool0;
MoveL Offs(p0,190.904,2071.361, 0), v30, z5, tool0;
MoveL Offs(p0,185.0,2035.0, 0), v30, z5, tool0;
MoveL Offs(p0,185.0,2035.0, 0), v30, z5, tool0;
MoveL Offs(p0,183.133,2022.2590000000002, 0), v30, z5, tool0;
MoveL Offs(p0,181.10400000000004,2010.9520000000005, 0), v30, z5, tool0;
MoveL Offs(p0,178.87100000000004,2000.9529999999997, 0), v30, z5, tool0;
MoveL Offs(p0,176.392,1992.136, 0), v30, z5, tool0;
MoveL Offs(p0,173.625,1984.375, 0), v30, z5, tool0;
MoveL Offs(p0,170.528,1977.544, 0), v30, z5, tool0;
MoveL Offs(p0,167.059,1971.517, 0), v30, z5, tool0;
MoveL Offs(p0,163.17600000000002,1966.1680000000001, 0), v30, z5, tool0;
MoveL Offs(p0,158.83700000000002,1961.371, 0), v30, z5, tool0;
MoveL Offs(p0,154.0,1957.0, 0), v30, z5, tool0;
MoveL Offs(p0,154.0,1957.0, 0), v30, z5, tool0;
MoveL Offs(p0,149.70000000000002,1953.0720000000003, 0), v30, z5, tool0;
MoveL Offs(p0,144.68000000000004,1947.4160000000006, 0), v30, z5, tool0;
MoveL Offs(p0,139.05999999999997,1940.2239999999997, 0), v30, z5, tool0;
MoveL Offs(p0,132.96,1931.688, 0), v30, z5, tool0;
MoveL Offs(p0,126.5,1922.0, 0), v30, z5, tool0;
MoveL Offs(p0,119.8,1911.352, 0), v30, z5, tool0;
MoveL Offs(p0,112.97999999999999,1899.9359999999997, 0), v30, z5, tool0;
MoveL Offs(p0,106.16000000000001,1887.944, 0), v30, z5, tool0;
MoveL Offs(p0,99.46000000000001,1875.5680000000002, 0), v30, z5, tool0;
MoveL Offs(p0,93.0,1863.0, 0), v30, z5, tool0;
MoveL Offs(p0,93.0,1863.0, 0), v30, z5, tool0;
MoveL Offs(p0,83.186,1842.6440000000002, 0), v30, z5, tool0;
MoveL Offs(p0,75.20800000000003,1825.3120000000004, 0), v30, z5, tool0;
MoveL Offs(p0,68.862,1810.0079999999996, 0), v30, z5, tool0;
MoveL Offs(p0,63.94400000000001,1795.7360000000003, 0), v30, z5, tool0;
MoveL Offs(p0,60.25,1781.5, 0), v30, z5, tool0;
MoveL Offs(p0,57.576,1766.304, 0), v30, z5, tool0;
MoveL Offs(p0,55.718,1749.152, 0), v30, z5, tool0;
MoveL Offs(p0,54.47200000000001,1729.0480000000002, 0), v30, z5, tool0;
MoveL Offs(p0,53.63400000000001,1704.996, 0), v30, z5, tool0;
MoveL Offs(p0,53.0,1676.0, 0), v30, z5, tool0;
MoveL Offs(p0,53.0,1676.0, 0), v30, z5, tool0;
MoveL Offs(p0,52.57100000000001,1650.486, 0), v30, z5, tool0;
MoveL Offs(p0,51.84800000000001,1628.2480000000003, 0), v30, z5, tool0;
MoveL Offs(p0,50.776999999999994,1608.8419999999999, 0), v30, z5, tool0;
MoveL Offs(p0,49.304,1591.824, 0), v30, z5, tool0;
MoveL Offs(p0,47.375,1576.75, 0), v30, z5, tool0;
MoveL Offs(p0,44.936,1563.176, 0), v30, z5, tool0;
MoveL Offs(p0,41.933,1550.658, 0), v30, z5, tool0;
MoveL Offs(p0,38.312000000000005,1538.752, 0), v30, z5, tool0;
MoveL Offs(p0,34.019,1527.0140000000001, 0), v30, z5, tool0;
MoveL Offs(p0,29.0,1515.0, 0), v30, z5, tool0;
MoveL Offs(p0,29.0,1515.0, 0), v30, z5, tool0;
MoveL Offs(p0,19.675,1489.7350000000004, 0), v30, z5, tool0;
MoveL Offs(p0,12.120000000000003,1459.6400000000003, 0), v30, z5, tool0;
MoveL Offs(p0,6.364999999999997,1425.7649999999999, 0), v30, z5, tool0;
MoveL Offs(p0,2.439999999999999,1389.1599999999999, 0), v30, z5, tool0;
MoveL Offs(p0,0.375,1350.875, 0), v30, z5, tool0;
MoveL Offs(p0,0.20000000000000107,1311.96, 0), v30, z5, tool0;
MoveL Offs(p0,1.9450000000000012,1273.465, 0), v30, z5, tool0;
MoveL Offs(p0,5.6400000000000015,1236.44, 0), v30, z5, tool0;
MoveL Offs(p0,11.315000000000003,1201.935, 0), v30, z5, tool0;
MoveL Offs(p0,19.0,1171.0, 0), v30, z5, tool0;
MoveL Offs(p0,19.0,1171.0, 0), v30, z5, tool0;
MoveL Offs(p0,22.504000000000005,1159.22, 0), v30, z5, tool0;
MoveL Offs(p0,25.792000000000005,1146.8400000000004, 0), v30, z5, tool0;
MoveL Offs(p0,28.828000000000003,1134.1, 0), v30, z5, tool0;
MoveL Offs(p0,31.576000000000008,1121.24, 0), v30, z5, tool0;
MoveL Offs(p0,34.0,1108.5, 0), v30, z5, tool0;
MoveL Offs(p0,36.06400000000001,1096.12, 0), v30, z5, tool0;
MoveL Offs(p0,37.732,1084.34, 0), v30, z5, tool0;
MoveL Offs(p0,38.968,1073.4, 0), v30, z5, tool0;
MoveL Offs(p0,39.736000000000004,1063.54, 0), v30, z5, tool0;
MoveL Offs(p0,40.0,1055.0, 0), v30, z5, tool0;
MoveL Offs(p0,40.0,1055.0, 0), v30, z5, tool0;
MoveL Offs(p0,41.153000000000006,1037.4850000000001, 0), v30, z5, tool0;
MoveL Offs(p0,44.424000000000014,1016.1600000000001, 0), v30, z5, tool0;
MoveL Offs(p0,49.531000000000006,991.9549999999999, 0), v30, z5, tool0;
MoveL Offs(p0,56.19200000000001,965.8000000000001, 0), v30, z5, tool0;
MoveL Offs(p0,64.125,938.625, 0), v30, z5, tool0;
MoveL Offs(p0,73.04800000000002,911.36, 0), v30, z5, tool0;
MoveL Offs(p0,82.679,884.935, 0), v30, z5, tool0;
MoveL Offs(p0,92.73600000000002,860.28, 0), v30, z5, tool0;
MoveL Offs(p0,102.93700000000001,838.325, 0), v30, z5, tool0;
MoveL Offs(p0,113.0,820.0, 0), v30, z5, tool0;
MoveL Offs(p0,113.0,820.0, 0), v30, z5, tool0;
MoveL Offs(p0,116.75800000000001,813.7600000000001, 0), v30, z5, tool0;
MoveL Offs(p0,121.34400000000005,806.5600000000003, 0), v30, z5, tool0;
MoveL Offs(p0,126.62599999999999,798.5799999999999, 0), v30, z5, tool0;
MoveL Offs(p0,132.472,790.0000000000001, 0), v30, z5, tool0;
MoveL Offs(p0,138.75,781.0, 0), v30, z5, tool0;
MoveL Offs(p0,145.328,771.76, 0), v30, z5, tool0;
MoveL Offs(p0,152.07399999999998,762.46, 0), v30, z5, tool0;
MoveL Offs(p0,158.85600000000002,753.2800000000001, 0), v30, z5, tool0;
MoveL Offs(p0,165.54200000000003,744.4000000000001, 0), v30, z5, tool0;
MoveL Offs(p0,172.0,736.0, 0), v30, z5, tool0;
MoveL Offs(p0,172.0,736.0, 0), v30, z5, tool0;
MoveL Offs(p0,178.16700000000006,727.8620000000002, 0), v30, z5, tool0;
MoveL Offs(p0,184.01600000000005,719.7360000000002, 0), v30, z5, tool0;
MoveL Offs(p0,189.469,711.7539999999999, 0), v30, z5, tool0;
MoveL Offs(p0,194.44799999999998,704.048, 0), v30, z5, tool0;
MoveL Offs(p0,198.875,696.75, 0), v30, z5, tool0;
MoveL Offs(p0,202.67199999999997,689.992, 0), v30, z5, tool0;
MoveL Offs(p0,205.76100000000002,683.906, 0), v30, z5, tool0;
MoveL Offs(p0,208.06400000000002,678.624, 0), v30, z5, tool0;
MoveL Offs(p0,209.50300000000001,674.278, 0), v30, z5, tool0;
MoveL Offs(p0,210.0,671.0, 0), v30, z5, tool0;
MoveL Offs(p0,210.0,671.0, 0), v30, z5, tool0;
MoveL Offs(p0,210.38100000000006,667.546, 0), v30, z5, tool0;
MoveL Offs(p0,211.48800000000006,662.6880000000002, 0), v30, z5, tool0;
MoveL Offs(p0,213.26699999999997,656.582, 0), v30, z5, tool0;
MoveL Offs(p0,215.66400000000004,649.3840000000001, 0), v30, z5, tool0;
MoveL Offs(p0,218.625,641.25, 0), v30, z5, tool0;
MoveL Offs(p0,222.096,632.336, 0), v30, z5, tool0;
MoveL Offs(p0,226.023,622.798, 0), v30, z5, tool0;
MoveL Offs(p0,230.35200000000003,612.7920000000001, 0), v30, z5, tool0;
MoveL Offs(p0,235.02900000000002,602.474, 0), v30, z5, tool0;
MoveL Offs(p0,240.0,592.0, 0), v30, z5, tool0;
MoveL Offs(p0,240.0,592.0, 0), v30, z5, tool0;
MoveL Offs(p0,252.31900000000005,568.764, 0), v30, z5, tool0;
MoveL Offs(p0,267.39200000000005,544.9520000000002, 0), v30, z5, tool0;
MoveL Offs(p0,284.79299999999995,521.0079999999999, 0), v30, z5, tool0;
MoveL Offs(p0,304.096,497.37600000000003, 0), v30, z5, tool0;
MoveL Offs(p0,324.875,474.5, 0), v30, z5, tool0;
MoveL Offs(p0,346.704,452.82399999999996, 0), v30, z5, tool0;
MoveL Offs(p0,369.15700000000004,432.792, 0), v30, z5, tool0;
MoveL Offs(p0,391.80800000000005,414.84800000000007, 0), v30, z5, tool0;
MoveL Offs(p0,414.23100000000005,399.43600000000004, 0), v30, z5, tool0;
MoveL Offs(p0,436.0,387.0, 0), v30, z5, tool0;
MoveL Offs(p0,436.0,387.0, 0), v30, z5, tool0;
MoveL Offs(p0,444.35100000000006,382.57500000000005, 0), v30, z5, tool0;
MoveL Offs(p0,452.52800000000013,377.7600000000001, 0), v30, z5, tool0;
MoveL Offs(p0,460.41700000000003,372.6449999999999, 0), v30, z5, tool0;
MoveL Offs(p0,467.90400000000005,367.32000000000005, 0), v30, z5, tool0;
MoveL Offs(p0,474.875,361.875, 0), v30, z5, tool0;
MoveL Offs(p0,481.21599999999995,356.4, 0), v30, z5, tool0;
MoveL Offs(p0,486.813,350.985, 0), v30, z5, tool0;
MoveL Offs(p0,491.552,345.72, 0), v30, z5, tool0;
MoveL Offs(p0,495.319,340.695, 0), v30, z5, tool0;
MoveL Offs(p0,498.0,336.0, 0), v30, z5, tool0;
MoveL Offs(p0,498.0,336.0, 0), v30, z5, tool0;
MoveL Offs(p0,514.9670000000001,306.313, 0), v30, z5, tool0;
MoveL Offs(p0,538.8160000000001,276.4640000000001, 0), v30, z5, tool0;
MoveL Offs(p0,568.569,247.07099999999997, 0), v30, z5, tool0;
MoveL Offs(p0,603.248,218.752, 0), v30, z5, tool0;
MoveL Offs(p0,641.875,192.125, 0), v30, z5, tool0;
MoveL Offs(p0,683.472,167.808, 0), v30, z5, tool0;
MoveL Offs(p0,727.061,146.41899999999998, 0), v30, z5, tool0;
MoveL Offs(p0,771.6640000000001,128.576, 0), v30, z5, tool0;
MoveL Offs(p0,816.303,114.897, 0), v30, z5, tool0;
MoveL Offs(p0,860.0,106.0, 0), v30, z5, tool0;
MoveL Offs(p0,860.0,106.0, 0), v30, z5, tool0;
MoveL Offs(p0,868.2690000000001,104.36500000000001, 0), v30, z5, tool0;
MoveL Offs(p0,877.9120000000001,101.92000000000003, 0), v30, z5, tool0;
MoveL Offs(p0,888.683,98.75499999999998, 0), v30, z5, tool0;
MoveL Offs(p0,900.3360000000001,94.96000000000001, 0), v30, z5, tool0;
MoveL Offs(p0,912.625,90.625, 0), v30, z5, tool0;
MoveL Offs(p0,925.3040000000001,85.84, 0), v30, z5, tool0;
MoveL Offs(p0,938.127,80.695, 0), v30, z5, tool0;
MoveL Offs(p0,950.8480000000001,75.28, 0), v30, z5, tool0;
MoveL Offs(p0,963.221,69.685, 0), v30, z5, tool0;
MoveL Offs(p0,975.0,64.0, 0), v30, z5, tool0;
MoveL Offs(p0,975.0,64.0, 0), v30, z5, tool0;
MoveL Offs(p0,1006.932,49.008, 0), v30, z5, tool0;
MoveL Offs(p0,1037.1360000000002,36.344000000000015, 0), v30, z5, tool0;
MoveL Offs(p0,1066.2239999999997,25.875999999999994, 0), v30, z5, tool0;
MoveL Offs(p0,1094.808,17.471999999999998, 0), v30, z5, tool0;
MoveL Offs(p0,1123.5,11.0, 0), v30, z5, tool0;
MoveL Offs(p0,1152.912,6.327999999999997, 0), v30, z5, tool0;
MoveL Offs(p0,1183.656,3.3239999999999985, 0), v30, z5, tool0;
MoveL Offs(p0,1216.344,1.8559999999999997, 0), v30, z5, tool0;
MoveL Offs(p0,1251.588,1.7920000000000003, 0), v30, z5, tool0;
MoveL Offs(p0,1290.0,3.0, 0), v30, z5, tool0;
MoveL Offs(p0,1290.0,3.0, 0), v30, z5, tool0;
MoveL Offs(p0,1310.5470000000003,4.075000000000001, 0), v30, z5, tool0;
MoveL Offs(p0,1330.6560000000002,5.480000000000001, 0), v30, z5, tool0;
MoveL Offs(p0,1350.1289999999997,7.1850000000000005, 0), v30, z5, tool0;
MoveL Offs(p0,1368.7680000000003,9.16, 0), v30, z5, tool0;
MoveL Offs(p0,1386.375,11.375, 0), v30, z5, tool0;
MoveL Offs(p0,1402.752,13.8, 0), v30, z5, tool0;
MoveL Offs(p0,1417.701,16.405, 0), v30, z5, tool0;
MoveL Offs(p0,1431.0240000000001,19.160000000000004, 0), v30, z5, tool0;
MoveL Offs(p0,1442.523,22.035, 0), v30, z5, tool0;
MoveL Offs(p0,1452.0,25.0, 0), v30, z5, tool0;
MoveL Offs(p0,1452.0,25.0, 0), v30, z5, tool0;
MoveL Offs(p0,1463.7130000000002,29.056, 0), v30, z5, tool0;
MoveL Offs(p0,1474.5440000000003,32.248000000000005, 0), v30, z5, tool0;
MoveL Offs(p0,1484.9309999999998,34.612, 0), v30, z5, tool0;
MoveL Offs(p0,1495.3120000000001,36.184000000000005, 0), v30, z5, tool0;
MoveL Offs(p0,1506.125,37.0, 0), v30, z5, tool0;
MoveL Offs(p0,1517.808,37.096000000000004, 0), v30, z5, tool0;
MoveL Offs(p0,1530.799,36.507999999999996, 0), v30, z5, tool0;
MoveL Offs(p0,1545.536,35.272000000000006, 0), v30, z5, tool0;
MoveL Offs(p0,1562.457,33.424, 0), v30, z5, tool0;
MoveL Offs(p0,1582.0,31.0, 0), v30, z5, tool0;
MoveL Offs(p0,1582.0,31.0, 0), v30, z5, tool0;
MoveL Offs(p0,1661.5030000000002,25.669000000000004, 0), v30, z5, tool0;
MoveL Offs(p0,1741.8640000000005,30.232000000000006, 0), v30, z5, tool0;
MoveL Offs(p0,1821.661,44.023, 0), v30, z5, tool0;
MoveL Offs(p0,1899.472,66.376, 0), v30, z5, tool0;
MoveL Offs(p0,1973.875,96.625, 0), v30, z5, tool0;
MoveL Offs(p0,2043.448,134.10400000000004, 0), v30, z5, tool0;
MoveL Offs(p0,2106.7690000000002,178.14700000000005, 0), v30, z5, tool0;
MoveL Offs(p0,2162.416,228.08800000000005, 0), v30, z5, tool0;
MoveL Offs(p0,2208.967,283.261, 0), v30, z5, tool0;
MoveL Offs(p0,2245.0,343.0, 0), v30, z5, tool0;
MoveL Offs(p0,2245.0,343.0, 0), v30, z5, tool0;
MoveL Offs(p0,2251.353,355.53200000000004, 0), v30, z5, tool0;
MoveL Offs(p0,2257.4240000000004,366.33600000000007, 0), v30, z5, tool0;
MoveL Offs(p0,2263.531,375.72399999999993, 0), v30, z5, tool0;
MoveL Offs(p0,2269.992,384.00800000000004, 0), v30, z5, tool0;
MoveL Offs(p0,2277.125,391.5, 0), v30, z5, tool0;
MoveL Offs(p0,2285.248,398.512, 0), v30, z5, tool0;
MoveL Offs(p0,2294.679,405.356, 0), v30, z5, tool0;
MoveL Offs(p0,2305.736,412.34400000000005, 0), v30, z5, tool0;
MoveL Offs(p0,2318.737,419.788, 0), v30, z5, tool0;
MoveL Offs(p0,2334.0,428.0, 0), v30, z5, tool0;
MoveL Offs(p0,2334.0,428.0, 0), v30, z5, tool0;
MoveL Offs(p0,2376.1330000000007,453.67200000000014, 0), v30, z5, tool0;
MoveL Offs(p0,2415.824,485.1760000000001, 0), v30, z5, tool0;
MoveL Offs(p0,2452.6109999999994,521.744, 0), v30, z5, tool0;
MoveL Offs(p0,2486.032,562.6080000000001, 0), v30, z5, tool0;
MoveL Offs(p0,2515.625,607.0, 0), v30, z5, tool0;
MoveL Offs(p0,2540.928,654.152, 0), v30, z5, tool0;
MoveL Offs(p0,2561.4790000000003,703.296, 0), v30, z5, tool0;
MoveL Offs(p0,2576.8160000000003,753.6640000000001, 0), v30, z5, tool0;
MoveL Offs(p0,2586.477,804.488, 0), v30, z5, tool0;
MoveL Offs(p0,2590.0,855.0, 0), v30, z5, tool0;
MoveL Offs(p0,2590.0,855.0, 0), v30, z5, tool0;
MoveL Offs(p0,2590.2780000000002,863.8110000000001, 0), v30, z5, tool0;
MoveL Offs(p0,2591.1440000000007,872.3280000000001, 0), v30, z5, tool0;
MoveL Offs(p0,2592.646,880.677, 0), v30, z5, tool0;
MoveL Offs(p0,2594.8320000000003,888.984, 0), v30, z5, tool0;
MoveL Offs(p0,2597.75,897.375, 0), v30, z5, tool0;
MoveL Offs(p0,2601.4480000000003,905.976, 0), v30, z5, tool0;
MoveL Offs(p0,2605.974,914.913, 0), v30, z5, tool0;
MoveL Offs(p0,2611.376,924.3120000000001, 0), v30, z5, tool0;
MoveL Offs(p0,2617.702,934.2990000000001, 0), v30, z5, tool0;
MoveL Offs(p0,2625.0,945.0, 0), v30, z5, tool0;
MoveL Offs(p0,2625.0,945.0, 0), v30, z5, tool0;
MoveL Offs(p0,2643.3020000000006,974.2110000000001, 0), v30, z5, tool0;
MoveL Offs(p0,2659.6960000000004,1007.3280000000002, 0), v30, z5, tool0;
MoveL Offs(p0,2674.014,1043.577, 0), v30, z5, tool0;
MoveL Offs(p0,2686.088,1082.1840000000002, 0), v30, z5, tool0;
MoveL Offs(p0,2695.75,1122.375, 0), v30, z5, tool0;
MoveL Offs(p0,2702.8320000000003,1163.376, 0), v30, z5, tool0;
MoveL Offs(p0,2707.166,1204.413, 0), v30, z5, tool0;
MoveL Offs(p0,2708.5840000000003,1244.712, 0), v30, z5, tool0;
MoveL Offs(p0,2706.918,1283.499, 0), v30, z5, tool0;
MoveL Offs(p0,2702.0,1320.0, 0), v30, z5, tool0;
MoveL Offs(p0,2702.0,1320.0, 0), v30, z5, tool0;
MoveL Offs(p0,2700.292000000001,1328.8870000000002, 0), v30, z5, tool0;
MoveL Offs(p0,2698.776000000001,1337.4560000000004, 0), v30, z5, tool0;
MoveL Offs(p0,2697.4639999999995,1345.569, 0), v30, z5, tool0;
MoveL Offs(p0,2696.368,1353.088, 0), v30, z5, tool0;
MoveL Offs(p0,2695.5,1359.875, 0), v30, z5, tool0;
MoveL Offs(p0,2694.872,1365.792, 0), v30, z5, tool0;
MoveL Offs(p0,2694.496,1370.701, 0), v30, z5, tool0;
MoveL Offs(p0,2694.384,1374.4640000000002, 0), v30, z5, tool0;
MoveL Offs(p0,2694.548,1376.943, 0), v30, z5, tool0;
MoveL Offs(p0,2695.0,1378.0, 0), v30, z5, tool0;
MoveL Offs(p0,2695.0,1378.0, 0), v30, z5, tool0;
MoveL Offs(p0,2696.5040000000004,1377.6920000000002, 0), v30, z5, tool0;
MoveL Offs(p0,2699.7120000000004,1375.6560000000004, 0), v30, z5, tool0;
MoveL Offs(p0,2704.468,1372.024, 0), v30, z5, tool0;
MoveL Offs(p0,2710.616,1366.9279999999999, 0), v30, z5, tool0;
MoveL Offs(p0,2718.0,1360.5, 0), v30, z5, tool0;
MoveL Offs(p0,2726.464,1352.8719999999998, 0), v30, z5, tool0;
MoveL Offs(p0,2735.852,1344.176, 0), v30, z5, tool0;
MoveL Offs(p0,2746.0080000000003,1334.544, 0), v30, z5, tool0;
MoveL Offs(p0,2756.776,1324.1080000000002, 0), v30, z5, tool0;
MoveL Offs(p0,2768.0,1313.0, 0), v30, z5, tool0;
MoveL Offs(p0,2768.0,1313.0, 0), v30, z5, tool0;
MoveL Offs(p0,2794.2270000000008,1286.1260000000004, 0), v30, z5, tool0;
MoveL Offs(p0,2819.416000000001,1257.8480000000004, 0), v30, z5, tool0;
MoveL Offs(p0,2843.4289999999996,1228.382, 0), v30, z5, tool0;
MoveL Offs(p0,2866.128,1197.9440000000002, 0), v30, z5, tool0;
MoveL Offs(p0,2887.375,1166.75, 0), v30, z5, tool0;
MoveL Offs(p0,2907.032,1135.016, 0), v30, z5, tool0;
MoveL Offs(p0,2924.9610000000002,1102.958, 0), v30, z5, tool0;
MoveL Offs(p0,2941.0240000000003,1070.7920000000001, 0), v30, z5, tool0;
MoveL Offs(p0,2955.083,1038.734, 0), v30, z5, tool0;
MoveL Offs(p0,2967.0,1007.0, 0), v30, z5, tool0;
MoveL Offs(p0,2967.0,1007.0, 0), v30, z5, tool0;
MoveL Offs(p0,2973.8590000000004,986.71, 0), v30, z5, tool0;
MoveL Offs(p0,2979.5120000000006,968.5200000000003, 0), v30, z5, tool0;
MoveL Offs(p0,2984.073,951.65, 0), v30, z5, tool0;
MoveL Offs(p0,2987.656,935.32, 0), v30, z5, tool0;
MoveL Offs(p0,2990.375,918.75, 0), v30, z5, tool0;
MoveL Offs(p0,2992.344,901.1600000000001, 0), v30, z5, tool0;
MoveL Offs(p0,2993.677,881.77, 0), v30, z5, tool0;
MoveL Offs(p0,2994.4880000000003,859.8000000000001, 0), v30, z5, tool0;
MoveL Offs(p0,2994.8910000000005,834.47, 0), v30, z5, tool0;
MoveL Offs(p0,2995.0,805.0, 0), v30, z5, tool0;
MoveL Offs(p0,2995.0,805.0, 0), v30, z5, tool0;
MoveL Offs(p0,2994.8690000000006,776.794, 0), v30, z5, tool0;
MoveL Offs(p0,2994.4320000000002,752.392, 0), v30, z5, tool0;
MoveL Offs(p0,2993.623,731.218, 0), v30, z5, tool0;
MoveL Offs(p0,2992.3760000000007,712.696, 0), v30, z5, tool0;
MoveL Offs(p0,2990.625,696.25, 0), v30, z5, tool0;
MoveL Offs(p0,2988.304,681.3039999999999, 0), v30, z5, tool0;
MoveL Offs(p0,2985.3469999999998,667.2819999999999, 0), v30, z5, tool0;
MoveL Offs(p0,2981.688,653.608, 0), v30, z5, tool0;
MoveL Offs(p0,2977.261,639.706, 0), v30, z5, tool0;
MoveL Offs(p0,2972.0,625.0, 0), v30, z5, tool0;
MoveL Offs(p0,2972.0,625.0, 0), v30, z5, tool0;
MoveL Offs(p0,2962.439,601.4610000000001, 0), v30, z5, tool0;
MoveL Offs(p0,2951.792000000001,578.8880000000001, 0), v30, z5, tool0;
MoveL Offs(p0,2940.113,557.347, 0), v30, z5, tool0;
MoveL Offs(p0,2927.4560000000006,536.904, 0), v30, z5, tool0;
MoveL Offs(p0,2913.875,517.625, 0), v30, z5, tool0;
MoveL Offs(p0,2899.424,499.57599999999996, 0), v30, z5, tool0;
MoveL Offs(p0,2884.157,482.823, 0), v30, z5, tool0;
MoveL Offs(p0,2868.128,467.432, 0), v30, z5, tool0;
MoveL Offs(p0,2851.391,453.46900000000005, 0), v30, z5, tool0;
MoveL Offs(p0,2834.0,441.0, 0), v30, z5, tool0;
MoveL Offs(p0,2834.0,441.0, 0), v30, z5, tool0;
MoveL Offs(p0,2797.9450000000006,419.73100000000005, 0), v30, z5, tool0;
MoveL Offs(p0,2763.6000000000004,404.52800000000013, 0), v30, z5, tool0;
MoveL Offs(p0,2730.995,395.397, 0), v30, z5, tool0;
MoveL Offs(p0,2700.16,392.344, 0), v30, z5, tool0;
MoveL Offs(p0,2671.125,395.375, 0), v30, z5, tool0;
MoveL Offs(p0,2643.92,404.49600000000004, 0), v30, z5, tool0;
MoveL Offs(p0,2618.575,419.713, 0), v30, z5, tool0;
MoveL Offs(p0,2595.12,441.03200000000004, 0), v30, z5, tool0;
MoveL Offs(p0,2573.585,468.459, 0), v30, z5, tool0;
MoveL Offs(p0,2554.0,502.0, 0), v30, z5, tool0;
MoveL Offs(p0,2554.0,502.0, 0), v30, z5, tool0;
MoveL Offs(p0,2548.774000000001,511.8470000000001, 0), v30, z5, tool0;
MoveL Offs(p0,2543.8720000000008,520.4160000000002, 0), v30, z5, tool0;
MoveL Offs(p0,2539.258,527.749, 0), v30, z5, tool0;
MoveL Offs(p0,2534.8959999999997,533.888, 0), v30, z5, tool0;
MoveL Offs(p0,2530.75,538.875, 0), v30, z5, tool0;
MoveL Offs(p0,2526.7839999999997,542.752, 0), v30, z5, tool0;
MoveL Offs(p0,2522.962,545.561, 0), v30, z5, tool0;
MoveL Offs(p0,2519.248,547.344, 0), v30, z5, tool0;
MoveL Offs(p0,2515.606,548.143, 0), v30, z5, tool0;
MoveL Offs(p0,2512.0,548.0, 0), v30, z5, tool0;
MoveL Offs(p0,2512.0,548.0, 0), v30, z5, tool0;
MoveL Offs(p0,2504.911,544.024, 0), v30, z5, tool0;
MoveL Offs(p0,2499.8080000000004,536.1120000000002, 0), v30, z5, tool0;
MoveL Offs(p0,2496.6369999999997,524.8879999999999, 0), v30, z5, tool0;
MoveL Offs(p0,2495.344,510.976, 0), v30, z5, tool0;
MoveL Offs(p0,2495.875,495.0, 0), v30, z5, tool0;
MoveL Offs(p0,2498.176,477.58399999999995, 0), v30, z5, tool0;
MoveL Offs(p0,2502.193,459.352, 0), v30, z5, tool0;
MoveL Offs(p0,2507.8720000000003,440.928, 0), v30, z5, tool0;
MoveL Offs(p0,2515.159,422.93600000000004, 0), v30, z5, tool0;
MoveL Offs(p0,2524.0,406.0, 0), v30, z5, tool0;
MoveL Offs(p0,2524.0,406.0, 0), v30, z5, tool0;
MoveL Offs(p0,2539.7310000000007,382.27700000000004, 0), v30, z5, tool0;
MoveL Offs(p0,2557.448000000001,361.5360000000001, 0), v30, z5, tool0;
MoveL Offs(p0,2577.037,343.819, 0), v30, z5, tool0;
MoveL Offs(p0,2598.384,329.168, 0), v30, z5, tool0;
MoveL Offs(p0,2621.375,317.625, 0), v30, z5, tool0;
MoveL Offs(p0,2645.896,309.23199999999997, 0), v30, z5, tool0;
MoveL Offs(p0,2671.833,304.031, 0), v30, z5, tool0;
MoveL Offs(p0,2699.072,302.064, 0), v30, z5, tool0;
MoveL Offs(p0,2727.4990000000003,303.37300000000005, 0), v30, z5, tool0;
MoveL Offs(p0,2757.0,308.0, 0), v30, z5, tool0;
MoveL Offs(p0,2757.0,308.0, 0), v30, z5, tool0;
MoveL Offs(p0,2808.0010000000007,321.7730000000001, 0), v30, z5, tool0;
MoveL Offs(p0,2855.888000000001,340.78400000000005, 0), v30, z5, tool0;
MoveL Offs(p0,2900.4869999999996,364.87100000000004, 0), v30, z5, tool0;
MoveL Offs(p0,2941.6240000000003,393.872, 0), v30, z5, tool0;
MoveL Offs(p0,2979.125,427.625, 0), v30, z5, tool0;
MoveL Offs(p0,3012.816,465.968, 0), v30, z5, tool0;
MoveL Offs(p0,3042.523,508.73900000000003, 0), v30, z5, tool0;
MoveL Offs(p0,3068.072,555.7760000000001, 0), v30, z5, tool0;
MoveL Offs(p0,3089.289,606.917, 0), v30, z5, tool0;
MoveL Offs(p0,3106.0,662.0, 0), v30, z5, tool0;
MoveL Offs(p0,3106.0,662.0, 0), v30, z5, tool0;
MoveL Offs(p0,3112.7270000000003,694.1870000000001, 0), v30, z5, tool0;
MoveL Offs(p0,3117.336000000001,729.6560000000002, 0), v30, z5, tool0;
MoveL Offs(p0,3119.8689999999997,767.6690000000001, 0), v30, z5, tool0;
MoveL Offs(p0,3120.368,807.488, 0), v30, z5, tool0;
MoveL Offs(p0,3118.875,848.375, 0), v30, z5, tool0;
MoveL Offs(p0,3115.4320000000002,889.592, 0), v30, z5, tool0;
MoveL Offs(p0,3110.081,930.4010000000001, 0), v30, z5, tool0;
MoveL Offs(p0,3102.8640000000005,970.0640000000001, 0), v30, z5, tool0;
MoveL Offs(p0,3093.823,1007.8430000000001, 0), v30, z5, tool0;
MoveL Offs(p0,3083.0,1043.0, 0), v30, z5, tool0;
MoveL Offs(p0,3083.0,1043.0, 0), v30, z5, tool0;
MoveL Offs(p0,3063.407,1093.9460000000001, 0), v30, z5, tool0;
MoveL Offs(p0,3040.6160000000004,1143.6080000000002, 0), v30, z5, tool0;
MoveL Offs(p0,3014.6090000000004,1192.022, 0), v30, z5, tool0;
MoveL Offs(p0,2985.3680000000004,1239.2240000000002, 0), v30, z5, tool0;
MoveL Offs(p0,2952.875,1285.25, 0), v30, z5, tool0;
MoveL Offs(p0,2917.112,1330.136, 0), v30, z5, tool0;
MoveL Offs(p0,2878.0609999999997,1373.9180000000001, 0), v30, z5, tool0;
MoveL Offs(p0,2835.704,1416.632, 0), v30, z5, tool0;
MoveL Offs(p0,2790.023,1458.314, 0), v30, z5, tool0;
MoveL Offs(p0,2741.0,1499.0, 0), v30, z5, tool0;
MoveL Offs(p0,2653.0,1568.0, 0), v30, z5, tool0;
MoveL Offs(p0,2662.0,1627.0, 0), v30, z5, tool0;
MoveL Offs(p0,2662.0,1627.0, 0), v30, z5, tool0;
MoveL Offs(p0,2664.763,1647.3990000000001, 0), v30, z5, tool0;
MoveL Offs(p0,2666.464000000001,1668.8720000000005, 0), v30, z5, tool0;
MoveL Offs(p0,2667.121,1691.2330000000002, 0), v30, z5, tool0;
MoveL Offs(p0,2666.752,1714.296, 0), v30, z5, tool0;
MoveL Offs(p0,2665.375,1737.875, 0), v30, z5, tool0;
MoveL Offs(p0,2663.008,1761.784, 0), v30, z5, tool0;
MoveL Offs(p0,2659.669,1785.837, 0), v30, z5, tool0;
MoveL Offs(p0,2655.376,1809.848, 0), v30, z5, tool0;
MoveL Offs(p0,2650.1470000000004,1833.631, 0), v30, z5, tool0;
MoveL Offs(p0,2644.0,1857.0, 0), v30, z5, tool0;
MoveL Offs(p0,2644.0,1857.0, 0), v30, z5, tool0;
MoveL Offs(p0,2639.771,1872.1660000000004, 0), v30, z5, tool0;
MoveL Offs(p0,2636.6880000000006,1885.3280000000004, 0), v30, z5, tool0;
MoveL Offs(p0,2634.757,1896.5819999999999, 0), v30, z5, tool0;
MoveL Offs(p0,2633.9840000000004,1906.0240000000003, 0), v30, z5, tool0;
MoveL Offs(p0,2634.375,1913.75, 0), v30, z5, tool0;
MoveL Offs(p0,2635.9359999999997,1919.8559999999998, 0), v30, z5, tool0;
MoveL Offs(p0,2638.673,1924.438, 0), v30, z5, tool0;
MoveL Offs(p0,2642.5920000000006,1927.592, 0), v30, z5, tool0;
MoveL Offs(p0,2647.699,1929.4140000000002, 0), v30, z5, tool0;
MoveL Offs(p0,2654.0,1930.0, 0), v30, z5, tool0;
MoveL Offs(p0,2654.0,1930.0, 0), v30, z5, tool0;
MoveL Offs(p0,2661.1620000000003,1925.3870000000002, 0), v30, z5, tool0;
MoveL Offs(p0,2672.2960000000007,1911.8160000000005, 0), v30, z5, tool0;
MoveL Offs(p0,2687.174,1889.689, 0), v30, z5, tool0;
MoveL Offs(p0,2705.568,1859.4080000000001, 0), v30, z5, tool0;
MoveL Offs(p0,2727.25,1821.375, 0), v30, z5, tool0;
MoveL Offs(p0,2751.9919999999997,1775.9919999999997, 0), v30, z5, tool0;
MoveL Offs(p0,2779.566,1723.661, 0), v30, z5, tool0;
MoveL Offs(p0,2809.7440000000006,1664.784, 0), v30, z5, tool0;
MoveL Offs(p0,2842.298,1599.763, 0), v30, z5, tool0;
MoveL Offs(p0,2877.0,1529.0, 0), v30, z5, tool0;
MoveL Offs(p0,2877.0,1529.0, 0), v30, z5, tool0;
MoveL Offs(p0,2906.492,1469.2290000000003, 0), v30, z5, tool0;
MoveL Offs(p0,2931.856000000001,1419.4720000000004, 0), v30, z5, tool0;
MoveL Offs(p0,2953.824,1378.7629999999997, 0), v30, z5, tool0;
MoveL Offs(p0,2973.128,1346.1360000000002, 0), v30, z5, tool0;
MoveL Offs(p0,2990.5,1320.625, 0), v30, z5, tool0;
MoveL Offs(p0,3006.672,1301.264, 0), v30, z5, tool0;
MoveL Offs(p0,3022.376,1287.087, 0), v30, z5, tool0;
MoveL Offs(p0,3038.344,1277.1280000000002, 0), v30, z5, tool0;
MoveL Offs(p0,3055.308,1270.421, 0), v30, z5, tool0;
MoveL Offs(p0,3074.0,1266.0, 0), v30, z5, tool0;
MoveL Offs(p0,3074.0,1266.0, 0), v30, z5, tool0;
MoveL Offs(p0,3090.4870000000005,1264.7160000000001, 0), v30, z5, tool0;
MoveL Offs(p0,3110.616000000001,1266.2880000000002, 0), v30, z5, tool0;
MoveL Offs(p0,3134.489,1270.752, 0), v30, z5, tool0;
MoveL Offs(p0,3162.208,1278.144, 0), v30, z5, tool0;
MoveL Offs(p0,3193.875,1288.5, 0), v30, z5, tool0;
MoveL Offs(p0,3229.5919999999996,1301.856, 0), v30, z5, tool0;
MoveL Offs(p0,3269.4610000000002,1318.248, 0), v30, z5, tool0;
MoveL Offs(p0,3313.5840000000003,1337.712, 0), v30, z5, tool0;
MoveL Offs(p0,3362.063,1360.284, 0), v30, z5, tool0;
MoveL Offs(p0,3415.0,1386.0, 0), v30, z5, tool0;
MoveL Offs(p0,3415.0,1386.0, 0), v30, z5, tool0;
MoveL Offs(p0,3470.475000000001,1413.9600000000003, 0), v30, z5, tool0;
MoveL Offs(p0,3518.0000000000014,1438.8000000000004, 0), v30, z5, tool0;
MoveL Offs(p0,3558.325,1461.06, 0), v30, z5, tool0;
MoveL Offs(p0,3592.2,1481.28, 0), v30, z5, tool0;
MoveL Offs(p0,3620.375,1500.0, 0), v30, z5, tool0;
MoveL Offs(p0,3643.6000000000004,1517.7599999999998, 0), v30, z5, tool0;
MoveL Offs(p0,3662.625,1535.1, 0), v30, z5, tool0;
MoveL Offs(p0,3678.2000000000003,1552.56, 0), v30, z5, tool0;
MoveL Offs(p0,3691.075,1570.68, 0), v30, z5, tool0;
MoveL Offs(p0,3702.0,1590.0, 0), v30, z5, tool0;
MoveL Offs(p0,3702.0,1590.0, 0), v30, z5, tool0;
MoveL Offs(p0,3715.5220000000004,1618.2040000000004, 0), v30, z5, tool0;
MoveL Offs(p0,3724.376000000001,1644.8720000000005, 0), v30, z5, tool0;
MoveL Offs(p0,3727.794,1672.188, 0), v30, z5, tool0;
MoveL Offs(p0,3725.0080000000003,1702.3360000000005, 0), v30, z5, tool0;
MoveL Offs(p0,3715.25,1737.5, 0), v30, z5, tool0;
MoveL Offs(p0,3697.7520000000004,1779.8639999999998, 0), v30, z5, tool0;
MoveL Offs(p0,3671.746,1831.612, 0), v30, z5, tool0;
MoveL Offs(p0,3636.4640000000004,1894.928, 0), v30, z5, tool0;
MoveL Offs(p0,3591.138,1971.996, 0), v30, z5, tool0;
MoveL Offs(p0,3535.0,2065.0, 0), v30, z5, tool0;
MoveL Offs(p0,3535.0,2065.0, 0), v30, z5, tool0;
MoveL Offs(p0,3514.2300000000005,2099.5070000000005, 0), v30, z5, tool0;
MoveL Offs(p0,3494.120000000001,2133.096000000001, 0), v30, z5, tool0;
MoveL Offs(p0,3474.97,2165.269, 0), v30, z5, tool0;
MoveL Offs(p0,3457.0800000000004,2195.528, 0), v30, z5, tool0;
MoveL Offs(p0,3440.75,2223.375, 0), v30, z5, tool0;
MoveL Offs(p0,3426.28,2248.312, 0), v30, z5, tool0;
MoveL Offs(p0,3413.9700000000003,2269.841, 0), v30, z5, tool0;
MoveL Offs(p0,3404.12,2287.464, 0), v30, z5, tool0;
MoveL Offs(p0,3397.03,2300.683, 0), v30, z5, tool0;
MoveL Offs(p0,3393.0,2309.0, 0), v30, z5, tool0;
MoveL Offs(p0,3393.0,2309.0, 0), v30, z5, tool0;
MoveL Offs(p0,3389.2290000000007,2318.016, 0), v30, z5, tool0;
MoveL Offs(p0,3386.3520000000008,2325.4480000000003, 0), v30, z5, tool0;
MoveL Offs(p0,3384.4230000000007,2331.5719999999997, 0), v30, z5, tool0;
MoveL Offs(p0,3383.496,2336.6640000000007, 0), v30, z5, tool0;
MoveL Offs(p0,3383.625,2341.0, 0), v30, z5, tool0;
MoveL Offs(p0,3384.864,2344.8559999999998, 0), v30, z5, tool0;
MoveL Offs(p0,3387.267,2348.508, 0), v30, z5, tool0;
MoveL Offs(p0,3390.8880000000004,2352.232, 0), v30, z5, tool0;
MoveL Offs(p0,3395.7810000000004,2356.304, 0), v30, z5, tool0;
MoveL Offs(p0,3402.0,2361.0, 0), v30, z5, tool0;
MoveL Offs(p0,3402.0,2361.0, 0), v30, z5, tool0;
MoveL Offs(p0,3420.5740000000005,2373.063, 0), v30, z5, tool0;
MoveL Offs(p0,3440.672000000001,2382.264000000001, 0), v30, z5, tool0;
MoveL Offs(p0,3461.958,2388.6209999999996, 0), v30, z5, tool0;
MoveL Offs(p0,3484.0960000000005,2392.152, 0), v30, z5, tool0;
MoveL Offs(p0,3506.75,2392.875, 0), v30, z5, tool0;
MoveL Offs(p0,3529.584,2390.808, 0), v30, z5, tool0;
MoveL Offs(p0,3552.2619999999997,2385.969, 0), v30, z5, tool0;
MoveL Offs(p0,3574.4480000000003,2378.376, 0), v30, z5, tool0;
MoveL Offs(p0,3595.806,2368.0470000000005, 0), v30, z5, tool0;
MoveL Offs(p0,3616.0,2355.0, 0), v30, z5, tool0;
MoveL Offs(p0,3616.0,2355.0, 0), v30, z5, tool0;
MoveL Offs(p0,3627.1030000000005,2344.9080000000004, 0), v30, z5, tool0;
MoveL Offs(p0,3638.7040000000015,2331.6240000000003, 0), v30, z5, tool0;
MoveL Offs(p0,3650.6409999999996,2315.4359999999997, 0), v30, z5, tool0;
MoveL Offs(p0,3662.7520000000004,2296.632, 0), v30, z5, tool0;
MoveL Offs(p0,3674.875,2275.5, 0), v30, z5, tool0;
MoveL Offs(p0,3686.848,2252.328, 0), v30, z5, tool0;
MoveL Offs(p0,3698.509,2227.404, 0), v30, z5, tool0;
MoveL Offs(p0,3709.696,2201.016, 0), v30, z5, tool0;
MoveL Offs(p0,3720.2470000000003,2173.452, 0), v30, z5, tool0;
MoveL Offs(p0,3730.0,2145.0, 0), v30, z5, tool0;
MoveL Offs(p0,3730.0,2145.0, 0), v30, z5, tool0;
MoveL Offs(p0,3758.743000000001,2063.605, 0), v30, z5, tool0;
MoveL Offs(p0,3792.064000000001,1988.1200000000006, 0), v30, z5, tool0;
MoveL Offs(p0,3829.801,1918.695, 0), v30, z5, tool0;
MoveL Offs(p0,3871.792,1855.4800000000002, 0), v30, z5, tool0;
MoveL Offs(p0,3917.875,1798.625, 0), v30, z5, tool0;
MoveL Offs(p0,3967.888,1748.28, 0), v30, z5, tool0;
MoveL Offs(p0,4021.669,1704.5949999999998, 0), v30, z5, tool0;
MoveL Offs(p0,4079.056,1667.7200000000003, 0), v30, z5, tool0;
MoveL Offs(p0,4139.887000000001,1637.8049999999998, 0), v30, z5, tool0;
MoveL Offs(p0,4204.0,1615.0, 0), v30, z5, tool0;
MoveL Offs(p0,4204.0,1615.0, 0), v30, z5, tool0;
MoveL Offs(p0,4231.5380000000005,1608.48, 0), v30, z5, tool0;
MoveL Offs(p0,4263.024,1603.8800000000006, 0), v30, z5, tool0;
MoveL Offs(p0,4297.366,1601.1399999999996, 0), v30, z5, tool0;
MoveL Offs(p0,4333.472,1600.2, 0), v30, z5, tool0;
MoveL Offs(p0,4370.25,1601.0, 0), v30, z5, tool0;
MoveL Offs(p0,4406.608,1603.4800000000002, 0), v30, z5, tool0;
MoveL Offs(p0,4441.454,1607.58, 0), v30, z5, tool0;
MoveL Offs(p0,4473.696,1613.2400000000002, 0), v30, z5, tool0;
MoveL Offs(p0,4502.242,1620.4, 0), v30, z5, tool0;
MoveL Offs(p0,4526.0,1629.0, 0), v30, z5, tool0;
MoveL Offs(p0,4526.0,1629.0, 0), v30, z5, tool0;
MoveL Offs(p0,4544.057000000001,1637.8180000000002, 0), v30, z5, tool0;
MoveL Offs(p0,4562.096000000001,1648.5440000000006, 0), v30, z5, tool0;
MoveL Offs(p0,4579.919,1660.9859999999999, 0), v30, z5, tool0;
MoveL Offs(p0,4597.328,1674.9520000000002, 0), v30, z5, tool0;
MoveL Offs(p0,4614.125,1690.25, 0), v30, z5, tool0;
MoveL Offs(p0,4630.112,1706.688, 0), v30, z5, tool0;
MoveL Offs(p0,4645.091,1724.0739999999998, 0), v30, z5, tool0;
MoveL Offs(p0,4658.8640000000005,1742.2160000000001, 0), v30, z5, tool0;
MoveL Offs(p0,4671.233,1760.922, 0), v30, z5, tool0;
MoveL Offs(p0,4682.0,1780.0, 0), v30, z5, tool0;
MoveL Offs(p0,4682.0,1780.0, 0), v30, z5, tool0;
MoveL Offs(p0,4691.150000000001,1801.266, 0), v30, z5, tool0;
MoveL Offs(p0,4698.200000000002,1825.0880000000006, 0), v30, z5, tool0;
MoveL Offs(p0,4703.15,1850.9019999999998, 0), v30, z5, tool0;
MoveL Offs(p0,4706.0,1878.144, 0), v30, z5, tool0;
MoveL Offs(p0,4706.75,1906.25, 0), v30, z5, tool0;
MoveL Offs(p0,4705.4,1934.656, 0), v30, z5, tool0;
MoveL Offs(p0,4701.95,1962.7979999999998, 0), v30, z5, tool0;
MoveL Offs(p0,4696.4,1990.112, 0), v30, z5, tool0;
MoveL Offs(p0,4688.75,2016.034, 0), v30, z5, tool0;
MoveL Offs(p0,4679.0,2040.0, 0), v30, z5, tool0;
MoveL Offs(p0,4679.0,2040.0, 0), v30, z5, tool0;
MoveL Offs(p0,4660.064,2075.446, 0), v30, z5, tool0;
MoveL Offs(p0,4637.072000000001,2109.6080000000006, 0), v30, z5, tool0;
MoveL Offs(p0,4610.347999999999,2142.2219999999998, 0), v30, z5, tool0;
MoveL Offs(p0,4580.216,2173.024, 0), v30, z5, tool0;
MoveL Offs(p0,4547.0,2201.75, 0), v30, z5, tool0;
MoveL Offs(p0,4511.024,2228.136, 0), v30, z5, tool0;
MoveL Offs(p0,4472.611999999999,2251.918, 0), v30, z5, tool0;
MoveL Offs(p0,4432.088,2272.8320000000003, 0), v30, z5, tool0;
MoveL Offs(p0,4389.776,2290.614, 0), v30, z5, tool0;
MoveL Offs(p0,4346.0,2305.0, 0), v30, z5, tool0;
MoveL Offs(p0,4346.0,2305.0, 0), v30, z5, tool0;
MoveL Offs(p0,4308.581,2313.6510000000003, 0), v30, z5, tool0;
MoveL Offs(p0,4268.768000000001,2318.768000000001, 0), v30, z5, tool0;
MoveL Offs(p0,4228.127,2320.597, 0), v30, z5, tool0;
MoveL Offs(p0,4188.224000000001,2319.384, 0), v30, z5, tool0;
MoveL Offs(p0,4150.625,2315.375, 0), v30, z5, tool0;
MoveL Offs(p0,4116.896000000001,2308.816, 0), v30, z5, tool0;
MoveL Offs(p0,4088.603,2299.953, 0), v30, z5, tool0;
MoveL Offs(p0,4067.3120000000004,2289.032, 0), v30, z5, tool0;
MoveL Offs(p0,4054.589,2276.299, 0), v30, z5, tool0;
MoveL Offs(p0,4052.0,2262.0, 0), v30, z5, tool0;
MoveL Offs(p0,4052.0,2262.0, 0), v30, z5, tool0;
MoveL Offs(p0,4053.9830000000006,2257.0790000000006, 0), v30, z5, tool0;
MoveL Offs(p0,4057.664000000002,2253.1120000000005, 0), v30, z5, tool0;
MoveL Offs(p0,4063.2409999999995,2250.093, 0), v30, z5, tool0;
MoveL Offs(p0,4070.9120000000003,2248.016, 0), v30, z5, tool0;
MoveL Offs(p0,4080.875,2246.875, 0), v30, z5, tool0;
MoveL Offs(p0,4093.328,2246.664, 0), v30, z5, tool0;
MoveL Offs(p0,4108.469,2247.377, 0), v30, z5, tool0;
MoveL Offs(p0,4126.496,2249.008, 0), v30, z5, tool0;
MoveL Offs(p0,4147.607,2251.5510000000004, 0), v30, z5, tool0;
MoveL Offs(p0,4172.0,2255.0, 0), v30, z5, tool0;
MoveL Offs(p0,4172.0,2255.0, 0), v30, z5, tool0;
MoveL Offs(p0,4199.113,2257.135, 0), v30, z5, tool0;
MoveL Offs(p0,4228.464000000002,2255.8800000000006, 0), v30, z5, tool0;
MoveL Offs(p0,4259.471,2251.445, 0), v30, z5, tool0;
MoveL Offs(p0,4291.552000000001,2244.04, 0), v30, z5, tool0;
MoveL Offs(p0,4324.125,2233.875, 0), v30, z5, tool0;
MoveL Offs(p0,4356.608,2221.16, 0), v30, z5, tool0;
MoveL Offs(p0,4388.419,2206.105, 0), v30, z5, tool0;
MoveL Offs(p0,4418.976000000001,2188.92, 0), v30, z5, tool0;
MoveL Offs(p0,4447.697,2169.815, 0), v30, z5, tool0;
MoveL Offs(p0,4474.0,2149.0, 0), v30, z5, tool0;
MoveL Offs(p0,4474.0,2149.0, 0), v30, z5, tool0;
MoveL Offs(p0,4489.966,2133.915, 0), v30, z5, tool0;
MoveL Offs(p0,4505.368000000001,2117.600000000001, 0), v30, z5, tool0;
MoveL Offs(p0,4520.062,2100.265, 0), v30, z5, tool0;
MoveL Offs(p0,4533.904,2082.1200000000003, 0), v30, z5, tool0;
MoveL Offs(p0,4546.75,2063.375, 0), v30, z5, tool0;
MoveL Offs(p0,4558.456,2044.24, 0), v30, z5, tool0;
MoveL Offs(p0,4568.878,2024.925, 0), v30, z5, tool0;
MoveL Offs(p0,4577.872,2005.64, 0), v30, z5, tool0;
MoveL Offs(p0,4585.294,1986.5950000000003, 0), v30, z5, tool0;
MoveL Offs(p0,4591.0,1968.0, 0), v30, z5, tool0;
MoveL Offs(p0,4591.0,1968.0, 0), v30, z5, tool0;
MoveL Offs(p0,4596.938000000001,1913.8440000000005, 0), v30, z5, tool0;
MoveL Offs(p0,4586.184000000001,1864.2720000000006, 0), v30, z5, tool0;
MoveL Offs(p0,4560.8859999999995,1820.3280000000002, 0), v30, z5, tool0;
MoveL Offs(p0,4523.192,1783.056, 0), v30, z5, tool0;
MoveL Offs(p0,4475.25,1753.5, 0), v30, z5, tool0;
MoveL Offs(p0,4419.208,1732.7039999999997, 0), v30, z5, tool0;
MoveL Offs(p0,4357.214,1721.712, 0), v30, z5, tool0;
MoveL Offs(p0,4291.416,1721.5680000000002, 0), v30, z5, tool0;
MoveL Offs(p0,4223.962,1733.316, 0), v30, z5, tool0;
MoveL Offs(p0,4157.0,1758.0, 0), v30, z5, tool0;
MoveL Offs(p0,4157.0,1758.0, 0), v30, z5, tool0;
MoveL Offs(p0,4116.517000000001,1779.3920000000003, 0), v30, z5, tool0;
MoveL Offs(p0,4078.8960000000015,1804.8160000000007, 0), v30, z5, tool0;
MoveL Offs(p0,4043.879,1834.644, 0), v30, z5, tool0;
MoveL Offs(p0,4011.2080000000005,1869.248, 0), v30, z5, tool0;
MoveL Offs(p0,3980.625,1909.0, 0), v30, z5, tool0;
MoveL Offs(p0,3951.872,1954.2720000000002, 0), v30, z5, tool0;
MoveL Offs(p0,3924.691,2005.4360000000001, 0), v30, z5, tool0;
MoveL Offs(p0,3898.8240000000005,2062.864, 0), v30, z5, tool0;
MoveL Offs(p0,3874.0130000000004,2126.928, 0), v30, z5, tool0;
MoveL Offs(p0,3850.0,2198.0, 0), v30, z5, tool0;
MoveL Offs(p0,3850.0,2198.0, 0), v30, z5, tool0;
MoveL Offs(p0,3841.632000000001,2223.376, 0), v30, z5, tool0;
MoveL Offs(p0,3833.336000000001,2247.2880000000005, 0), v30, z5, tool0;
MoveL Offs(p0,3825.124,2269.7119999999995, 0), v30, z5, tool0;
MoveL Offs(p0,3817.0080000000003,2290.6240000000003, 0), v30, z5, tool0;
MoveL Offs(p0,3809.0,2310.0, 0), v30, z5, tool0;
MoveL Offs(p0,3801.112,2327.816, 0), v30, z5, tool0;
MoveL Offs(p0,3793.3559999999998,2344.048, 0), v30, z5, tool0;
MoveL Offs(p0,3785.744,2358.6720000000005, 0), v30, z5, tool0;
MoveL Offs(p0,3778.288,2371.6639999999998, 0), v30, z5, tool0;
MoveL Offs(p0,3771.0,2383.0, 0), v30, z5, tool0;
MoveL Offs(p0,3771.0,2383.0, 0), v30, z5, tool0;
MoveL Offs(p0,3757.812000000001,2400.4620000000004, 0), v30, z5, tool0;
MoveL Offs(p0,3743.016000000001,2417.3360000000007, 0), v30, z5, tool0;
MoveL Offs(p0,3726.864,2433.4539999999997, 0), v30, z5, tool0;
MoveL Offs(p0,3709.6079999999997,2448.648, 0), v30, z5, tool0;
MoveL Offs(p0,3691.5,2462.75, 0), v30, z5, tool0;
MoveL Offs(p0,3672.792,2475.592, 0), v30, z5, tool0;
MoveL Offs(p0,3653.736,2487.006, 0), v30, z5, tool0;
MoveL Offs(p0,3634.5840000000003,2496.8240000000005, 0), v30, z5, tool0;
MoveL Offs(p0,3615.588,2504.878, 0), v30, z5, tool0;
MoveL Offs(p0,3597.0,2511.0, 0), v30, z5, tool0;
MoveL Offs(p0,3597.0,2511.0, 0), v30, z5, tool0;
MoveL Offs(p0,3582.1470000000004,2514.125, 0), v30, z5, tool0;
MoveL Offs(p0,3563.9760000000006,2516.320000000001, 0), v30, z5, tool0;
MoveL Offs(p0,3543.369,2517.615, 0), v30, z5, tool0;
MoveL Offs(p0,3521.2080000000005,2518.04, 0), v30, z5, tool0;
MoveL Offs(p0,3498.375,2517.625, 0), v30, z5, tool0;
MoveL Offs(p0,3475.752,2516.4, 0), v30, z5, tool0;
MoveL Offs(p0,3454.2209999999995,2514.395, 0), v30, z5, tool0;
MoveL Offs(p0,3434.664,2511.6400000000003, 0), v30, z5, tool0;
MoveL Offs(p0,3417.963,2508.165, 0), v30, z5, tool0;
MoveL Offs(p0,3405.0,2504.0, 0), v30, z5, tool0;
MoveL Offs(p0,3405.0,2504.0, 0), v30, z5, tool0;
